yoavgoldstein1/3D-Social-Research/CSVs/Sampled/0_477_Final.csv
FrameID,BodyID,Type,Joint 1,Joint 2,Joint 3,Joint 4,Joint 5,Joint 6,Joint 7,Joint 8,Joint 9,Joint 10,Joint 11,Joint 12,Joint 13,Joint 14,Joint 15,Joint 16,Joint 17,Joint 18,Joint 19,Joint 20,Joint 21,Distances
0
1
2
3
4
5
6
7
8
9
10
11
12
13
14
15
16
17
18
19
20
21
22
23
24
25
26
27
28,0,Keypoints(m),"[0.0, 0.0, 0.0]","[0.0, 0.0, 0.0]","[0.0, 0.0, 0.0]","[0.0, 0.0, 0.0]","[0.0, 0.0, 0.0]","[0.0, 0.0, 0.0]","[0.0, 0.0, 0.0]","[0.0, 0.0, 0.0]","[0.0, 0.0, 0.0]","[0.0, 0.0, 0.0]","[0.0, 0.0, 0.0]","[0.0, 0.0, 0.0]","[0.0, 0.0, 0.0]","[0.0, 0.0, 0.0]","[0.0, 0.0, 0.0]","[0.0, 0.0, 0.0]","[0.0, 0.0, 0.0]","[0.0, 0.0, 0.0]","[0.0, 0.0, 0.0]","[0.0, 0.0, 0.0]","[0.0, 0.0, 0.0]"
28,0,Keypoints(image),"[505000.0, 213000.0, 196.37099999999998]","[508000.0, 223000.0, 77.2992]","[506000.0, 223000.0, 127.52]","[506000.0, 225000.0, 111.309]","[0.0, 0.0, 0.0]","[509000.0, 223000.0, 68.5218]","[0.0, 0.0, 0.0]","[0.0, 0.0, 0.0]","[0.0, 0.0, 0.0]","[0.0, 0.0, 0.0]","[0.0, 0.0, 0.0]","[0.0, 0.0, 0.0]","[0.0, 0.0, 0.0]","[0.0, 0.0, 0.0]","[0.0, 0.0, 0.0]","[506000.0, 213000.0, 69.5162]","[0.0, 0.0, 0.0]","[505000.0, 214000.0, 78.0744]","[0.0, 0.0, 0.0]","[0.0, 0.0, 0.0]","[0.0, 0.0, 0.0]"
28,,Distance(m),0.0,0.0,0.0,0.0,0.0,0.0,0.0,0.0,0.0,0.0,0.0,0.0,0.0,0.0,0.0,0.0,0.0,0.0,0.0,0.0,0.0
28,0,Cloud Points(m),"[5.901, -1.712, 31.563]","[0.0, 0.0, 0.0]","[0.0, 0.0, 0.0]","[3.47, -0.477, 18.331]","[3.602, -0.564, 18.344]","[5.71, -1.636, 30.1585]","[5.555, -1.542, 29.713]"
29,0,Keypoints(m),"[5.975, -1.712, 31.563]","[0.0, 0.0, 0.0]","[0.0, 0.0, 0.0]","[0.0, 0.0, 0.0]","[0.0, 0.0, 0.0]","[0.0, 0.0, 0.0]","[0.0, 0.0, 0.0]","[0.0, 0.0, 0.0]","[0.0, 0.0, 0.0]","[0.0, 0.0, 0.0]","[0.0, 0.0, 0.0]","[0.0, 0.0, 0.0]","[0.0, 0.0, 0.0]","[0.0, 0.0, 0.0]","[0.0, 0.0, 0.0]","[0.0, 0.0, 0.0]","[0.0, 0.0, 0.0]","[0.0, 0.0, 0.0]","[0.0, 0.0, 0.0]","[0.0, 0.0, 0.0]","[0.0, 0.0, 0.0]"
29,0,Keypoints(image),"[506000.0, 213000.0, 267.115]","[507000.0, 222000.0, 109.19099999999999]","[506000.0, 223000.0, 160.891]","[506000.0, 224000.0, 149.73]","[0.0, 0.0, 0.0]","[508000.0, 222000.0, 92.0563]","[0.0, 0.0, 0.0]","[0.0, 0.0, 0.0]","[0.0, 0.0, 0.0]","[0.0, 0.0, 0.0]","[0.0, 0.0, 0.0]","[0.0, 0.0, 0.0]","[0.0, 0.0, 0.0]","[0.0, 0.0, 0.0]","[0.0, 0.0, 0.0]","[506000.0, 215000.0, 60.399899999999995]","[0.0, 0.0, 0.0]","[505000.0, 214000.0, 84.5733]","[0.0, 0.0, 0.0]","[507000.0, 222000.0, 65.97649999999999]","[0.0, 0.0, 0.0]"
29,,Distance(m),0.0,0.0,0.0,0.0,0.0,0.0,0.0,0.0,0.0,0.0,0.0,0.0,0.0,0.0,0.0,0.0,0.0,0.0,0.0,0.0,0.0
29,0,Cloud Points(m),"[5.975, -1.712, 31.563]","[0.0, 0.0, 0.0]","[0.0, 0.0, 0.0]","[3.722, -0.558, 19.663]","[3.658, -0.624, 18.8545]","[0.0, 0.0, 0.0]","[5.812, -1.613, 31.086]","[0.0, 0.0, 0.0]"
29,0,Cloud Points(m),"[5.975, -1.712, 31.563]","[0.0, 0.0, 0.0]","[0.0, 0.0, 0.0]","[3.722, -0.558, 19.663]","[3.658, -0.624, 18.8545]","[0.0, 0.0, 0.0]","[5.812, -1.613, 31.086]","[0.0, 0.0, 0.0]"
30,0,Keypoints(m),"[0.0, 0.0, 0.0]","[0.0, 0.0, 0.0]","[0.0, 0.0, 0.0]","[0.0, 0.0, 0.0]","[0.0, 0.0, 0.0]","[0.0, 0.0, 0.0]","[0.0, 0.0, 0.0]","[0.0, 0.0, 0.0]","[0.0, 0.0, 0.0]","[0.0, 0.0, 0.0]","[0.0, 0.0, 0.0]","[0.0, 0.0, 0.0]","[0.0, 0.0, 0.0]","[0.0, 0.0, 0.0]","[0.0, 0.0, 0.0]","[0.0, 0.0, 0.0]","[0.0, 0.0, 0.0]","[0.0, 0.0, 0.0]","[0.0, 0.0, 0.0]","[0.0, 0.0, 0.0]","[0.0, 0.0, 0.0]"
30,0,Keypoints(image),"[505000.0, 214000.0, 152.315]","[508000.0, 223000.0, 177.617]","[506000.0, 223000.0, 183.01799999999997]","[506000.0, 225000.0, 177.848]","[0.0, 0.0, 0.0]","[509000.0, 223000.0, 135.41]","[0.0, 0.0, 0.0]","[0.0, 0.0, 0.0]","[0.0, 0.0, 0.0]","[0.0, 0.0, 0.0]","[0.0, 0.0, 0.0]","[0.0, 0.0, 0.0]","[0.0, 0.0, 0.0]","[0.0, 0.0, 0.0]","[0.0, 0.0, 0.0]","[506000.0, 214000.0, 81.7875]","[506000.0, 215000.0, 114.33500000000001]","[505000.0, 214000.0, 79.97619999999999]","[508000.0, 214000.0, 86.3621]","[506000.0, 223000.0, 117.428]","[506000.0, 205000.0, 71.7055]"
30,,Distance(m),0.0,0.0,0.0,0.0,0.0,0.0,0.0,0.0,0.0,0.0,0.0,0.0,0.0,0.0,0.0,0.0,0.0,0.0,0.0,0.0,0.0
30,0,Cloud Points(m),"[5.812, -1.613, 31.086]","[0.0, 0.0, 0.0]","[0.0, 0.0, 0.0]","[3.617, -0.497, 19.109]","[3.702, -0.579, 18.8545]","[0.0, 0.0, 0.0]","[0.0, 0.0, 0.0]","[0.0, 0.0, 0.0]","[5.391, -1.442, 27.787]","[0.0, 0.0, 0.0]","[12.408, -4.788, 65.535]"
30,0,Cloud Points(m),"[5.812, -1.613, 31.086]","[0.0, 0.0, 0.0]","[0.0, 0.0, 0.0]","[3.617, -0.497, 19.109]","[3.702, -0.579, 18.8545]","[0.0, 0.0, 0.0]","[0.0, 0.0, 0.0]","[0.0, 0.0, 0.0]","[5.391, -1.442, 27.787]","[0.0, 0.0, 0.0]","[12.408, -4.788, 65.535]"
30,0,Cloud Points(m),"[5.812, -1.613, 31.086]","[0.0, 0.0, 0.0]","[0.0, 0.0, 0.0]","[3.617, -0.497, 19.109]","[3.702, -0.579, 18.8545]","[0.0, 0.0, 0.0]","[0.0, 0.0, 0.0]","[0.0, 0.0, 0.0]","[5.391, -1.442, 27.787]","[0.0, 0.0, 0.0]","[12.408, -4.788, 65.535]"
31
32,0,Keypoints(m),"[0.0, 0.0, 0.0]","[3.722, -0.558, 19.663]","[3.776, -0.613, 19.948]","[0.0, 0.0, 0.0]","[0.0, 0.0, 0.0]","[3.776, -0.613, 19.948]","[0.0, 0.0, 0.0]","[0.0, 0.0, 0.0]","[0.0, 0.0, 0.0]","[0.0, 0.0, 0.0]","[0.0, 0.0, 0.0]","[0.0, 0.0, 0.0]","[0.0, 0.0, 0.0]","[0.0, 0.0, 0.0]","[0.0, 0.0, 0.0]","[0.0, 0.0, 0.0]","[0.0, 0.0, 0.0]","[0.0, 0.0, 0.0]","[0.0, 0.0, 0.0]","[3.776, -0.613, 19.948]","[0.0, 0.0, 0.0]"
32,0,Keypoints(image),"[0.0, 0.0, 0.0]","[506000.0, 224000.0, 399.769]","[506000.0, 223000.0, 339.81]","[506000.0, 225000.0, 223.21699999999998]","[0.0, 0.0, 0.0]","[506000.0, 223000.0, 278.48299999999995]","[0.0, 0.0, 0.0]","[0.0, 0.0, 0.0]","[0.0, 0.0, 0.0]","[0.0, 0.0, 0.0]","[0.0, 0.0, 0.0]","[0.0, 0.0, 0.0]","[0.0, 0.0, 0.0]","[0.0, 0.0, 0.0]","[0.0, 0.0, 0.0]","[506000.0, 221000.0, 78.6296]","[0.0, 0.0, 0.0]","[506000.0, 222000.0, 112.293]","[0.0, 0.0, 0.0]","[506000.0, 223000.0, 346.95399999999995]","[0.0, 0.0, 0.0]"
32,,Distance(m),0.0,0.0,0.0,0.0,0.0,0.0,0.0,0.0,0.0,0.0,0.0,0.0,0.0,0.0,0.0,0.0,0.0,0.0,0.0,0.0,0.0
FrameID,BodyID,Type,Joint 1,Joint 2,Joint 3,Joint 4,Joint 5,Joint 6,Joint 7,Joint 8,Joint 9,Joint 10,Joint 11,Joint 12,Joint 13,Joint 14,Joint 15,Joint 16,Joint 17,Joint 18,Joint 19,Joint 20,Joint 21,Distances
100
101
102
103
104
105
106
107
108
109
110
111
112
113
114
115
116
117
118
119
120
121
122
123
124
125
126
127
128
129
130
131
132
133
134
135
136
137,0,Keypoints(m),"[0.0, 0.0, 0.0]","[0.0, 0.0, 0.0]","[0.0, 0.0, 0.0]","[0.0, 0.0, 0.0]","[0.0, 0.0, 0.0]","[0.0, 0.0, 0.0]","[0.0, 0.0, 0.0]","[0.0, 0.0, 0.0]","[0.0, 0.0, 0.0]","[0.0, 0.0, 0.0]","[0.0, 0.0, 0.0]","[0.0, 0.0, 0.0]","[0.0, 0.0, 0.0]","[0.0, 0.0, 0.0]","[0.0, 0.0, 0.0]","[5.069, -0.952, 16.148]","[5.069, -0.952, 16.148]","[4.993, -0.952, 16.148]","[0.0, 0.0, 0.0]","[0.0, 0.0, 0.0]","[0.0, 0.0, 0.0]"
137,0,Keypoints(image),"[559000.0, 212000.0, 102.74999999999999]","[559000.0, 214000.0, 54.4816]","[0.0, 0.0, 0.0]","[0.0, 0.0, 0.0]","[0.0, 0.0, 0.0]","[0.0, 0.0, 0.0]","[0.0, 0.0, 0.0]","[0.0, 0.0, 0.0]","[0.0, 0.0, 0.0]","[0.0, 0.0, 0.0]","[0.0, 0.0, 0.0]","[0.0, 0.0, 0.0]","[0.0, 0.0, 0.0]","[0.0, 0.0, 0.0]","[0.0, 0.0, 0.0]","[559000.0, 211000.0, 267.389]","[559000.0, 211000.0, 333.425]","[557000.0, 211000.0, 250.222]","[561000.0, 211000.0, 115.66999999999999]","[0.0, 0.0, 0.0]","[0.0, 0.0, 0.0]"
137,,Distance(m),0.0,0.0,0.0,0.0,0.0,0.0,0.0,0.0,0.0,0.0,0.0,0.0,0.0,0.0,0.0,0.0,0.0,0.0,0.0,0.0,0.0
137,0,Cloud Points(m),"[0.0, 0.0, 0.0]","[4.135, -0.683, 13.171]","[0.0, 0.0, 0.0]","[0.0, 0.0, 0.0]","[4.993, -0.952, 16.148]","[5.772, -1.068, 18.1155]"
138,0,Keypoints(m),"[0.0, 0.0, 0.0]","[0.0, 0.0, 0.0]","[0.0, 0.0, 0.0]","[0.0, 0.0, 0.0]","[0.0, 0.0, 0.0]","[0.0, 0.0, 0.0]","[0.0, 0.0, 0.0]","[0.0, 0.0, 0.0]","[0.0, 0.0, 0.0]","[0.0, 0.0, 0.0]","[0.0, 0.0, 0.0]","[0.0, 0.0, 0.0]","[0.0, 0.0, 0.0]","[0.0, 0.0, 0.0]","[0.0, 0.0, 0.0]","[0.0, 0.0, 0.0]","[5.474, -1.069, 17.4365]","[0.0, 0.0, 0.0]","[0.0, 0.0, 0.0]","[0.0, 0.0, 0.0]","[0.0, 0.0, 0.0]"
138,0,Keypoints(image),"[559000.0, 211000.0, 72.4888]","[0.0, 0.0, 0.0]","[0.0, 0.0, 0.0]","[0.0, 0.0, 0.0]","[0.0, 0.0, 0.0]","[0.0, 0.0, 0.0]","[0.0, 0.0, 0.0]","[0.0, 0.0, 0.0]","[0.0, 0.0, 0.0]","[0.0, 0.0, 0.0]","[0.0, 0.0, 0.0]","[0.0, 0.0, 0.0]","[0.0, 0.0, 0.0]","[0.0, 0.0, 0.0]","[0.0, 0.0, 0.0]","[559000.0, 211000.0, 212.929]","[559000.0, 210000.0, 289.59499999999997]","[557000.0, 211000.0, 186.263]","[561000.0, 211000.0, 88.4229]","[0.0, 0.0, 0.0]","[0.0, 0.0, 0.0]"
138,,Distance(m),0.0,0.0,0.0,0.0,0.0,0.0,0.0,0.0,0.0,0.0,0.0,0.0,0.0,0.0,0.0,0.0,0.0,0.0,0.0,0.0,0.0
138,0,Cloud Points(m),"[0.0, 0.0, 0.0]","[0.0, 0.0, 0.0]","[5.474, -1.069, 17.4365]","[4.877, -0.93, 15.773]","[5.622, -1.04, 17.6435]"
138,0,Cloud Points(m),"[0.0, 0.0, 0.0]","[0.0, 0.0, 0.0]","[5.474, -1.069, 17.4365]","[4.877, -0.93, 15.773]","[5.622, -1.04, 17.6435]"
139,0,Keypoints(m),"[0.0, 0.0, 0.0]","[0.0, 0.0, 0.0]","[0.0, 0.0, 0.0]","[0.0, 0.0, 0.0]","[0.0, 0.0, 0.0]","[0.0, 0.0, 0.0]","[0.0, 0.0, 0.0]","[0.0, 0.0, 0.0]","[0.0, 0.0, 0.0]","[0.0, 0.0, 0.0]","[0.0, 0.0, 0.0]","[0.0, 0.0, 0.0]","[0.0, 0.0, 0.0]","[0.0, 0.0, 0.0]","[0.0, 0.0, 0.0]","[5.131, -0.963, 16.345]","[5.131, -0.963, 16.345]","[4.993, -0.952, 16.148]","[0.0, 0.0, 0.0]","[0.0, 0.0, 0.0]","[19.067, -4.65, 61.658]"
139,0,Keypoints(image),"[559000.0, 213000.0, 183.093]","[559000.0, 214000.0, 111.00599999999999]","[557000.0, 214000.0, 61.204]","[0.0, 0.0, 0.0]","[0.0, 0.0, 0.0]","[568000.0, 213000.0, 73.1767]","[0.0, 0.0, 0.0]","[0.0, 0.0, 0.0]","[0.0, 0.0, 0.0]","[0.0, 0.0, 0.0]","[0.0, 0.0, 0.0]","[0.0, 0.0, 0.0]","[0.0, 0.0, 0.0]","[0.0, 0.0, 0.0]","[0.0, 0.0, 0.0]","[559000.0, 211000.0, 345.266]","[559000.0, 211000.0, 418.381]","[557000.0, 211000.0, 296.873]","[560000.0, 211000.0, 159.166]","[559000.0, 213000.0, 62.1714]","[557000.0, 204000.0, 339.86899999999997]"
139,,Distance(m),0.0,0.0,0.0,0.0,0.0,0.0,0.0,0.0,0.0,0.0,0.0,0.0,0.0,0.0,0.0,0.0,0.0,0.0,0.0,0.0,0.0
139,0,Cloud Points(m),"[0.0, 0.0, 0.0]","[4.094, -0.677, 13.043]","[4.033, -0.677, 13.043]","[9.881, -1.6, 29.488]","[0.0, 0.0, 0.0]","[0.0, 0.0, 0.0]","[0.0, 0.0, 0.0]","[0.0, 0.0, 0.0]","[0.0, 0.0, 0.0]","[19.067, -4.65, 61.658]"
139,0,Cloud Points(m),"[0.0, 0.0, 0.0]","[4.094, -0.677, 13.043]","[4.033, -0.677, 13.043]","[9.881, -1.6, 29.488]","[0.0, 0.0, 0.0]","[0.0, 0.0, 0.0]","[0.0, 0.0, 0.0]","[0.0, 0.0, 0.0]","[0.0, 0.0, 0.0]","[19.067, -4.65, 61.658]"
139,0,Cloud Points(m),"[0.0, 0.0, 0.0]","[4.094, -0.677, 13.043]","[4.033, -0.677, 13.043]","[9.881, -1.6, 29.488]","[0.0, 0.0, 0.0]","[0.0, 0.0, 0.0]","[0.0, 0.0, 0.0]","[0.0, 0.0, 0.0]","[0.0, 0.0, 0.0]","[19.067, -4.65, 61.658]"
140,0,Keypoints(m),"[0.0, 0.0, 0.0]","[0.0, 0.0, 0.0]","[0.0, 0.0, 0.0]","[0.0, 0.0, 0.0]","[0.0, 0.0, 0.0]","[0.0, 0.0, 0.0]","[0.0, 0.0, 0.0]","[0.0, 0.0, 0.0]","[0.0, 0.0, 0.0]","[0.0, 0.0, 0.0]","[0.0, 0.0, 0.0]","[0.0, 0.0, 0.0]","[0.0, 0.0, 0.0]","[0.0, 0.0, 0.0]","[0.0, 0.0, 0.0]","[4.954, -0.93, 15.781]","[4.954, -0.93, 15.781]","[4.766, -0.908, 15.414]","[0.0, 0.0, 0.0]","[0.0, 0.0, 0.0]","[19.067, -4.65, 61.658]"
140,0,Keypoints(image),"[559000.0, 213000.0, 214.014]","[559000.0, 214000.0, 121.713]","[557000.0, 214000.0, 68.58699999999999]","[0.0, 0.0, 0.0]","[0.0, 0.0, 0.0]","[568000.0, 213000.0, 89.4173]","[0.0, 0.0, 0.0]","[0.0, 0.0, 0.0]","[0.0, 0.0, 0.0]","[0.0, 0.0, 0.0]","[0.0, 0.0, 0.0]","[0.0, 0.0, 0.0]","[0.0, 0.0, 0.0]","[0.0, 0.0, 0.0]","[0.0, 0.0, 0.0]","[559000.0, 211000.0, 367.375]","[559000.0, 211000.0, 438.635]","[557000.0, 211000.0, 319.98199999999997]","[560000.0, 211000.0, 184.095]","[559000.0, 213000.0, 73.42469999999999]","[557000.0, 204000.0, 342.716]"
140,,Distance(m),0.0,0.0,0.0,0.0,0.0,0.0,0.0,0.0,0.0,0.0,0.0,0.0,0.0,0.0,0.0,0.0,0.0,0.0,0.0,0.0,0.0
140,0,Cloud Points(m),"[0.0, 0.0, 0.0]","[4.056, -0.67, 12.92]","[3.884, -0.651, 12.56]","[9.091, -1.472, 27.129]","[0.0, 0.0, 0.0]","[0.0, 0.0, 0.0]","[0.0, 0.0, 0.0]","[0.0, 0.0, 0.0]","[0.0, 0.0, 0.0]","[19.067, -4.65, 61.658]"
140,0,Cloud Points(m),"[0.0, 0.0, 0.0]","[4.056, -0.67, 12.92]","[3.884, -0.651, 12.56]","[9.091, -1.472, 27.129]","[0.0, 0.0, 0.0]","[0.0, 0.0, 0.0]","[0.0, 0.0, 0.0]","[0.0, 0.0, 0.0]","[0.0, 0.0, 0.0]","[19.067, -4.65, 61.658]"
140,0,Cloud Points(m),"[0.0, 0.0, 0.0]","[4.056, -0.67, 12.92]","[3.884, -0.651, 12.56]","[9.091, -1.472, 27.129]","[0.0, 0.0, 0.0]","[0.0, 0.0, 0.0]","[0.0, 0.0, 0.0]","[0.0, 0.0, 0.0]","[0.0, 0.0, 0.0]","[19.067, -4.65, 61.658]"
140,0,Cloud Points(m),"[0.0, 0.0, 0.0]","[4.056, -0.67, 12.92]","[3.884, -0.651, 12.56]","[9.091, -1.472, 27.129]","[0.0, 0.0, 0.0]","[0.0, 0.0, 0.0]","[0.0, 0.0, 0.0]","[0.0, 0.0, 0.0]","[0.0, 0.0, 0.0]","[19.067, -4.65, 61.658]"
141,0,Keypoints(m),"[0.0, 0.0, 0.0]","[0.0, 0.0, 0.0]","[0.0, 0.0, 0.0]","[0.0, 0.0, 0.0]","[0.0, 0.0, 0.0]","[0.0, 0.0, 0.0]","[0.0, 0.0, 0.0]","[0.0, 0.0, 0.0]","[0.0, 0.0, 0.0]","[0.0, 0.0, 0.0]","[0.0, 0.0, 0.0]","[0.0, 0.0, 0.0]","[0.0, 0.0, 0.0]","[0.0, 0.0, 0.0]","[0.0, 0.0, 0.0]","[4.954, -0.93, 15.781]","[5.366, -1.0, 16.9665]","[4.766, -0.908, 15.414]","[0.0, 0.0, 0.0]","[0.0, 0.0, 0.0]","[18.55, -4.456, 59.089]"
141,0,Keypoints(image),"[559000.0, 213000.0, 227.72899999999998]","[559000.0, 215000.0, 151.804]","[557000.0, 214000.0, 74.0481]","[0.0, 0.0, 0.0]","[0.0, 0.0, 0.0]","[568000.0, 214000.0, 172.715]","[0.0, 0.0, 0.0]","[0.0, 0.0, 0.0]","[0.0, 0.0, 0.0]","[0.0, 0.0, 0.0]","[0.0, 0.0, 0.0]","[0.0, 0.0, 0.0]","[0.0, 0.0, 0.0]","[0.0, 0.0, 0.0]","[0.0, 0.0, 0.0]","[559000.0, 211000.0, 436.819]","[560000.0, 211000.0, 470.918]","[557000.0, 211000.0, 385.671]","[561000.0, 211000.0, 216.171]","[559000.0, 213000.0, 89.5367]","[559000.0, 204000.0, 301.59599999999995]"
141,,Distance(m),0.0,0.0,0.0,0.0,0.0,0.0,0.0,0.0,0.0,0.0,0.0,0.0,0.0,0.0,0.0,0.0,0.0,0.0,0.0,0.0,0.0
141,0,Cloud Points(m),"[0.0, 0.0, 0.0]","[3.907, -0.616, 12.446]","[3.884, -0.651, 12.56]","[8.117, -1.257, 24.223]","[0.0, 0.0, 0.0]","[0.0, 0.0, 0.0]","[4.766, -0.908, 15.414]","[0.0, 0.0, 0.0]","[0.0, 0.0, 0.0]","[18.55, -4.456, 59.089]"
141,0,Cloud Points(m),"[0.0, 0.0, 0.0]","[3.907, -0.616, 12.446]","[3.884, -0.651, 12.56]","[8.117, -1.257, 24.223]","[0.0, 0.0, 0.0]","[0.0, 0.0, 0.0]","[4.766, -0.908, 15.414]","[0.0, 0.0, 0.0]","[0.0, 0.0, 0.0]","[18.55, -4.456, 59.089]"
141,0,Cloud Points(m),"[0.0, 0.0, 0.0]","[3.907, -0.616, 12.446]","[3.884, -0.651, 12.56]","[8.117, -1.257, 24.223]","[0.0, 0.0, 0.0]","[0.0, 0.0, 0.0]","[4.766, -0.908, 15.414]","[0.0, 0.0, 0.0]","[0.0, 0.0, 0.0]","[18.55, -4.456, 59.089]"
141,0,Cloud Points(m),"[0.0, 0.0, 0.0]","[3.907, -0.616, 12.446]","[3.884, -0.651, 12.56]","[8.117, -1.257, 24.223]","[0.0, 0.0, 0.0]","[0.0, 0.0, 0.0]","[4.766, -0.908, 15.414]","[0.0, 0.0, 0.0]","[0.0, 0.0, 0.0]","[18.55, -4.456, 59.089]"
141,0,Cloud Points(m),"[0.0, 0.0, 0.0]","[3.907, -0.616, 12.446]","[3.884, -0.651, 12.56]","[8.117, -1.257, 24.223]","[0.0, 0.0, 0.0]","[0.0, 0.0, 0.0]","[4.766, -0.908, 15.414]","[0.0, 0.0, 0.0]","[0.0, 0.0, 0.0]","[18.55, -4.456, 59.089]"
142,0,Keypoints(m),"[4.216, -0.728, 13.432]","[0.0, 0.0, 0.0]","[0.0, 0.0, 0.0]","[0.0, 0.0, 0.0]","[0.0, 0.0, 0.0]","[7.977, -1.235, 23.805]","[0.0, 0.0, 0.0]","[0.0, 0.0, 0.0]","[0.0, 0.0, 0.0]","[0.0, 0.0, 0.0]","[0.0, 0.0, 0.0]","[0.0, 0.0, 0.0]","[0.0, 0.0, 0.0]","[0.0, 0.0, 0.0]","[0.0, 0.0, 0.0]","[4.785, -0.898, 15.243]","[5.048, -0.941, 15.9605]","[4.66, -0.888, 15.072]","[5.048, -0.941, 15.9605]","[0.0, 0.0, 0.0]","[14.195, -3.41, 45.216]"
142,0,Keypoints(image),"[559000.0, 213000.0, 307.665]","[559000.0, 215000.0, 239.16699999999997]","[557000.0, 214000.0, 96.24919999999999]","[0.0, 0.0, 0.0]","[0.0, 0.0, 0.0]","[568000.0, 214000.0, 305.88599999999997]","[569000.0, 225000.0, 52.8746]","[0.0, 0.0, 0.0]","[0.0, 0.0, 0.0]","[0.0, 0.0, 0.0]","[0.0, 0.0, 0.0]","[0.0, 0.0, 0.0]","[0.0, 0.0, 0.0]","[0.0, 0.0, 0.0]","[0.0, 0.0, 0.0]","[559000.0, 211000.0, 508.483]","[560000.0, 211000.0, 533.837]","[557000.0, 211000.0, 509.776]","[560000.0, 211000.0, 295.433]","[559000.0, 214000.0, 164.752]","[559000.0, 204000.0, 370.241]"
142,,Distance(m),0.0,0.0,0.0,0.0,0.0,0.0,0.0,0.0,0.0,0.0,0.0,0.0,0.0,0.0,0.0,0.0,0.0,0.0,0.0,0.0,0.0
142,0,Cloud Points(m),"[0.0, 0.0, 0.0]","[0.0, 0.0, 0.0]","[3.884, -0.651, 12.56]","[7.977, -1.235, 23.805]","[4.086, -0.315, 12.111]","[0.0, 0.0, 0.0]","[0.0, 0.0, 0.0]","[4.66, -0.888, 15.072]","[0.0, 0.0, 0.0]","[0.0, 0.0, 0.0]","[14.195, -3.41, 45.216]"
142,0,Cloud Points(m),"[0.0, 0.0, 0.0]","[0.0, 0.0, 0.0]","[3.884, -0.651, 12.56]","[7.977, -1.235, 23.805]","[4.086, -0.315, 12.111]","[0.0, 0.0, 0.0]","[0.0, 0.0, 0.0]","[4.66, -0.888, 15.072]","[0.0, 0.0, 0.0]","[0.0, 0.0, 0.0]","[14.195, -3.41, 45.216]"
142,0,Cloud Points(m),"[0.0, 0.0, 0.0]","[0.0, 0.0, 0.0]","[3.884, -0.651, 12.56]","[7.977, -1.235, 23.805]","[4.086, -0.315, 12.111]","[0.0, 0.0, 0.0]","[0.0, 0.0, 0.0]","[4.66, -0.888, 15.072]","[0.0, 0.0, 0.0]","[0.0, 0.0, 0.0]","[14.195, -3.41, 45.216]"
142,0,Cloud Points(m),"[0.0, 0.0, 0.0]","[0.0, 0.0, 0.0]","[3.884, -0.651, 12.56]","[7.977, -1.235, 23.805]","[4.086, -0.315, 12.111]","[0.0, 0.0, 0.0]","[0.0, 0.0, 0.0]","[4.66, -0.888, 15.072]","[0.0, 0.0, 0.0]","[0.0, 0.0, 0.0]","[14.195, -3.41, 45.216]"
142,0,Cloud Points(m),"[0.0, 0.0, 0.0]","[0.0, 0.0, 0.0]","[3.884, -0.651, 12.56]","[7.977, -1.235, 23.805]","[4.086, -0.315, 12.111]","[0.0, 0.0, 0.0]","[0.0, 0.0, 0.0]","[4.66, -0.888, 15.072]","[0.0, 0.0, 0.0]","[0.0, 0.0, 0.0]","[14.195, -3.41, 45.216]"
142,0,Cloud Points(m),"[0.0, 0.0, 0.0]","[0.0, 0.0, 0.0]","[3.884, -0.651, 12.56]","[7.977, -1.235, 23.805]","[4.086, -0.315, 12.111]","[0.0, 0.0, 0.0]","[0.0, 0.0, 0.0]","[4.66, -0.888, 15.072]","[0.0, 0.0, 0.0]","[0.0, 0.0, 0.0]","[14.195, -3.41, 45.216]"
143,0,Keypoints(m),"[4.39, -0.758, 13.986]","[3.944, -0.622, 12.5645]","[0.0, 0.0, 0.0]","[0.0, 0.0, 0.0]","[0.0, 0.0, 0.0]","[7.837, -1.214, 23.387]","[0.0, 0.0, 0.0]","[0.0, 0.0, 0.0]","[0.0, 0.0, 0.0]","[0.0, 0.0, 0.0]","[0.0, 0.0, 0.0]","[0.0, 0.0, 0.0]","[0.0, 0.0, 0.0]","[0.0, 0.0, 0.0]","[0.0, 0.0, 0.0]","[5.01, -0.941, 15.9605]","[5.304, -0.988, 16.7695]","[4.877, -0.93, 15.773]","[0.0, 0.0, 0.0]","[0.0, 0.0, 0.0]","[16.379, -3.934, 52.172]"
143,0,Keypoints(image),"[559000.0, 213000.0, 301.01800000000003]","[559000.0, 215000.0, 252.63600000000002]","[557000.0, 215000.0, 95.4276]","[0.0, 0.0, 0.0]","[0.0, 0.0, 0.0]","[568000.0, 214000.0, 330.212]","[572000.0, 226000.0, 85.0984]","[581000.0, 244000.0, 63.33279999999999]","[0.0, 0.0, 0.0]","[0.0, 0.0, 0.0]","[0.0, 0.0, 0.0]","[0.0, 0.0, 0.0]","[0.0, 0.0, 0.0]","[0.0, 0.0, 0.0]","[0.0, 0.0, 0.0]","[559000.0, 211000.0, 515.707]","[560000.0, 211000.0, 515.914]","[557000.0, 211000.0, 510.336]","[561000.0, 213000.0, 243.05399999999997]","[559000.0, 214000.0, 162.926]","[559000.0, 204000.0, 336.991]"
143,,Distance(m),0.0,0.0,0.0,0.0,0.0,0.0,0.0,0.0,0.0,0.0,0.0,0.0,0.0,0.0,0.0,0.0,0.0,0.0,0.0,0.0,0.0
143,0,Cloud Points(m),"[0.0, 0.0, 0.0]","[0.0, 0.0, 0.0]","[3.818, -0.611, 12.348]","[7.837, -1.214, 23.387]","[0.0, 0.0, 0.0]","[4.724, 0.24, 12.92]","[0.0, 0.0, 0.0]","[0.0, 0.0, 0.0]","[4.877, -0.93, 15.773]","[0.0, 0.0, 0.0]","[0.0, 0.0, 0.0]","[16.379, -3.934, 52.172]"
143,0,Cloud Points(m),"[0.0, 0.0, 0.0]","[0.0, 0.0, 0.0]","[3.818, -0.611, 12.348]","[7.837, -1.214, 23.387]","[0.0, 0.0, 0.0]","[4.724, 0.24, 12.92]","[0.0, 0.0, 0.0]","[0.0, 0.0, 0.0]","[4.877, -0.93, 15.773]","[0.0, 0.0, 0.0]","[0.0, 0.0, 0.0]","[16.379, -3.934, 52.172]"
143,0,Cloud Points(m),"[0.0, 0.0, 0.0]","[0.0, 0.0, 0.0]","[3.818, -0.611, 12.348]","[7.837, -1.214, 23.387]","[0.0, 0.0, 0.0]","[4.724, 0.24, 12.92]","[0.0, 0.0, 0.0]","[0.0, 0.0, 0.0]","[4.877, -0.93, 15.773]","[0.0, 0.0, 0.0]","[0.0, 0.0, 0.0]","[16.379, -3.934, 52.172]"
143,0,Cloud Points(m),"[0.0, 0.0, 0.0]","[0.0, 0.0, 0.0]","[3.818, -0.611, 12.348]","[7.837, -1.214, 23.387]","[0.0, 0.0, 0.0]","[4.724, 0.24, 12.92]","[0.0, 0.0, 0.0]","[0.0, 0.0, 0.0]","[4.877, -0.93, 15.773]","[0.0, 0.0, 0.0]","[0.0, 0.0, 0.0]","[16.379, -3.934, 52.172]"
143,0,Cloud Points(m),"[0.0, 0.0, 0.0]","[0.0, 0.0, 0.0]","[3.818, -0.611, 12.348]","[7.837, -1.214, 23.387]","[0.0, 0.0, 0.0]","[4.724, 0.24, 12.92]","[0.0, 0.0, 0.0]","[0.0, 0.0, 0.0]","[4.877, -0.93, 15.773]","[0.0, 0.0, 0.0]","[0.0, 0.0, 0.0]","[16.379, -3.934, 52.172]"
143,0,Cloud Points(m),"[0.0, 0.0, 0.0]","[0.0, 0.0, 0.0]","[3.818, -0.611, 12.348]","[7.837, -1.214, 23.387]","[0.0, 0.0, 0.0]","[4.724, 0.24, 12.92]","[0.0, 0.0, 0.0]","[0.0, 0.0, 0.0]","[4.877, -0.93, 15.773]","[0.0, 0.0, 0.0]","[0.0, 0.0, 0.0]","[16.379, -3.934, 52.172]"
143,0,Cloud Points(m),"[0.0, 0.0, 0.0]","[0.0, 0.0, 0.0]","[3.818, -0.611, 12.348]","[7.837, -1.214, 23.387]","[0.0, 0.0, 0.0]","[4.724, 0.24, 12.92]","[0.0, 0.0, 0.0]","[0.0, 0.0, 0.0]","[4.877, -0.93, 15.773]","[0.0, 0.0, 0.0]","[0.0, 0.0, 0.0]","[16.379, -3.934, 52.172]"
144,0,Keypoints(m),"[4.932, -0.846, 15.5935]","[3.943, -0.622, 12.56]","[0.0, 0.0, 0.0]","[0.0, 0.0, 0.0]","[0.0, 0.0, 0.0]","[0.0, 0.0, 0.0]","[0.0, 0.0, 0.0]","[0.0, 0.0, 0.0]","[0.0, 0.0, 0.0]","[0.0, 0.0, 0.0]","[0.0, 0.0, 0.0]","[0.0, 0.0, 0.0]","[0.0, 0.0, 0.0]","[0.0, 0.0, 0.0]","[0.0, 0.0, 0.0]","[5.131, -0.963, 16.345]","[5.798, -1.08, 18.331]","[4.082, -0.716, 13.201]","[0.0, 0.0, 0.0]","[4.176, -0.69, 13.304]","[19.357, -4.65, 61.658]"
144,0,Keypoints(image),"[560000.0, 213000.0, 471.72799999999995]","[559000.0, 215000.0, 404.05]","[556000.0, 215000.0, 173.92]","[0.0, 0.0, 0.0]","[0.0, 0.0, 0.0]","[0.0, 0.0, 0.0]","[0.0, 0.0, 0.0]","[0.0, 0.0, 0.0]","[559000.0, 245000.0, 63.2355]","[559000.0, 244000.0, 82.3337]","[561000.0, 268000.0, 124.34599999999999]","[0.0, 0.0, 0.0]","[0.0, 0.0, 0.0]","[0.0, 0.0, 0.0]","[0.0, 0.0, 0.0]","[559000.0, 211000.0, 718.937]","[560000.0, 211000.0, 684.736]","[557000.0, 213000.0, 704.782]","[0.0, 0.0, 0.0]","[559000.0, 214000.0, 353.758]","[559000.0, 204000.0, 453.19]"
144,1,Keypoints(m),"[0.0, 0.0, 0.0]","[0.0, 0.0, 0.0]","[0.0, 0.0, 0.0]","[0.0, 0.0, 0.0]","[0.0, 0.0, 0.0]","[9.091, -1.344, 27.129]","[0.0, 0.0, 0.0]","[0.0, 0.0, 0.0]","[0.0, 0.0, 0.0]","[0.0, 0.0, 0.0]","[0.0, 0.0, 0.0]","[0.0, 0.0, 0.0]","[0.0, 0.0, 0.0]","[0.0, 0.0, 0.0]","[0.0, 0.0, 0.0]","[0.0, 0.0, 0.0]","[0.0, 0.0, 0.0]","[0.0, 0.0, 0.0]","[5.208, -0.886, 16.345]","[0.0, 0.0, 0.0]","[0.0, 0.0, 0.0]"
144,1,Keypoints(image),"[0.0, 0.0, 0.0]","[0.0, 0.0, 0.0]","[0.0, 0.0, 0.0]","[0.0, 0.0, 0.0]","[0.0, 0.0, 0.0]","[568000.0, 215000.0, 509.7199999999999]","[570000.0, 226000.0, 237.67399999999998]","[579000.0, 244000.0, 240.459]","[569000.0, 235000.0, 63.462500000000006]","[0.0, 0.0, 0.0]","[0.0, 0.0, 0.0]","[0.0, 0.0, 0.0]","[568000.0, 235000.0, 86.6415]","[569000.0, 265000.0, 122.89099999999999]","[0.0, 0.0, 0.0]","[0.0, 0.0, 0.0]","[0.0, 0.0, 0.0]","[0.0, 0.0, 0.0]","[561000.0, 213000.0, 396.121]","[0.0, 0.0, 0.0]","[0.0, 0.0, 0.0]"
144,,Distance(m),0.0,0.0,0.0,0.0,0.0,0.0,0.0,0.0,0.0,0.0,0.0,0.0,0.0,0.0,0.0,0.0,0.0,0.0,0.0,0.0,0.0
144,1,Cloud Points(m),"[9.091, -1.344, 27.129]","[0.0, 0.0, 0.0]","[4.576, 0.236, 12.6785]","[0.0, 0.0, 0.0]","[0.0, 0.0, 0.0]","[3.576, 0.72, 10.597]","[5.208, -0.886, 16.345]"
144,1,Cloud Points(m),"[9.091, -1.344, 27.129]","[0.0, 0.0, 0.0]","[4.576, 0.236, 12.6785]","[0.0, 0.0, 0.0]","[0.0, 0.0, 0.0]","[3.576, 0.72, 10.597]","[5.208, -0.886, 16.345]"
144,1,Cloud Points(m),"[9.091, -1.344, 27.129]","[0.0, 0.0, 0.0]","[4.576, 0.236, 12.6785]","[0.0, 0.0, 0.0]","[0.0, 0.0, 0.0]","[3.576, 0.72, 10.597]","[5.208, -0.886, 16.345]"
144,1,Cloud Points(m),"[9.091, -1.344, 27.129]","[0.0, 0.0, 0.0]","[4.576, 0.236, 12.6785]","[0.0, 0.0, 0.0]","[0.0, 0.0, 0.0]","[3.576, 0.72, 10.597]","[5.208, -0.886, 16.345]"
144,1,Cloud Points(m),"[9.091, -1.344, 27.129]","[0.0, 0.0, 0.0]","[4.576, 0.236, 12.6785]","[0.0, 0.0, 0.0]","[0.0, 0.0, 0.0]","[3.576, 0.72, 10.597]","[5.208, -0.886, 16.345]"
144,1,Cloud Points(m),"[9.091, -1.344, 27.129]","[0.0, 0.0, 0.0]","[4.576, 0.236, 12.6785]","[0.0, 0.0, 0.0]","[0.0, 0.0, 0.0]","[3.576, 0.72, 10.597]","[5.208, -0.886, 16.345]"
144,1,Cloud Points(m),"[9.091, -1.344, 27.129]","[0.0, 0.0, 0.0]","[4.576, 0.236, 12.6785]","[0.0, 0.0, 0.0]","[0.0, 0.0, 0.0]","[3.576, 0.72, 10.597]","[5.208, -0.886, 16.345]"
144,1,Cloud Points(m),"[9.091, -1.344, 27.129]","[0.0, 0.0, 0.0]","[4.576, 0.236, 12.6785]","[0.0, 0.0, 0.0]","[0.0, 0.0, 0.0]","[3.576, 0.72, 10.597]","[5.208, -0.886, 16.345]"
145,0,Keypoints(m),"[4.715, -0.808, 14.908]","[3.609, -0.488, 11.496]","[0.0, 0.0, 0.0]","[0.0, 0.0, 0.0]","[0.0, 0.0, 0.0]","[6.995, -0.936, 20.874]","[4.973, -0.274, 14.437]","[4.663, 0.24, 12.92]","[0.0, 0.0, 0.0]","[0.0, 0.0, 0.0]","[3.405, 0.757, 10.766]","[0.0, 0.0, 0.0]","[0.0, 0.0, 0.0]","[3.521, 0.709, 10.434]","[0.0, 0.0, 0.0]","[5.072, -0.952, 16.1575]","[6.089, -1.126, 19.109]","[4.119, -0.722, 13.3195]","[5.148, -0.876, 16.1575]","[0.0, 0.0, 0.0]","[0.0, 0.0, 0.0]"
145,0,Keypoints(image),"[560000.0, 213000.0, 536.655]","[559000.0, 218000.0, 500.522]","[556000.0, 217000.0, 243.12800000000001]","[559000.0, 224000.0, 52.5399]","[550000.0, 245000.0, 72.1092]","[568000.0, 217000.0, 579.4709999999999]","[572000.0, 228000.0, 407.281]","[579000.0, 244000.0, 449.73]","[568000.0, 238000.0, 154.231]","[560000.0, 244000.0, 144.176]","[560000.0, 266000.0, 294.59299999999996]","[568000.0, 287000.0, 125.43]","[569000.0, 236000.0, 189.204]","[569000.0, 265000.0, 292.69800000000004]","[570000.0, 281000.0, 83.7399]","[559000.0, 211000.0, 796.381]","[561000.0, 211000.0, 711.934]","[557000.0, 213000.0, 782.946]","[561000.0, 213000.0, 333.851]","[0.0, 0.0, 0.0]","[0.0, 0.0, 0.0]"
145,,Distance(m),0.0,0.0,0.0,0.0,0.0,0.0,0.0,0.0,0.0,0.0,0.0,0.0,0.0,0.0,0.0,0.0,0.0,0.0,0.0,0.0,0.0
145,0,Cloud Points(m),"[0.0, 0.0, 0.0]","[0.0, 0.0, 0.0]","[3.469, -0.507, 11.304]","[0.0, 0.0, 0.0]","[3.102, 0.222, 10.597]","[6.995, -0.936, 20.874]","[0.0, 0.0, 0.0]","[4.663, 0.24, 12.92]","[0.0, 0.0, 0.0]","[0.0, 0.0, 0.0]","[0.0, 0.0, 0.0]","[3.665, 1.309, 10.939]","[0.0, 0.0, 0.0]","[0.0, 0.0, 0.0]","[3.629, 1.128, 10.6815]","[5.072, -0.952, 16.1575]","[6.089, -1.126, 19.109]","[4.119, -0.722, 13.3195]","[0.0, 0.0, 0.0]"
145,0,Cloud Points(m),"[0.0, 0.0, 0.0]","[0.0, 0.0, 0.0]","[3.469, -0.507, 11.304]","[0.0, 0.0, 0.0]","[3.102, 0.222, 10.597]","[6.995, -0.936, 20.874]","[0.0, 0.0, 0.0]","[4.663, 0.24, 12.92]","[0.0, 0.0, 0.0]","[0.0, 0.0, 0.0]","[0.0, 0.0, 0.0]","[3.665, 1.309, 10.939]","[0.0, 0.0, 0.0]","[0.0, 0.0, 0.0]","[3.629, 1.128, 10.6815]","[5.072, -0.952, 16.1575]","[6.089, -1.126, 19.109]","[4.119, -0.722, 13.3195]","[0.0, 0.0, 0.0]"
145,0,Cloud Points(m),"[0.0, 0.0, 0.0]","[0.0, 0.0, 0.0]","[3.469, -0.507, 11.304]","[0.0, 0.0, 0.0]","[3.102, 0.222, 10.597]","[6.995, -0.936, 20.874]","[0.0, 0.0, 0.0]","[4.663, 0.24, 12.92]","[0.0, 0.0, 0.0]","[0.0, 0.0, 0.0]","[0.0, 0.0, 0.0]","[3.665, 1.309, 10.939]","[0.0, 0.0, 0.0]","[0.0, 0.0, 0.0]","[3.629, 1.128, 10.6815]","[5.072, -0.952, 16.1575]","[6.089, -1.126, 19.109]","[4.119, -0.722, 13.3195]","[0.0, 0.0, 0.0]"
145,0,Cloud Points(m),"[0.0, 0.0, 0.0]","[0.0, 0.0, 0.0]","[3.469, -0.507, 11.304]","[0.0, 0.0, 0.0]","[3.102, 0.222, 10.597]","[6.995, -0.936, 20.874]","[0.0, 0.0, 0.0]","[4.663, 0.24, 12.92]","[0.0, 0.0, 0.0]","[0.0, 0.0, 0.0]","[0.0, 0.0, 0.0]","[3.665, 1.309, 10.939]","[0.0, 0.0, 0.0]","[0.0, 0.0, 0.0]","[3.629, 1.128, 10.6815]","[5.072, -0.952, 16.1575]","[6.089, -1.126, 19.109]","[4.119, -0.722, 13.3195]","[0.0, 0.0, 0.0]"
145,0,Cloud Points(m),"[0.0, 0.0, 0.0]","[0.0, 0.0, 0.0]","[3.469, -0.507, 11.304]","[0.0, 0.0, 0.0]","[3.102, 0.222, 10.597]","[6.995, -0.936, 20.874]","[0.0, 0.0, 0.0]","[4.663, 0.24, 12.92]","[0.0, 0.0, 0.0]","[0.0, 0.0, 0.0]","[0.0, 0.0, 0.0]","[3.665, 1.309, 10.939]","[0.0, 0.0, 0.0]","[0.0, 0.0, 0.0]","[3.629, 1.128, 10.6815]","[5.072, -0.952, 16.1575]","[6.089, -1.126, 19.109]","[4.119, -0.722, 13.3195]","[0.0, 0.0, 0.0]"
145,0,Cloud Points(m),"[0.0, 0.0, 0.0]","[0.0, 0.0, 0.0]","[3.469, -0.507, 11.304]","[0.0, 0.0, 0.0]","[3.102, 0.222, 10.597]","[6.995, -0.936, 20.874]","[0.0, 0.0, 0.0]","[4.663, 0.24, 12.92]","[0.0, 0.0, 0.0]","[0.0, 0.0, 0.0]","[0.0, 0.0, 0.0]","[3.665, 1.309, 10.939]","[0.0, 0.0, 0.0]","[0.0, 0.0, 0.0]","[3.629, 1.128, 10.6815]","[5.072, -0.952, 16.1575]","[6.089, -1.126, 19.109]","[4.119, -0.722, 13.3195]","[0.0, 0.0, 0.0]"
145,0,Cloud Points(m),"[0.0, 0.0, 0.0]","[0.0, 0.0, 0.0]","[3.469, -0.507, 11.304]","[0.0, 0.0, 0.0]","[3.102, 0.222, 10.597]","[6.995, -0.936, 20.874]","[0.0, 0.0, 0.0]","[4.663, 0.24, 12.92]","[0.0, 0.0, 0.0]","[0.0, 0.0, 0.0]","[0.0, 0.0, 0.0]","[3.665, 1.309, 10.939]","[0.0, 0.0, 0.0]","[0.0, 0.0, 0.0]","[3.629, 1.128, 10.6815]","[5.072, -0.952, 16.1575]","[6.089, -1.126, 19.109]","[4.119, -0.722, 13.3195]","[0.0, 0.0, 0.0]"
145,0,Cloud Points(m),"[0.0, 0.0, 0.0]","[0.0, 0.0, 0.0]","[3.469, -0.507, 11.304]","[0.0, 0.0, 0.0]","[3.102, 0.222, 10.597]","[6.995, -0.936, 20.874]","[0.0, 0.0, 0.0]","[4.663, 0.24, 12.92]","[0.0, 0.0, 0.0]","[0.0, 0.0, 0.0]","[0.0, 0.0, 0.0]","[3.665, 1.309, 10.939]","[0.0, 0.0, 0.0]","[0.0, 0.0, 0.0]","[3.629, 1.128, 10.6815]","[5.072, -0.952, 16.1575]","[6.089, -1.126, 19.109]","[4.119, -0.722, 13.3195]","[0.0, 0.0, 0.0]"
145,0,Cloud Points(m),"[0.0, 0.0, 0.0]","[0.0, 0.0, 0.0]","[3.469, -0.507, 11.304]","[0.0, 0.0, 0.0]","[3.102, 0.222, 10.597]","[6.995, -0.936, 20.874]","[0.0, 0.0, 0.0]","[4.663, 0.24, 12.92]","[0.0, 0.0, 0.0]","[0.0, 0.0, 0.0]","[0.0, 0.0, 0.0]","[3.665, 1.309, 10.939]","[0.0, 0.0, 0.0]","[0.0, 0.0, 0.0]","[3.629, 1.128, 10.6815]","[5.072, -0.952, 16.1575]","[6.089, -1.126, 19.109]","[4.119, -0.722, 13.3195]","[0.0, 0.0, 0.0]"
146,0,Keypoints(m),"[4.663, -0.8, 14.744]","[3.579, -0.484, 11.4]","[3.357, -0.439, 10.939]","[0.0, 0.0, 0.0]","[0.0, 0.0, 0.0]","[6.493, -0.869, 19.378]","[4.327, -0.179, 12.56]","[4.563, 0.233, 12.56]","[0.0, 0.0, 0.0]","[0.0, 0.0, 0.0]","[3.351, 0.795, 10.597]","[0.0, 0.0, 0.0]","[3.551, 0.072, 10.597]","[3.521, 0.709, 10.434]","[0.0, 0.0, 0.0]","[4.345, -0.751, 13.842]","[4.968, -0.846, 15.5935]","[4.119, -0.722, 13.3195]","[4.968, -0.846, 15.5935]","[3.98, -0.628, 12.6785]","[14.702, -3.532, 46.8305]"
146,0,Keypoints(image),"[560000.0, 213000.0, 597.0889999999999]","[559000.0, 218000.0, 574.543]","[556000.0, 219000.0, 318.324]","[556000.0, 230000.0, 93.44479999999999]","[552000.0, 245000.0, 114.80199999999999]","[568000.0, 217000.0, 626.593]","[572000.0, 230000.0, 494.253]","[580000.0, 244000.0, 551.64]","[566000.0, 241000.0, 244.588]","[560000.0, 244000.0, 226.839]","[560000.0, 268000.0, 455.418]","[568000.0, 287000.0, 245.989]","[568000.0, 239000.0, 304.29]","[569000.0, 265000.0, 426.103]","[570000.0, 286000.0, 188.817]","[559000.0, 213000.0, 827.867]","[561000.0, 213000.0, 716.365]","[557000.0, 213000.0, 811.387]","[561000.0, 213000.0, 285.09299999999996]","[559000.0, 215000.0, 528.1]","[559000.0, 204000.0, 597.928]"
146,,Distance(m),0.0,0.0,0.0,0.0,0.0,0.0,0.0,0.0,0.0,0.0,0.0,0.0,0.0,0.0,0.0,0.0,0.0,0.0,0.0,0.0,0.0
146,0,Cloud Points(m),"[0.0, 0.0, 0.0]","[0.0, 0.0, 0.0]","[3.357, -0.439, 10.939]","[0.0, 0.0, 0.0]","[3.152, 0.222, 10.597]","[6.493, -0.869, 19.378]","[0.0, 0.0, 0.0]","[4.563, 0.233, 12.56]","[0.0, 0.0, 0.0]","[0.0, 0.0, 0.0]","[3.351, 0.795, 10.597]","[3.665, 1.309, 10.939]","[0.0, 0.0, 0.0]","[0.0, 0.0, 0.0]","[3.629, 1.253, 10.6815]","[0.0, 0.0, 0.0]","[0.0, 0.0, 0.0]","[4.119, -0.722, 13.3195]","[0.0, 0.0, 0.0]","[0.0, 0.0, 0.0]","[14.702, -3.532, 46.8305]"
146,0,Cloud Points(m),"[0.0, 0.0, 0.0]","[0.0, 0.0, 0.0]","[3.357, -0.439, 10.939]","[0.0, 0.0, 0.0]","[3.152, 0.222, 10.597]","[6.493, -0.869, 19.378]","[0.0, 0.0, 0.0]","[4.563, 0.233, 12.56]","[0.0, 0.0, 0.0]","[0.0, 0.0, 0.0]","[3.351, 0.795, 10.597]","[3.665, 1.309, 10.939]","[0.0, 0.0, 0.0]","[0.0, 0.0, 0.0]","[3.629, 1.253, 10.6815]","[0.0, 0.0, 0.0]","[0.0, 0.0, 0.0]","[4.119, -0.722, 13.3195]","[0.0, 0.0, 0.0]","[0.0, 0.0, 0.0]","[14.702, -3.532, 46.8305]"
146,0,Cloud Points(m),"[0.0, 0.0, 0.0]","[0.0, 0.0, 0.0]","[3.357, -0.439, 10.939]","[0.0, 0.0, 0.0]","[3.152, 0.222, 10.597]","[6.493, -0.869, 19.378]","[0.0, 0.0, 0.0]","[4.563, 0.233, 12.56]","[0.0, 0.0, 0.0]","[0.0, 0.0, 0.0]","[3.351, 0.795, 10.597]","[3.665, 1.309, 10.939]","[0.0, 0.0, 0.0]","[0.0, 0.0, 0.0]","[3.629, 1.253, 10.6815]","[0.0, 0.0, 0.0]","[0.0, 0.0, 0.0]","[4.119, -0.722, 13.3195]","[0.0, 0.0, 0.0]","[0.0, 0.0, 0.0]","[14.702, -3.532, 46.8305]"
146,0,Cloud Points(m),"[0.0, 0.0, 0.0]","[0.0, 0.0, 0.0]","[3.357, -0.439, 10.939]","[0.0, 0.0, 0.0]","[3.152, 0.222, 10.597]","[6.493, -0.869, 19.378]","[0.0, 0.0, 0.0]","[4.563, 0.233, 12.56]","[0.0, 0.0, 0.0]","[0.0, 0.0, 0.0]","[3.351, 0.795, 10.597]","[3.665, 1.309, 10.939]","[0.0, 0.0, 0.0]","[0.0, 0.0, 0.0]","[3.629, 1.253, 10.6815]","[0.0, 0.0, 0.0]","[0.0, 0.0, 0.0]","[4.119, -0.722, 13.3195]","[0.0, 0.0, 0.0]","[0.0, 0.0, 0.0]","[14.702, -3.532, 46.8305]"
146,0,Cloud Points(m),"[0.0, 0.0, 0.0]","[0.0, 0.0, 0.0]","[3.357, -0.439, 10.939]","[0.0, 0.0, 0.0]","[3.152, 0.222, 10.597]","[6.493, -0.869, 19.378]","[0.0, 0.0, 0.0]","[4.563, 0.233, 12.56]","[0.0, 0.0, 0.0]","[0.0, 0.0, 0.0]","[3.351, 0.795, 10.597]","[3.665, 1.309, 10.939]","[0.0, 0.0, 0.0]","[0.0, 0.0, 0.0]","[3.629, 1.253, 10.6815]","[0.0, 0.0, 0.0]","[0.0, 0.0, 0.0]","[4.119, -0.722, 13.3195]","[0.0, 0.0, 0.0]","[0.0, 0.0, 0.0]","[14.702, -3.532, 46.8305]"
146,0,Cloud Points(m),"[0.0, 0.0, 0.0]","[0.0, 0.0, 0.0]","[3.357, -0.439, 10.939]","[0.0, 0.0, 0.0]","[3.152, 0.222, 10.597]","[6.493, -0.869, 19.378]","[0.0, 0.0, 0.0]","[4.563, 0.233, 12.56]","[0.0, 0.0, 0.0]","[0.0, 0.0, 0.0]","[3.351, 0.795, 10.597]","[3.665, 1.309, 10.939]","[0.0, 0.0, 0.0]","[0.0, 0.0, 0.0]","[3.629, 1.253, 10.6815]","[0.0, 0.0, 0.0]","[0.0, 0.0, 0.0]","[4.119, -0.722, 13.3195]","[0.0, 0.0, 0.0]","[0.0, 0.0, 0.0]","[14.702, -3.532, 46.8305]"
146,0,Cloud Points(m),"[0.0, 0.0, 0.0]","[0.0, 0.0, 0.0]","[3.357, -0.439, 10.939]","[0.0, 0.0, 0.0]","[3.152, 0.222, 10.597]","[6.493, -0.869, 19.378]","[0.0, 0.0, 0.0]","[4.563, 0.233, 12.56]","[0.0, 0.0, 0.0]","[0.0, 0.0, 0.0]","[3.351, 0.795, 10.597]","[3.665, 1.309, 10.939]","[0.0, 0.0, 0.0]","[0.0, 0.0, 0.0]","[3.629, 1.253, 10.6815]","[0.0, 0.0, 0.0]","[0.0, 0.0, 0.0]","[4.119, -0.722, 13.3195]","[0.0, 0.0, 0.0]","[0.0, 0.0, 0.0]","[14.702, -3.532, 46.8305]"
146,0,Cloud Points(m),"[0.0, 0.0, 0.0]","[0.0, 0.0, 0.0]","[3.357, -0.439, 10.939]","[0.0, 0.0, 0.0]","[3.152, 0.222, 10.597]","[6.493, -0.869, 19.378]","[0.0, 0.0, 0.0]","[4.563, 0.233, 12.56]","[0.0, 0.0, 0.0]","[0.0, 0.0, 0.0]","[3.351, 0.795, 10.597]","[3.665, 1.309, 10.939]","[0.0, 0.0, 0.0]","[0.0, 0.0, 0.0]","[3.629, 1.253, 10.6815]","[0.0, 0.0, 0.0]","[0.0, 0.0, 0.0]","[4.119, -0.722, 13.3195]","[0.0, 0.0, 0.0]","[0.0, 0.0, 0.0]","[14.702, -3.532, 46.8305]"
146,0,Cloud Points(m),"[0.0, 0.0, 0.0]","[0.0, 0.0, 0.0]","[3.357, -0.439, 10.939]","[0.0, 0.0, 0.0]","[3.152, 0.222, 10.597]","[6.493, -0.869, 19.378]","[0.0, 0.0, 0.0]","[4.563, 0.233, 12.56]","[0.0, 0.0, 0.0]","[0.0, 0.0, 0.0]","[3.351, 0.795, 10.597]","[3.665, 1.309, 10.939]","[0.0, 0.0, 0.0]","[0.0, 0.0, 0.0]","[3.629, 1.253, 10.6815]","[0.0, 0.0, 0.0]","[0.0, 0.0, 0.0]","[4.119, -0.722, 13.3195]","[0.0, 0.0, 0.0]","[0.0, 0.0, 0.0]","[14.702, -3.532, 46.8305]"
146,0,Cloud Points(m),"[0.0, 0.0, 0.0]","[0.0, 0.0, 0.0]","[3.357, -0.439, 10.939]","[0.0, 0.0, 0.0]","[3.152, 0.222, 10.597]","[6.493, -0.869, 19.378]","[0.0, 0.0, 0.0]","[4.563, 0.233, 12.56]","[0.0, 0.0, 0.0]","[0.0, 0.0, 0.0]","[3.351, 0.795, 10.597]","[3.665, 1.309, 10.939]","[0.0, 0.0, 0.0]","[0.0, 0.0, 0.0]","[3.629, 1.253, 10.6815]","[0.0, 0.0, 0.0]","[0.0, 0.0, 0.0]","[4.119, -0.722, 13.3195]","[0.0, 0.0, 0.0]","[0.0, 0.0, 0.0]","[14.702, -3.532, 46.8305]"
147,0,Keypoints(m),"[4.663, -0.8, 14.744]","[3.609, -0.461, 11.496]","[3.384, -0.39, 11.029]","[0.0, 0.0, 0.0]","[0.0, 0.0, 0.0]","[6.589, -0.835, 19.663]","[3.973, -0.167, 11.694]","[4.451, 0.229, 12.332]","[3.557, 0.175, 10.766]","[3.326, 0.197, 10.597]","[3.351, 0.795, 10.597]","[3.551, 1.268, 10.597]","[3.607, 0.124, 10.766]","[3.521, 0.709, 10.434]","[3.594, 1.224, 10.434]","[4.39, -0.758, 13.986]","[5.028, -0.856, 15.781]","[4.035, -0.707, 13.048]","[5.028, -0.856, 15.781]","[3.768, -0.538, 12.005]","[15.209, -3.653, 48.445]"
147,0,Keypoints(image),"[560000.0, 213000.0, 653.689]","[559000.0, 219000.0, 639.634]","[556000.0, 221000.0, 370.928]","[551000.0, 234000.0, 147.727]","[551000.0, 245000.0, 180.32699999999997]","[568000.0, 218000.0, 673.697]","[570000.0, 230000.0, 591.975]","[579000.0, 244000.0, 657.866]","[566000.0, 243000.0, 334.416]","[559000.0, 244000.0, 306.91]","[560000.0, 268000.0, 566.704]","[568000.0, 287000.0, 359.306]","[568000.0, 241000.0, 413.02]","[569000.0, 265000.0, 561.5369999999999]","[572000.0, 286000.0, 320.06]","[559000.0, 213000.0, 867.004]","[561000.0, 213000.0, 738.733]","[557000.0, 213000.0, 852.9250000000001]","[561000.0, 213000.0, 277.173]","[559000.0, 217000.0, 590.7829999999999]","[559000.0, 204000.0, 659.817]"
147,,Distance(m),0.0,0.0,0.0,0.0,0.0,0.0,0.0,0.0,0.0,0.0,0.0,0.0,0.0,0.0,0.0,0.0,0.0,0.0,0.0,0.0,0.0
147,0,Cloud Points(m),"[0.0, 0.0, 0.0]","[0.0, 0.0, 0.0]","[0.0, 0.0, 0.0]","[3.177, -0.052, 10.766]","[3.127, 0.222, 10.597]","[6.589, -0.835, 19.663]","[0.0, 0.0, 0.0]","[4.451, 0.229, 12.332]","[0.0, 0.0, 0.0]","[0.0, 0.0, 0.0]","[3.351, 0.795, 10.597]","[3.551, 1.268, 10.597]","[0.0, 0.0, 0.0]","[0.0, 0.0, 0.0]","[3.594, 1.224, 10.434]","[0.0, 0.0, 0.0]","[0.0, 0.0, 0.0]","[0.0, 0.0, 0.0]","[0.0, 0.0, 0.0]","[0.0, 0.0, 0.0]","[15.209, -3.653, 48.445]"
147,0,Cloud Points(m),"[0.0, 0.0, 0.0]","[0.0, 0.0, 0.0]","[0.0, 0.0, 0.0]","[3.177, -0.052, 10.766]","[3.127, 0.222, 10.597]","[6.589, -0.835, 19.663]","[0.0, 0.0, 0.0]","[4.451, 0.229, 12.332]","[0.0, 0.0, 0.0]","[0.0, 0.0, 0.0]","[3.351, 0.795, 10.597]","[3.551, 1.268, 10.597]","[0.0, 0.0, 0.0]","[0.0, 0.0, 0.0]","[3.594, 1.224, 10.434]","[0.0, 0.0, 0.0]","[0.0, 0.0, 0.0]","[0.0, 0.0, 0.0]","[0.0, 0.0, 0.0]","[0.0, 0.0, 0.0]","[15.209, -3.653, 48.445]"
147,0,Cloud Points(m),"[0.0, 0.0, 0.0]","[0.0, 0.0, 0.0]","[0.0, 0.0, 0.0]","[3.177, -0.052, 10.766]","[3.127, 0.222, 10.597]","[6.589, -0.835, 19.663]","[0.0, 0.0, 0.0]","[4.451, 0.229, 12.332]","[0.0, 0.0, 0.0]","[0.0, 0.0, 0.0]","[3.351, 0.795, 10.597]","[3.551, 1.268, 10.597]","[0.0, 0.0, 0.0]","[0.0, 0.0, 0.0]","[3.594, 1.224, 10.434]","[0.0, 0.0, 0.0]","[0.0, 0.0, 0.0]","[0.0, 0.0, 0.0]","[0.0, 0.0, 0.0]","[0.0, 0.0, 0.0]","[15.209, -3.653, 48.445]"
147,0,Cloud Points(m),"[0.0, 0.0, 0.0]","[0.0, 0.0, 0.0]","[0.0, 0.0, 0.0]","[3.177, -0.052, 10.766]","[3.127, 0.222, 10.597]","[6.589, -0.835, 19.663]","[0.0, 0.0, 0.0]","[4.451, 0.229, 12.332]","[0.0, 0.0, 0.0]","[0.0, 0.0, 0.0]","[3.351, 0.795, 10.597]","[3.551, 1.268, 10.597]","[0.0, 0.0, 0.0]","[0.0, 0.0, 0.0]","[3.594, 1.224, 10.434]","[0.0, 0.0, 0.0]","[0.0, 0.0, 0.0]","[0.0, 0.0, 0.0]","[0.0, 0.0, 0.0]","[0.0, 0.0, 0.0]","[15.209, -3.653, 48.445]"
147,0,Cloud Points(m),"[0.0, 0.0, 0.0]","[0.0, 0.0, 0.0]","[0.0, 0.0, 0.0]","[3.177, -0.052, 10.766]","[3.127, 0.222, 10.597]","[6.589, -0.835, 19.663]","[0.0, 0.0, 0.0]","[4.451, 0.229, 12.332]","[0.0, 0.0, 0.0]","[0.0, 0.0, 0.0]","[3.351, 0.795, 10.597]","[3.551, 1.268, 10.597]","[0.0, 0.0, 0.0]","[0.0, 0.0, 0.0]","[3.594, 1.224, 10.434]","[0.0, 0.0, 0.0]","[0.0, 0.0, 0.0]","[0.0, 0.0, 0.0]","[0.0, 0.0, 0.0]","[0.0, 0.0, 0.0]","[15.209, -3.653, 48.445]"
147,0,Cloud Points(m),"[0.0, 0.0, 0.0]","[0.0, 0.0, 0.0]","[0.0, 0.0, 0.0]","[3.177, -0.052, 10.766]","[3.127, 0.222, 10.597]","[6.589, -0.835, 19.663]","[0.0, 0.0, 0.0]","[4.451, 0.229, 12.332]","[0.0, 0.0, 0.0]","[0.0, 0.0, 0.0]","[3.351, 0.795, 10.597]","[3.551, 1.268, 10.597]","[0.0, 0.0, 0.0]","[0.0, 0.0, 0.0]","[3.594, 1.224, 10.434]","[0.0, 0.0, 0.0]","[0.0, 0.0, 0.0]","[0.0, 0.0, 0.0]","[0.0, 0.0, 0.0]","[0.0, 0.0, 0.0]","[15.209, -3.653, 48.445]"
147,0,Cloud Points(m),"[0.0, 0.0, 0.0]","[0.0, 0.0, 0.0]","[0.0, 0.0, 0.0]","[3.177, -0.052, 10.766]","[3.127, 0.222, 10.597]","[6.589, -0.835, 19.663]","[0.0, 0.0, 0.0]","[4.451, 0.229, 12.332]","[0.0, 0.0, 0.0]","[0.0, 0.0, 0.0]","[3.351, 0.795, 10.597]","[3.551, 1.268, 10.597]","[0.0, 0.0, 0.0]","[0.0, 0.0, 0.0]","[3.594, 1.224, 10.434]","[0.0, 0.0, 0.0]","[0.0, 0.0, 0.0]","[0.0, 0.0, 0.0]","[0.0, 0.0, 0.0]","[0.0, 0.0, 0.0]","[15.209, -3.653, 48.445]"
147,0,Cloud Points(m),"[0.0, 0.0, 0.0]","[0.0, 0.0, 0.0]","[0.0, 0.0, 0.0]","[3.177, -0.052, 10.766]","[3.127, 0.222, 10.597]","[6.589, -0.835, 19.663]","[0.0, 0.0, 0.0]","[4.451, 0.229, 12.332]","[0.0, 0.0, 0.0]","[0.0, 0.0, 0.0]","[3.351, 0.795, 10.597]","[3.551, 1.268, 10.597]","[0.0, 0.0, 0.0]","[0.0, 0.0, 0.0]","[3.594, 1.224, 10.434]","[0.0, 0.0, 0.0]","[0.0, 0.0, 0.0]","[0.0, 0.0, 0.0]","[0.0, 0.0, 0.0]","[0.0, 0.0, 0.0]","[15.209, -3.653, 48.445]"
147,0,Cloud Points(m),"[0.0, 0.0, 0.0]","[0.0, 0.0, 0.0]","[0.0, 0.0, 0.0]","[3.177, -0.052, 10.766]","[3.127, 0.222, 10.597]","[6.589, -0.835, 19.663]","[0.0, 0.0, 0.0]","[4.451, 0.229, 12.332]","[0.0, 0.0, 0.0]","[0.0, 0.0, 0.0]","[3.351, 0.795, 10.597]","[3.551, 1.268, 10.597]","[0.0, 0.0, 0.0]","[0.0, 0.0, 0.0]","[3.594, 1.224, 10.434]","[0.0, 0.0, 0.0]","[0.0, 0.0, 0.0]","[0.0, 0.0, 0.0]","[0.0, 0.0, 0.0]","[0.0, 0.0, 0.0]","[15.209, -3.653, 48.445]"
147,0,Cloud Points(m),"[0.0, 0.0, 0.0]","[0.0, 0.0, 0.0]","[0.0, 0.0, 0.0]","[3.177, -0.052, 10.766]","[3.127, 0.222, 10.597]","[6.589, -0.835, 19.663]","[0.0, 0.0, 0.0]","[4.451, 0.229, 12.332]","[0.0, 0.0, 0.0]","[0.0, 0.0, 0.0]","[3.351, 0.795, 10.597]","[3.551, 1.268, 10.597]","[0.0, 0.0, 0.0]","[0.0, 0.0, 0.0]","[3.594, 1.224, 10.434]","[0.0, 0.0, 0.0]","[0.0, 0.0, 0.0]","[0.0, 0.0, 0.0]","[0.0, 0.0, 0.0]","[0.0, 0.0, 0.0]","[15.209, -3.653, 48.445]"
147,0,Cloud Points(m),"[0.0, 0.0, 0.0]","[0.0, 0.0, 0.0]","[0.0, 0.0, 0.0]","[3.177, -0.052, 10.766]","[3.127, 0.222, 10.597]","[6.589, -0.835, 19.663]","[0.0, 0.0, 0.0]","[4.451, 0.229, 12.332]","[0.0, 0.0, 0.0]","[0.0, 0.0, 0.0]","[3.351, 0.795, 10.597]","[3.551, 1.268, 10.597]","[0.0, 0.0, 0.0]","[0.0, 0.0, 0.0]","[3.594, 1.224, 10.434]","[0.0, 0.0, 0.0]","[0.0, 0.0, 0.0]","[0.0, 0.0, 0.0]","[0.0, 0.0, 0.0]","[0.0, 0.0, 0.0]","[15.209, -3.653, 48.445]"
148,0,Keypoints(m),"[5.028, -0.856, 15.781]","[3.609, -0.461, 11.496]","[3.438, -0.446, 11.119]","[0.0, 0.0, 0.0]","[0.0, 0.0, 0.0]","[5.827, -0.698, 17.391]","[4.173, -0.116, 12.1155]","[4.563, 0.233, 12.56]","[3.607, 0.2, 10.766]","[3.351, 0.197, 10.597]","[3.376, 0.795, 10.597]","[3.551, 1.268, 10.597]","[3.633, 0.2, 10.766]","[3.521, 0.734, 10.434]","[3.594, 1.249, 10.434]","[4.663, -0.8, 14.744]","[6.595, -1.098, 20.2505]","[4.39, -0.758, 13.986]","[0.0, 0.0, 0.0]","[3.768, -0.538, 12.005]","[15.209, -3.653, 48.445]"
148,0,Keypoints(image),"[561000.0, 213000.0, 697.05]","[559000.0, 219000.0, 618.552]","[557000.0, 219000.0, 358.86]","[552000.0, 234000.0, 127.24199999999999]","[556000.0, 251000.0, 134.75599999999997]","[568000.0, 219000.0, 666.721]","[572000.0, 232000.0, 609.742]","[580000.0, 244000.0, 660.9169999999999]","[568000.0, 244000.0, 306.31]","[560000.0, 244000.0, 252.303]","[561000.0, 268000.0, 563.4369999999999]","[568000.0, 287000.0, 420.646]","[569000.0, 244000.0, 366.832]","[569000.0, 266000.0, 583.882]","[572000.0, 287000.0, 390.328]","[560000.0, 213000.0, 816.104]","[564000.0, 213000.0, 637.963]","[559000.0, 213000.0, 804.592]","[564000.0, 214000.0, 196.386]","[559000.0, 217000.0, 585.314]","[559000.0, 204000.0, 683.888]"
148,,Distance(m),0.0,0.0,0.0,0.0,0.0,0.0,0.0,0.0,0.0,0.0,0.0,0.0,0.0,0.0,0.0,0.0,0.0,0.0,0.0,0.0,0.0
148,0,Cloud Points(m),"[0.0, 0.0, 0.0]","[0.0, 0.0, 0.0]","[0.0, 0.0, 0.0]","[3.202, -0.052, 10.766]","[3.202, 0.366, 10.434]","[5.827, -0.698, 17.391]","[0.0, 0.0, 0.0]","[4.563, 0.233, 12.56]","[0.0, 0.0, 0.0]","[0.0, 0.0, 0.0]","[3.376, 0.795, 10.597]","[3.551, 1.268, 10.597]","[0.0, 0.0, 0.0]","[0.0, 0.0, 0.0]","[3.594, 1.249, 10.434]","[0.0, 0.0, 0.0]","[0.0, 0.0, 0.0]","[0.0, 0.0, 0.0]","[0.0, 0.0, 0.0]","[0.0, 0.0, 0.0]","[15.209, -3.653, 48.445]"
148,0,Cloud Points(m),"[0.0, 0.0, 0.0]","[0.0, 0.0, 0.0]","[0.0, 0.0, 0.0]","[3.202, -0.052, 10.766]","[3.202, 0.366, 10.434]","[5.827, -0.698, 17.391]","[0.0, 0.0, 0.0]","[4.563, 0.233, 12.56]","[0.0, 0.0, 0.0]","[0.0, 0.0, 0.0]","[3.376, 0.795, 10.597]","[3.551, 1.268, 10.597]","[0.0, 0.0, 0.0]","[0.0, 0.0, 0.0]","[3.594, 1.249, 10.434]","[0.0, 0.0, 0.0]","[0.0, 0.0, 0.0]","[0.0, 0.0, 0.0]","[0.0, 0.0, 0.0]","[0.0, 0.0, 0.0]","[15.209, -3.653, 48.445]"
148,0,Cloud Points(m),"[0.0, 0.0, 0.0]","[0.0, 0.0, 0.0]","[0.0, 0.0, 0.0]","[3.202, -0.052, 10.766]","[3.202, 0.366, 10.434]","[5.827, -0.698, 17.391]","[0.0, 0.0, 0.0]","[4.563, 0.233, 12.56]","[0.0, 0.0, 0.0]","[0.0, 0.0, 0.0]","[3.376, 0.795, 10.597]","[3.551, 1.268, 10.597]","[0.0, 0.0, 0.0]","[0.0, 0.0, 0.0]","[3.594, 1.249, 10.434]","[0.0, 0.0, 0.0]","[0.0, 0.0, 0.0]","[0.0, 0.0, 0.0]","[0.0, 0.0, 0.0]","[0.0, 0.0, 0.0]","[15.209, -3.653, 48.445]"
148,0,Cloud Points(m),"[0.0, 0.0, 0.0]","[0.0, 0.0, 0.0]","[0.0, 0.0, 0.0]","[3.202, -0.052, 10.766]","[3.202, 0.366, 10.434]","[5.827, -0.698, 17.391]","[0.0, 0.0, 0.0]","[4.563, 0.233, 12.56]","[0.0, 0.0, 0.0]","[0.0, 0.0, 0.0]","[3.376, 0.795, 10.597]","[3.551, 1.268, 10.597]","[0.0, 0.0, 0.0]","[0.0, 0.0, 0.0]","[3.594, 1.249, 10.434]","[0.0, 0.0, 0.0]","[0.0, 0.0, 0.0]","[0.0, 0.0, 0.0]","[0.0, 0.0, 0.0]","[0.0, 0.0, 0.0]","[15.209, -3.653, 48.445]"
148,0,Cloud Points(m),"[0.0, 0.0, 0.0]","[0.0, 0.0, 0.0]","[0.0, 0.0, 0.0]","[3.202, -0.052, 10.766]","[3.202, 0.366, 10.434]","[5.827, -0.698, 17.391]","[0.0, 0.0, 0.0]","[4.563, 0.233, 12.56]","[0.0, 0.0, 0.0]","[0.0, 0.0, 0.0]","[3.376, 0.795, 10.597]","[3.551, 1.268, 10.597]","[0.0, 0.0, 0.0]","[0.0, 0.0, 0.0]","[3.594, 1.249, 10.434]","[0.0, 0.0, 0.0]","[0.0, 0.0, 0.0]","[0.0, 0.0, 0.0]","[0.0, 0.0, 0.0]","[0.0, 0.0, 0.0]","[15.209, -3.653, 48.445]"
148,0,Cloud Points(m),"[0.0, 0.0, 0.0]","[0.0, 0.0, 0.0]","[0.0, 0.0, 0.0]","[3.202, -0.052, 10.766]","[3.202, 0.366, 10.434]","[5.827, -0.698, 17.391]","[0.0, 0.0, 0.0]","[4.563, 0.233, 12.56]","[0.0, 0.0, 0.0]","[0.0, 0.0, 0.0]","[3.376, 0.795, 10.597]","[3.551, 1.268, 10.597]","[0.0, 0.0, 0.0]","[0.0, 0.0, 0.0]","[3.594, 1.249, 10.434]","[0.0, 0.0, 0.0]","[0.0, 0.0, 0.0]","[0.0, 0.0, 0.0]","[0.0, 0.0, 0.0]","[0.0, 0.0, 0.0]","[15.209, -3.653, 48.445]"
148,0,Cloud Points(m),"[0.0, 0.0, 0.0]","[0.0, 0.0, 0.0]","[0.0, 0.0, 0.0]","[3.202, -0.052, 10.766]","[3.202, 0.366, 10.434]","[5.827, -0.698, 17.391]","[0.0, 0.0, 0.0]","[4.563, 0.233, 12.56]","[0.0, 0.0, 0.0]","[0.0, 0.0, 0.0]","[3.376, 0.795, 10.597]","[3.551, 1.268, 10.597]","[0.0, 0.0, 0.0]","[0.0, 0.0, 0.0]","[3.594, 1.249, 10.434]","[0.0, 0.0, 0.0]","[0.0, 0.0, 0.0]","[0.0, 0.0, 0.0]","[0.0, 0.0, 0.0]","[0.0, 0.0, 0.0]","[15.209, -3.653, 48.445]"
148,0,Cloud Points(m),"[0.0, 0.0, 0.0]","[0.0, 0.0, 0.0]","[0.0, 0.0, 0.0]","[3.202, -0.052, 10.766]","[3.202, 0.366, 10.434]","[5.827, -0.698, 17.391]","[0.0, 0.0, 0.0]","[4.563, 0.233, 12.56]","[0.0, 0.0, 0.0]","[0.0, 0.0, 0.0]","[3.376, 0.795, 10.597]","[3.551, 1.268, 10.597]","[0.0, 0.0, 0.0]","[0.0, 0.0, 0.0]","[3.594, 1.249, 10.434]","[0.0, 0.0, 0.0]","[0.0, 0.0, 0.0]","[0.0, 0.0, 0.0]","[0.0, 0.0, 0.0]","[0.0, 0.0, 0.0]","[15.209, -3.653, 48.445]"
148,0,Cloud Points(m),"[0.0, 0.0, 0.0]","[0.0, 0.0, 0.0]","[0.0, 0.0, 0.0]","[3.202, -0.052, 10.766]","[3.202, 0.366, 10.434]","[5.827, -0.698, 17.391]","[0.0, 0.0, 0.0]","[4.563, 0.233, 12.56]","[0.0, 0.0, 0.0]","[0.0, 0.0, 0.0]","[3.376, 0.795, 10.597]","[3.551, 1.268, 10.597]","[0.0, 0.0, 0.0]","[0.0, 0.0, 0.0]","[3.594, 1.249, 10.434]","[0.0, 0.0, 0.0]","[0.0, 0.0, 0.0]","[0.0, 0.0, 0.0]","[0.0, 0.0, 0.0]","[0.0, 0.0, 0.0]","[15.209, -3.653, 48.445]"
148,0,Cloud Points(m),"[0.0, 0.0, 0.0]","[0.0, 0.0, 0.0]","[0.0, 0.0, 0.0]","[3.202, -0.052, 10.766]","[3.202, 0.366, 10.434]","[5.827, -0.698, 17.391]","[0.0, 0.0, 0.0]","[4.563, 0.233, 12.56]","[0.0, 0.0, 0.0]","[0.0, 0.0, 0.0]","[3.376, 0.795, 10.597]","[3.551, 1.268, 10.597]","[0.0, 0.0, 0.0]","[0.0, 0.0, 0.0]","[3.594, 1.249, 10.434]","[0.0, 0.0, 0.0]","[0.0, 0.0, 0.0]","[0.0, 0.0, 0.0]","[0.0, 0.0, 0.0]","[0.0, 0.0, 0.0]","[15.209, -3.653, 48.445]"
148,0,Cloud Points(m),"[0.0, 0.0, 0.0]","[0.0, 0.0, 0.0]","[0.0, 0.0, 0.0]","[3.202, -0.052, 10.766]","[3.202, 0.366, 10.434]","[5.827, -0.698, 17.391]","[0.0, 0.0, 0.0]","[4.563, 0.233, 12.56]","[0.0, 0.0, 0.0]","[0.0, 0.0, 0.0]","[3.376, 0.795, 10.597]","[3.551, 1.268, 10.597]","[0.0, 0.0, 0.0]","[0.0, 0.0, 0.0]","[3.594, 1.249, 10.434]","[0.0, 0.0, 0.0]","[0.0, 0.0, 0.0]","[0.0, 0.0, 0.0]","[0.0, 0.0, 0.0]","[0.0, 0.0, 0.0]","[15.209, -3.653, 48.445]"
148,0,Cloud Points(m),"[0.0, 0.0, 0.0]","[0.0, 0.0, 0.0]","[0.0, 0.0, 0.0]","[3.202, -0.052, 10.766]","[3.202, 0.366, 10.434]","[5.827, -0.698, 17.391]","[0.0, 0.0, 0.0]","[4.563, 0.233, 12.56]","[0.0, 0.0, 0.0]","[0.0, 0.0, 0.0]","[3.376, 0.795, 10.597]","[3.551, 1.268, 10.597]","[0.0, 0.0, 0.0]","[0.0, 0.0, 0.0]","[3.594, 1.249, 10.434]","[0.0, 0.0, 0.0]","[0.0, 0.0, 0.0]","[0.0, 0.0, 0.0]","[0.0, 0.0, 0.0]","[0.0, 0.0, 0.0]","[15.209, -3.653, 48.445]"
149,0,Keypoints(m),"[6.178, -1.036, 19.109]","[3.462, -0.39, 11.029]","[3.382, -0.387, 10.939]","[0.0, 0.0, 0.0]","[0.0, 0.0, 0.0]","[5.053, -0.534, 15.079]","[3.906, -0.11, 11.496]","[4.563, 0.233, 12.56]","[3.607, 0.2, 10.766]","[3.43, 0.2, 10.766]","[3.426, 0.82, 10.597]","[3.551, 1.293, 10.597]","[3.633, 0.2, 10.766]","[3.521, 0.734, 10.434]","[3.594, 1.249, 10.434]","[4.614, -0.791, 14.5875]","[6.748, -1.067, 20.5715]","[4.094, -0.677, 13.043]","[0.0, 0.0, 0.0]","[3.609, -0.488, 11.496]","[17.744, -4.262, 56.52]"
149,0,Keypoints(image),"[563000.0, 213000.0, 721.663]","[559000.0, 221000.0, 648.529]","[557000.0, 221000.0, 407.202]","[551000.0, 234000.0, 153.792]","[556000.0, 247000.0, 133.85]","[568000.0, 221000.0, 659.674]","[570000.0, 232000.0, 607.8670000000001]","[580000.0, 244000.0, 652.3219999999999]","[568000.0, 244000.0, 332.13199999999995]","[561000.0, 244000.0, 269.033]","[563000.0, 269000.0, 496.40299999999996]","[568000.0, 288000.0, 304.217]","[569000.0, 244000.0, 396.44]","[569000.0, 266000.0, 535.967]","[572000.0, 287000.0, 313.27]","[560000.0, 213000.0, 788.597]","[565000.0, 214000.0, 556.9399999999999]","[559000.0, 214000.0, 769.976]","[566000.0, 214000.0, 143.489]","[559000.0, 218000.0, 616.564]","[559000.0, 204000.0, 706.387]"
149,,Distance(m),0.0,0.0,0.0,0.0,0.0,0.0,0.0,0.0,0.0,0.0,0.0,0.0,0.0,0.0,0.0,0.0,0.0,0.0,0.0,0.0,0.0
149,0,Cloud Points(m),"[0.0, 0.0, 0.0]","[0.0, 0.0, 0.0]","[0.0, 0.0, 0.0]","[3.228, -0.053, 10.939]","[0.0, 0.0, 0.0]","[0.0, 0.0, 0.0]","[0.0, 0.0, 0.0]","[4.563, 0.233, 12.56]","[0.0, 0.0, 0.0]","[0.0, 0.0, 0.0]","[0.0, 0.0, 0.0]","[3.551, 1.293, 10.597]","[0.0, 0.0, 0.0]","[0.0, 0.0, 0.0]","[3.594, 1.249, 10.434]","[0.0, 0.0, 0.0]","[0.0, 0.0, 0.0]","[0.0, 0.0, 0.0]","[7.469, -1.173, 22.608]","[0.0, 0.0, 0.0]","[17.744, -4.262, 56.52]"
149,0,Cloud Points(m),"[0.0, 0.0, 0.0]","[0.0, 0.0, 0.0]","[0.0, 0.0, 0.0]","[3.228, -0.053, 10.939]","[0.0, 0.0, 0.0]","[0.0, 0.0, 0.0]","[0.0, 0.0, 0.0]","[4.563, 0.233, 12.56]","[0.0, 0.0, 0.0]","[0.0, 0.0, 0.0]","[0.0, 0.0, 0.0]","[3.551, 1.293, 10.597]","[0.0, 0.0, 0.0]","[0.0, 0.0, 0.0]","[3.594, 1.249, 10.434]","[0.0, 0.0, 0.0]","[0.0, 0.0, 0.0]","[0.0, 0.0, 0.0]","[7.469, -1.173, 22.608]","[0.0, 0.0, 0.0]","[17.744, -4.262, 56.52]"
149,0,Cloud Points(m),"[0.0, 0.0, 0.0]","[0.0, 0.0, 0.0]","[0.0, 0.0, 0.0]","[3.228, -0.053, 10.939]","[0.0, 0.0, 0.0]","[0.0, 0.0, 0.0]","[0.0, 0.0, 0.0]","[4.563, 0.233, 12.56]","[0.0, 0.0, 0.0]","[0.0, 0.0, 0.0]","[0.0, 0.0, 0.0]","[3.551, 1.293, 10.597]","[0.0, 0.0, 0.0]","[0.0, 0.0, 0.0]","[3.594, 1.249, 10.434]","[0.0, 0.0, 0.0]","[0.0, 0.0, 0.0]","[0.0, 0.0, 0.0]","[7.469, -1.173, 22.608]","[0.0, 0.0, 0.0]","[17.744, -4.262, 56.52]"
149,0,Cloud Points(m),"[0.0, 0.0, 0.0]","[0.0, 0.0, 0.0]","[0.0, 0.0, 0.0]","[3.228, -0.053, 10.939]","[0.0, 0.0, 0.0]","[0.0, 0.0, 0.0]","[0.0, 0.0, 0.0]","[4.563, 0.233, 12.56]","[0.0, 0.0, 0.0]","[0.0, 0.0, 0.0]","[0.0, 0.0, 0.0]","[3.551, 1.293, 10.597]","[0.0, 0.0, 0.0]","[0.0, 0.0, 0.0]","[3.594, 1.249, 10.434]","[0.0, 0.0, 0.0]","[0.0, 0.0, 0.0]","[0.0, 0.0, 0.0]","[7.469, -1.173, 22.608]","[0.0, 0.0, 0.0]","[17.744, -4.262, 56.52]"
149,0,Cloud Points(m),"[0.0, 0.0, 0.0]","[0.0, 0.0, 0.0]","[0.0, 0.0, 0.0]","[3.228, -0.053, 10.939]","[0.0, 0.0, 0.0]","[0.0, 0.0, 0.0]","[0.0, 0.0, 0.0]","[4.563, 0.233, 12.56]","[0.0, 0.0, 0.0]","[0.0, 0.0, 0.0]","[0.0, 0.0, 0.0]","[3.551, 1.293, 10.597]","[0.0, 0.0, 0.0]","[0.0, 0.0, 0.0]","[3.594, 1.249, 10.434]","[0.0, 0.0, 0.0]","[0.0, 0.0, 0.0]","[0.0, 0.0, 0.0]","[7.469, -1.173, 22.608]","[0.0, 0.0, 0.0]","[17.744, -4.262, 56.52]"
149,0,Cloud Points(m),"[0.0, 0.0, 0.0]","[0.0, 0.0, 0.0]","[0.0, 0.0, 0.0]","[3.228, -0.053, 10.939]","[0.0, 0.0, 0.0]","[0.0, 0.0, 0.0]","[0.0, 0.0, 0.0]","[4.563, 0.233, 12.56]","[0.0, 0.0, 0.0]","[0.0, 0.0, 0.0]","[0.0, 0.0, 0.0]","[3.551, 1.293, 10.597]","[0.0, 0.0, 0.0]","[0.0, 0.0, 0.0]","[3.594, 1.249, 10.434]","[0.0, 0.0, 0.0]","[0.0, 0.0, 0.0]","[0.0, 0.0, 0.0]","[7.469, -1.173, 22.608]","[0.0, 0.0, 0.0]","[17.744, -4.262, 56.52]"
149,0,Cloud Points(m),"[0.0, 0.0, 0.0]","[0.0, 0.0, 0.0]","[0.0, 0.0, 0.0]","[3.228, -0.053, 10.939]","[0.0, 0.0, 0.0]","[0.0, 0.0, 0.0]","[0.0, 0.0, 0.0]","[4.563, 0.233, 12.56]","[0.0, 0.0, 0.0]","[0.0, 0.0, 0.0]","[0.0, 0.0, 0.0]","[3.551, 1.293, 10.597]","[0.0, 0.0, 0.0]","[0.0, 0.0, 0.0]","[3.594, 1.249, 10.434]","[0.0, 0.0, 0.0]","[0.0, 0.0, 0.0]","[0.0, 0.0, 0.0]","[7.469, -1.173, 22.608]","[0.0, 0.0, 0.0]","[17.744, -4.262, 56.52]"
149,0,Cloud Points(m),"[0.0, 0.0, 0.0]","[0.0, 0.0, 0.0]","[0.0, 0.0, 0.0]","[3.228, -0.053, 10.939]","[0.0, 0.0, 0.0]","[0.0, 0.0, 0.0]","[0.0, 0.0, 0.0]","[4.563, 0.233, 12.56]","[0.0, 0.0, 0.0]","[0.0, 0.0, 0.0]","[0.0, 0.0, 0.0]","[3.551, 1.293, 10.597]","[0.0, 0.0, 0.0]","[0.0, 0.0, 0.0]","[3.594, 1.249, 10.434]","[0.0, 0.0, 0.0]","[0.0, 0.0, 0.0]","[0.0, 0.0, 0.0]","[7.469, -1.173, 22.608]","[0.0, 0.0, 0.0]","[17.744, -4.262, 56.52]"
149,0,Cloud Points(m),"[0.0, 0.0, 0.0]","[0.0, 0.0, 0.0]","[0.0, 0.0, 0.0]","[3.228, -0.053, 10.939]","[0.0, 0.0, 0.0]","[0.0, 0.0, 0.0]","[0.0, 0.0, 0.0]","[4.563, 0.233, 12.56]","[0.0, 0.0, 0.0]","[0.0, 0.0, 0.0]","[0.0, 0.0, 0.0]","[3.551, 1.293, 10.597]","[0.0, 0.0, 0.0]","[0.0, 0.0, 0.0]","[3.594, 1.249, 10.434]","[0.0, 0.0, 0.0]","[0.0, 0.0, 0.0]","[0.0, 0.0, 0.0]","[7.469, -1.173, 22.608]","[0.0, 0.0, 0.0]","[17.744, -4.262, 56.52]"
149,0,Cloud Points(m),"[0.0, 0.0, 0.0]","[0.0, 0.0, 0.0]","[0.0, 0.0, 0.0]","[3.228, -0.053, 10.939]","[0.0, 0.0, 0.0]","[0.0, 0.0, 0.0]","[0.0, 0.0, 0.0]","[4.563, 0.233, 12.56]","[0.0, 0.0, 0.0]","[0.0, 0.0, 0.0]","[0.0, 0.0, 0.0]","[3.551, 1.293, 10.597]","[0.0, 0.0, 0.0]","[0.0, 0.0, 0.0]","[3.594, 1.249, 10.434]","[0.0, 0.0, 0.0]","[0.0, 0.0, 0.0]","[0.0, 0.0, 0.0]","[7.469, -1.173, 22.608]","[0.0, 0.0, 0.0]","[17.744, -4.262, 56.52]"
149,0,Cloud Points(m),"[0.0, 0.0, 0.0]","[0.0, 0.0, 0.0]","[0.0, 0.0, 0.0]","[3.228, -0.053, 10.939]","[0.0, 0.0, 0.0]","[0.0, 0.0, 0.0]","[0.0, 0.0, 0.0]","[4.563, 0.233, 12.56]","[0.0, 0.0, 0.0]","[0.0, 0.0, 0.0]","[0.0, 0.0, 0.0]","[3.551, 1.293, 10.597]","[0.0, 0.0, 0.0]","[0.0, 0.0, 0.0]","[3.594, 1.249, 10.434]","[0.0, 0.0, 0.0]","[0.0, 0.0, 0.0]","[0.0, 0.0, 0.0]","[7.469, -1.173, 22.608]","[0.0, 0.0, 0.0]","[17.744, -4.262, 56.52]"
149,0,Cloud Points(m),"[0.0, 0.0, 0.0]","[0.0, 0.0, 0.0]","[0.0, 0.0, 0.0]","[3.228, -0.053, 10.939]","[0.0, 0.0, 0.0]","[0.0, 0.0, 0.0]","[0.0, 0.0, 0.0]","[4.563, 0.233, 12.56]","[0.0, 0.0, 0.0]","[0.0, 0.0, 0.0]","[0.0, 0.0, 0.0]","[3.551, 1.293, 10.597]","[0.0, 0.0, 0.0]","[0.0, 0.0, 0.0]","[3.594, 1.249, 10.434]","[0.0, 0.0, 0.0]","[0.0, 0.0, 0.0]","[0.0, 0.0, 0.0]","[7.469, -1.173, 22.608]","[0.0, 0.0, 0.0]","[17.744, -4.262, 56.52]"
149,0,Cloud Points(m),"[0.0, 0.0, 0.0]","[0.0, 0.0, 0.0]","[0.0, 0.0, 0.0]","[3.228, -0.053, 10.939]","[0.0, 0.0, 0.0]","[0.0, 0.0, 0.0]","[0.0, 0.0, 0.0]","[4.563, 0.233, 12.56]","[0.0, 0.0, 0.0]","[0.0, 0.0, 0.0]","[0.0, 0.0, 0.0]","[3.551, 1.293, 10.597]","[0.0, 0.0, 0.0]","[0.0, 0.0, 0.0]","[3.594, 1.249, 10.434]","[0.0, 0.0, 0.0]","[0.0, 0.0, 0.0]","[0.0, 0.0, 0.0]","[7.469, -1.173, 22.608]","[0.0, 0.0, 0.0]","[17.744, -4.262, 56.52]"
150,0,Keypoints(m),"[5.553, -0.891, 17.1735]","[3.49, -0.394, 11.119]","[3.382, -0.387, 10.939]","[0.0, 0.0, 0.0]","[0.0, 0.0, 0.0]","[4.686, -0.462, 13.986]","[3.906, -0.11, 11.496]","[4.48, 0.229, 12.332]","[3.607, 0.225, 10.766]","[3.376, 0.222, 10.597]","[3.451, 0.82, 10.597]","[3.496, 1.273, 10.434]","[3.604, 0.198, 10.6815]","[3.521, 0.734, 10.434]","[3.619, 1.249, 10.434]","[4.663, -0.8, 14.744]","[6.549, -1.036, 19.9655]","[4.216, -0.697, 13.432]","[0.0, 0.0, 0.0]","[3.579, -0.457, 11.4]","[14.104, -3.282, 44.926]"
150,0,Keypoints(image),"[563000.0, 214000.0, 746.943]","[559000.0, 221000.0, 667.202]","[557000.0, 221000.0, 417.39300000000003]","[551000.0, 234000.0, 174.109]","[556000.0, 248000.0, 155.419]","[568000.0, 222000.0, 678.1]","[570000.0, 232000.0, 648.0310000000001]","[580000.0, 244000.0, 660.374]","[568000.0, 245000.0, 370.773]","[561000.0, 245000.0, 305.26399999999995]","[564000.0, 269000.0, 505.54699999999997]","[568000.0, 288000.0, 339.885]","[569000.0, 244000.0, 443.07]","[569000.0, 266000.0, 536.8389999999999]","[573000.0, 287000.0, 344.123]","[560000.0, 213000.0, 816.1469999999999]","[565000.0, 214000.0, 539.095]","[559000.0, 214000.0, 785.025]","[566000.0, 214000.0, 88.7238]","[559000.0, 219000.0, 640.212]","[559000.0, 205000.0, 735.253]"
150,,Distance(m),0.0,0.0,0.0,0.0,0.0,0.0,0.0,0.0,0.0,0.0,0.0,0.0,0.0,0.0,0.0,0.0,0.0,0.0,0.0,0.0,0.0
150,0,Cloud Points(m),"[0.0, 0.0, 0.0]","[0.0, 0.0, 0.0]","[0.0, 0.0, 0.0]","[3.177, -0.052, 10.766]","[0.0, 0.0, 0.0]","[0.0, 0.0, 0.0]","[0.0, 0.0, 0.0]","[4.48, 0.229, 12.332]","[0.0, 0.0, 0.0]","[0.0, 0.0, 0.0]","[0.0, 0.0, 0.0]","[3.496, 1.273, 10.434]","[0.0, 0.0, 0.0]","[0.0, 0.0, 0.0]","[3.619, 1.249, 10.434]","[0.0, 0.0, 0.0]","[0.0, 0.0, 0.0]","[0.0, 0.0, 0.0]","[7.349, -1.154, 22.2435]","[0.0, 0.0, 0.0]","[14.104, -3.282, 44.926]"
150,0,Cloud Points(m),"[0.0, 0.0, 0.0]","[0.0, 0.0, 0.0]","[0.0, 0.0, 0.0]","[3.177, -0.052, 10.766]","[0.0, 0.0, 0.0]","[0.0, 0.0, 0.0]","[0.0, 0.0, 0.0]","[4.48, 0.229, 12.332]","[0.0, 0.0, 0.0]","[0.0, 0.0, 0.0]","[0.0, 0.0, 0.0]","[3.496, 1.273, 10.434]","[0.0, 0.0, 0.0]","[0.0, 0.0, 0.0]","[3.619, 1.249, 10.434]","[0.0, 0.0, 0.0]","[0.0, 0.0, 0.0]","[0.0, 0.0, 0.0]","[7.349, -1.154, 22.2435]","[0.0, 0.0, 0.0]","[14.104, -3.282, 44.926]"
150,0,Cloud Points(m),"[0.0, 0.0, 0.0]","[0.0, 0.0, 0.0]","[0.0, 0.0, 0.0]","[3.177, -0.052, 10.766]","[0.0, 0.0, 0.0]","[0.0, 0.0, 0.0]","[0.0, 0.0, 0.0]","[4.48, 0.229, 12.332]","[0.0, 0.0, 0.0]","[0.0, 0.0, 0.0]","[0.0, 0.0, 0.0]","[3.496, 1.273, 10.434]","[0.0, 0.0, 0.0]","[0.0, 0.0, 0.0]","[3.619, 1.249, 10.434]","[0.0, 0.0, 0.0]","[0.0, 0.0, 0.0]","[0.0, 0.0, 0.0]","[7.349, -1.154, 22.2435]","[0.0, 0.0, 0.0]","[14.104, -3.282, 44.926]"
150,0,Cloud Points(m),"[0.0, 0.0, 0.0]","[0.0, 0.0, 0.0]","[0.0, 0.0, 0.0]","[3.177, -0.052, 10.766]","[0.0, 0.0, 0.0]","[0.0, 0.0, 0.0]","[0.0, 0.0, 0.0]","[4.48, 0.229, 12.332]","[0.0, 0.0, 0.0]","[0.0, 0.0, 0.0]","[0.0, 0.0, 0.0]","[3.496, 1.273, 10.434]","[0.0, 0.0, 0.0]","[0.0, 0.0, 0.0]","[3.619, 1.249, 10.434]","[0.0, 0.0, 0.0]","[0.0, 0.0, 0.0]","[0.0, 0.0, 0.0]","[7.349, -1.154, 22.2435]","[0.0, 0.0, 0.0]","[14.104, -3.282, 44.926]"
150,0,Cloud Points(m),"[0.0, 0.0, 0.0]","[0.0, 0.0, 0.0]","[0.0, 0.0, 0.0]","[3.177, -0.052, 10.766]","[0.0, 0.0, 0.0]","[0.0, 0.0, 0.0]","[0.0, 0.0, 0.0]","[4.48, 0.229, 12.332]","[0.0, 0.0, 0.0]","[0.0, 0.0, 0.0]","[0.0, 0.0, 0.0]","[3.496, 1.273, 10.434]","[0.0, 0.0, 0.0]","[0.0, 0.0, 0.0]","[3.619, 1.249, 10.434]","[0.0, 0.0, 0.0]","[0.0, 0.0, 0.0]","[0.0, 0.0, 0.0]","[7.349, -1.154, 22.2435]","[0.0, 0.0, 0.0]","[14.104, -3.282, 44.926]"
150,0,Cloud Points(m),"[0.0, 0.0, 0.0]","[0.0, 0.0, 0.0]","[0.0, 0.0, 0.0]","[3.177, -0.052, 10.766]","[0.0, 0.0, 0.0]","[0.0, 0.0, 0.0]","[0.0, 0.0, 0.0]","[4.48, 0.229, 12.332]","[0.0, 0.0, 0.0]","[0.0, 0.0, 0.0]","[0.0, 0.0, 0.0]","[3.496, 1.273, 10.434]","[0.0, 0.0, 0.0]","[0.0, 0.0, 0.0]","[3.619, 1.249, 10.434]","[0.0, 0.0, 0.0]","[0.0, 0.0, 0.0]","[0.0, 0.0, 0.0]","[7.349, -1.154, 22.2435]","[0.0, 0.0, 0.0]","[14.104, -3.282, 44.926]"
150,0,Cloud Points(m),"[0.0, 0.0, 0.0]","[0.0, 0.0, 0.0]","[0.0, 0.0, 0.0]","[3.177, -0.052, 10.766]","[0.0, 0.0, 0.0]","[0.0, 0.0, 0.0]","[0.0, 0.0, 0.0]","[4.48, 0.229, 12.332]","[0.0, 0.0, 0.0]","[0.0, 0.0, 0.0]","[0.0, 0.0, 0.0]","[3.496, 1.273, 10.434]","[0.0, 0.0, 0.0]","[0.0, 0.0, 0.0]","[3.619, 1.249, 10.434]","[0.0, 0.0, 0.0]","[0.0, 0.0, 0.0]","[0.0, 0.0, 0.0]","[7.349, -1.154, 22.2435]","[0.0, 0.0, 0.0]","[14.104, -3.282, 44.926]"
150,0,Cloud Points(m),"[0.0, 0.0, 0.0]","[0.0, 0.0, 0.0]","[0.0, 0.0, 0.0]","[3.177, -0.052, 10.766]","[0.0, 0.0, 0.0]","[0.0, 0.0, 0.0]","[0.0, 0.0, 0.0]","[4.48, 0.229, 12.332]","[0.0, 0.0, 0.0]","[0.0, 0.0, 0.0]","[0.0, 0.0, 0.0]","[3.496, 1.273, 10.434]","[0.0, 0.0, 0.0]","[0.0, 0.0, 0.0]","[3.619, 1.249, 10.434]","[0.0, 0.0, 0.0]","[0.0, 0.0, 0.0]","[0.0, 0.0, 0.0]","[7.349, -1.154, 22.2435]","[0.0, 0.0, 0.0]","[14.104, -3.282, 44.926]"
150,0,Cloud Points(m),"[0.0, 0.0, 0.0]","[0.0, 0.0, 0.0]","[0.0, 0.0, 0.0]","[3.177, -0.052, 10.766]","[0.0, 0.0, 0.0]","[0.0, 0.0, 0.0]","[0.0, 0.0, 0.0]","[4.48, 0.229, 12.332]","[0.0, 0.0, 0.0]","[0.0, 0.0, 0.0]","[0.0, 0.0, 0.0]","[3.496, 1.273, 10.434]","[0.0, 0.0, 0.0]","[0.0, 0.0, 0.0]","[3.619, 1.249, 10.434]","[0.0, 0.0, 0.0]","[0.0, 0.0, 0.0]","[0.0, 0.0, 0.0]","[7.349, -1.154, 22.2435]","[0.0, 0.0, 0.0]","[14.104, -3.282, 44.926]"
150,0,Cloud Points(m),"[0.0, 0.0, 0.0]","[0.0, 0.0, 0.0]","[0.0, 0.0, 0.0]","[3.177, -0.052, 10.766]","[0.0, 0.0, 0.0]","[0.0, 0.0, 0.0]","[0.0, 0.0, 0.0]","[4.48, 0.229, 12.332]","[0.0, 0.0, 0.0]","[0.0, 0.0, 0.0]","[0.0, 0.0, 0.0]","[3.496, 1.273, 10.434]","[0.0, 0.0, 0.0]","[0.0, 0.0, 0.0]","[3.619, 1.249, 10.434]","[0.0, 0.0, 0.0]","[0.0, 0.0, 0.0]","[0.0, 0.0, 0.0]","[7.349, -1.154, 22.2435]","[0.0, 0.0, 0.0]","[14.104, -3.282, 44.926]"
150,0,Cloud Points(m),"[0.0, 0.0, 0.0]","[0.0, 0.0, 0.0]","[0.0, 0.0, 0.0]","[3.177, -0.052, 10.766]","[0.0, 0.0, 0.0]","[0.0, 0.0, 0.0]","[0.0, 0.0, 0.0]","[4.48, 0.229, 12.332]","[0.0, 0.0, 0.0]","[0.0, 0.0, 0.0]","[0.0, 0.0, 0.0]","[3.496, 1.273, 10.434]","[0.0, 0.0, 0.0]","[0.0, 0.0, 0.0]","[3.619, 1.249, 10.434]","[0.0, 0.0, 0.0]","[0.0, 0.0, 0.0]","[0.0, 0.0, 0.0]","[7.349, -1.154, 22.2435]","[0.0, 0.0, 0.0]","[14.104, -3.282, 44.926]"
150,0,Cloud Points(m),"[0.0, 0.0, 0.0]","[0.0, 0.0, 0.0]","[0.0, 0.0, 0.0]","[3.177, -0.052, 10.766]","[0.0, 0.0, 0.0]","[0.0, 0.0, 0.0]","[0.0, 0.0, 0.0]","[4.48, 0.229, 12.332]","[0.0, 0.0, 0.0]","[0.0, 0.0, 0.0]","[0.0, 0.0, 0.0]","[3.496, 1.273, 10.434]","[0.0, 0.0, 0.0]","[0.0, 0.0, 0.0]","[3.619, 1.249, 10.434]","[0.0, 0.0, 0.0]","[0.0, 0.0, 0.0]","[0.0, 0.0, 0.0]","[7.349, -1.154, 22.2435]","[0.0, 0.0, 0.0]","[14.104, -3.282, 44.926]"
150,0,Cloud Points(m),"[0.0, 0.0, 0.0]","[0.0, 0.0, 0.0]","[0.0, 0.0, 0.0]","[3.177, -0.052, 10.766]","[0.0, 0.0, 0.0]","[0.0, 0.0, 0.0]","[0.0, 0.0, 0.0]","[4.48, 0.229, 12.332]","[0.0, 0.0, 0.0]","[0.0, 0.0, 0.0]","[0.0, 0.0, 0.0]","[3.496, 1.273, 10.434]","[0.0, 0.0, 0.0]","[0.0, 0.0, 0.0]","[3.619, 1.249, 10.434]","[0.0, 0.0, 0.0]","[0.0, 0.0, 0.0]","[0.0, 0.0, 0.0]","[7.349, -1.154, 22.2435]","[0.0, 0.0, 0.0]","[14.104, -3.282, 44.926]"
150,0,Cloud Points(m),"[0.0, 0.0, 0.0]","[0.0, 0.0, 0.0]","[0.0, 0.0, 0.0]","[3.177, -0.052, 10.766]","[0.0, 0.0, 0.0]","[0.0, 0.0, 0.0]","[0.0, 0.0, 0.0]","[4.48, 0.229, 12.332]","[0.0, 0.0, 0.0]","[0.0, 0.0, 0.0]","[0.0, 0.0, 0.0]","[3.496, 1.273, 10.434]","[0.0, 0.0, 0.0]","[0.0, 0.0, 0.0]","[3.619, 1.249, 10.434]","[0.0, 0.0, 0.0]","[0.0, 0.0, 0.0]","[0.0, 0.0, 0.0]","[7.349, -1.154, 22.2435]","[0.0, 0.0, 0.0]","[14.104, -3.282, 44.926]"
151,0,Keypoints(m),"[6.595, -1.051, 20.2505]","[3.519, -0.397, 11.2115]","[3.438, -0.394, 11.119]","[0.0, 0.0, 0.0]","[0.0, 0.0, 0.0]","[4.892, -0.483, 14.601]","[3.994, -0.056, 11.595]","[4.551, 0.261, 12.446]","[3.636, 0.227, 10.8525]","[3.43, 0.225, 10.766]","[3.426, 0.845, 10.597]","[3.551, 1.293, 10.597]","[3.633, 0.225, 10.766]","[3.633, 0.757, 10.766]","[3.594, 1.249, 10.434]","[5.208, -0.886, 16.345]","[7.065, -1.117, 21.537]","[4.302, -0.711, 13.7035]","[0.0, 0.0, 0.0]","[3.735, -0.505, 11.899]","[13.614, -3.145, 43.042]"
151,0,Keypoints(image),"[564000.0, 214000.0, 706.157]","[559000.0, 221000.0, 629.148]","[557000.0, 221000.0, 383.741]","[551000.0, 234000.0, 159.09799999999998]","[556000.0, 249000.0, 155.918]","[568000.0, 222000.0, 654.046]","[572000.0, 234000.0, 626.565]","[581000.0, 245000.0, 621.194]","[568000.0, 245000.0, 321.816]","[561000.0, 245000.0, 262.90200000000004]","[563000.0, 270000.0, 532.243]","[568000.0, 288000.0, 350.54999999999995]","[569000.0, 245000.0, 388.367]","[569000.0, 266000.0, 519.948]","[572000.0, 287000.0, 372.298]","[561000.0, 213000.0, 804.8459999999999]","[565000.0, 214000.0, 565.831]","[559000.0, 214000.0, 776.246]","[566000.0, 214000.0, 93.4748]","[559000.0, 218000.0, 598.785]","[560000.0, 205000.0, 724.0569999999999]"
151,,Distance(m),0.0,0.0,0.0,0.0,0.0,0.0,0.0,0.0,0.0,0.0,0.0,0.0,0.0,0.0,0.0,0.0,0.0,0.0,0.0,0.0,0.0
151,0,Cloud Points(m),"[0.0, 0.0, 0.0]","[0.0, 0.0, 0.0]","[0.0, 0.0, 0.0]","[3.228, -0.053, 10.939]","[0.0, 0.0, 0.0]","[0.0, 0.0, 0.0]","[0.0, 0.0, 0.0]","[4.551, 0.261, 12.446]","[0.0, 0.0, 0.0]","[0.0, 0.0, 0.0]","[0.0, 0.0, 0.0]","[3.551, 1.293, 10.597]","[0.0, 0.0, 0.0]","[0.0, 0.0, 0.0]","[3.594, 1.249, 10.434]","[0.0, 0.0, 0.0]","[0.0, 0.0, 0.0]","[0.0, 0.0, 0.0]","[7.736, -1.215, 23.4155]","[0.0, 0.0, 0.0]","[13.614, -3.145, 43.042]"
151,0,Cloud Points(m),"[0.0, 0.0, 0.0]","[0.0, 0.0, 0.0]","[0.0, 0.0, 0.0]","[3.228, -0.053, 10.939]","[0.0, 0.0, 0.0]","[0.0, 0.0, 0.0]","[0.0, 0.0, 0.0]","[4.551, 0.261, 12.446]","[0.0, 0.0, 0.0]","[0.0, 0.0, 0.0]","[0.0, 0.0, 0.0]","[3.551, 1.293, 10.597]","[0.0, 0.0, 0.0]","[0.0, 0.0, 0.0]","[3.594, 1.249, 10.434]","[0.0, 0.0, 0.0]","[0.0, 0.0, 0.0]","[0.0, 0.0, 0.0]","[7.736, -1.215, 23.4155]","[0.0, 0.0, 0.0]","[13.614, -3.145, 43.042]"
151,0,Cloud Points(m),"[0.0, 0.0, 0.0]","[0.0, 0.0, 0.0]","[0.0, 0.0, 0.0]","[3.228, -0.053, 10.939]","[0.0, 0.0, 0.0]","[0.0, 0.0, 0.0]","[0.0, 0.0, 0.0]","[4.551, 0.261, 12.446]","[0.0, 0.0, 0.0]","[0.0, 0.0, 0.0]","[0.0, 0.0, 0.0]","[3.551, 1.293, 10.597]","[0.0, 0.0, 0.0]","[0.0, 0.0, 0.0]","[3.594, 1.249, 10.434]","[0.0, 0.0, 0.0]","[0.0, 0.0, 0.0]","[0.0, 0.0, 0.0]","[7.736, -1.215, 23.4155]","[0.0, 0.0, 0.0]","[13.614, -3.145, 43.042]"
151,0,Cloud Points(m),"[0.0, 0.0, 0.0]","[0.0, 0.0, 0.0]","[0.0, 0.0, 0.0]","[3.228, -0.053, 10.939]","[0.0, 0.0, 0.0]","[0.0, 0.0, 0.0]","[0.0, 0.0, 0.0]","[4.551, 0.261, 12.446]","[0.0, 0.0, 0.0]","[0.0, 0.0, 0.0]","[0.0, 0.0, 0.0]","[3.551, 1.293, 10.597]","[0.0, 0.0, 0.0]","[0.0, 0.0, 0.0]","[3.594, 1.249, 10.434]","[0.0, 0.0, 0.0]","[0.0, 0.0, 0.0]","[0.0, 0.0, 0.0]","[7.736, -1.215, 23.4155]","[0.0, 0.0, 0.0]","[13.614, -3.145, 43.042]"
151,0,Cloud Points(m),"[0.0, 0.0, 0.0]","[0.0, 0.0, 0.0]","[0.0, 0.0, 0.0]","[3.228, -0.053, 10.939]","[0.0, 0.0, 0.0]","[0.0, 0.0, 0.0]","[0.0, 0.0, 0.0]","[4.551, 0.261, 12.446]","[0.0, 0.0, 0.0]","[0.0, 0.0, 0.0]","[0.0, 0.0, 0.0]","[3.551, 1.293, 10.597]","[0.0, 0.0, 0.0]","[0.0, 0.0, 0.0]","[3.594, 1.249, 10.434]","[0.0, 0.0, 0.0]","[0.0, 0.0, 0.0]","[0.0, 0.0, 0.0]","[7.736, -1.215, 23.4155]","[0.0, 0.0, 0.0]","[13.614, -3.145, 43.042]"
151,0,Cloud Points(m),"[0.0, 0.0, 0.0]","[0.0, 0.0, 0.0]","[0.0, 0.0, 0.0]","[3.228, -0.053, 10.939]","[0.0, 0.0, 0.0]","[0.0, 0.0, 0.0]","[0.0, 0.0, 0.0]","[4.551, 0.261, 12.446]","[0.0, 0.0, 0.0]","[0.0, 0.0, 0.0]","[0.0, 0.0, 0.0]","[3.551, 1.293, 10.597]","[0.0, 0.0, 0.0]","[0.0, 0.0, 0.0]","[3.594, 1.249, 10.434]","[0.0, 0.0, 0.0]","[0.0, 0.0, 0.0]","[0.0, 0.0, 0.0]","[7.736, -1.215, 23.4155]","[0.0, 0.0, 0.0]","[13.614, -3.145, 43.042]"
151,0,Cloud Points(m),"[0.0, 0.0, 0.0]","[0.0, 0.0, 0.0]","[0.0, 0.0, 0.0]","[3.228, -0.053, 10.939]","[0.0, 0.0, 0.0]","[0.0, 0.0, 0.0]","[0.0, 0.0, 0.0]","[4.551, 0.261, 12.446]","[0.0, 0.0, 0.0]","[0.0, 0.0, 0.0]","[0.0, 0.0, 0.0]","[3.551, 1.293, 10.597]","[0.0, 0.0, 0.0]","[0.0, 0.0, 0.0]","[3.594, 1.249, 10.434]","[0.0, 0.0, 0.0]","[0.0, 0.0, 0.0]","[0.0, 0.0, 0.0]","[7.736, -1.215, 23.4155]","[0.0, 0.0, 0.0]","[13.614, -3.145, 43.042]"
151,0,Cloud Points(m),"[0.0, 0.0, 0.0]","[0.0, 0.0, 0.0]","[0.0, 0.0, 0.0]","[3.228, -0.053, 10.939]","[0.0, 0.0, 0.0]","[0.0, 0.0, 0.0]","[0.0, 0.0, 0.0]","[4.551, 0.261, 12.446]","[0.0, 0.0, 0.0]","[0.0, 0.0, 0.0]","[0.0, 0.0, 0.0]","[3.551, 1.293, 10.597]","[0.0, 0.0, 0.0]","[0.0, 0.0, 0.0]","[3.594, 1.249, 10.434]","[0.0, 0.0, 0.0]","[0.0, 0.0, 0.0]","[0.0, 0.0, 0.0]","[7.736, -1.215, 23.4155]","[0.0, 0.0, 0.0]","[13.614, -3.145, 43.042]"
151,0,Cloud Points(m),"[0.0, 0.0, 0.0]","[0.0, 0.0, 0.0]","[0.0, 0.0, 0.0]","[3.228, -0.053, 10.939]","[0.0, 0.0, 0.0]","[0.0, 0.0, 0.0]","[0.0, 0.0, 0.0]","[4.551, 0.261, 12.446]","[0.0, 0.0, 0.0]","[0.0, 0.0, 0.0]","[0.0, 0.0, 0.0]","[3.551, 1.293, 10.597]","[0.0, 0.0, 0.0]","[0.0, 0.0, 0.0]","[3.594, 1.249, 10.434]","[0.0, 0.0, 0.0]","[0.0, 0.0, 0.0]","[0.0, 0.0, 0.0]","[7.736, -1.215, 23.4155]","[0.0, 0.0, 0.0]","[13.614, -3.145, 43.042]"
151,0,Cloud Points(m),"[0.0, 0.0, 0.0]","[0.0, 0.0, 0.0]","[0.0, 0.0, 0.0]","[3.228, -0.053, 10.939]","[0.0, 0.0, 0.0]","[0.0, 0.0, 0.0]","[0.0, 0.0, 0.0]","[4.551, 0.261, 12.446]","[0.0, 0.0, 0.0]","[0.0, 0.0, 0.0]","[0.0, 0.0, 0.0]","[3.551, 1.293, 10.597]","[0.0, 0.0, 0.0]","[0.0, 0.0, 0.0]","[3.594, 1.249, 10.434]","[0.0, 0.0, 0.0]","[0.0, 0.0, 0.0]","[0.0, 0.0, 0.0]","[7.736, -1.215, 23.4155]","[0.0, 0.0, 0.0]","[13.614, -3.145, 43.042]"
151,0,Cloud Points(m),"[0.0, 0.0, 0.0]","[0.0, 0.0, 0.0]","[0.0, 0.0, 0.0]","[3.228, -0.053, 10.939]","[0.0, 0.0, 0.0]","[0.0, 0.0, 0.0]","[0.0, 0.0, 0.0]","[4.551, 0.261, 12.446]","[0.0, 0.0, 0.0]","[0.0, 0.0, 0.0]","[0.0, 0.0, 0.0]","[3.551, 1.293, 10.597]","[0.0, 0.0, 0.0]","[0.0, 0.0, 0.0]","[3.594, 1.249, 10.434]","[0.0, 0.0, 0.0]","[0.0, 0.0, 0.0]","[0.0, 0.0, 0.0]","[7.736, -1.215, 23.4155]","[0.0, 0.0, 0.0]","[13.614, -3.145, 43.042]"
151,0,Cloud Points(m),"[0.0, 0.0, 0.0]","[0.0, 0.0, 0.0]","[0.0, 0.0, 0.0]","[3.228, -0.053, 10.939]","[0.0, 0.0, 0.0]","[0.0, 0.0, 0.0]","[0.0, 0.0, 0.0]","[4.551, 0.261, 12.446]","[0.0, 0.0, 0.0]","[0.0, 0.0, 0.0]","[0.0, 0.0, 0.0]","[3.551, 1.293, 10.597]","[0.0, 0.0, 0.0]","[0.0, 0.0, 0.0]","[3.594, 1.249, 10.434]","[0.0, 0.0, 0.0]","[0.0, 0.0, 0.0]","[0.0, 0.0, 0.0]","[7.736, -1.215, 23.4155]","[0.0, 0.0, 0.0]","[13.614, -3.145, 43.042]"
151,0,Cloud Points(m),"[0.0, 0.0, 0.0]","[0.0, 0.0, 0.0]","[0.0, 0.0, 0.0]","[3.228, -0.053, 10.939]","[0.0, 0.0, 0.0]","[0.0, 0.0, 0.0]","[0.0, 0.0, 0.0]","[4.551, 0.261, 12.446]","[0.0, 0.0, 0.0]","[0.0, 0.0, 0.0]","[0.0, 0.0, 0.0]","[3.551, 1.293, 10.597]","[0.0, 0.0, 0.0]","[0.0, 0.0, 0.0]","[3.594, 1.249, 10.434]","[0.0, 0.0, 0.0]","[0.0, 0.0, 0.0]","[0.0, 0.0, 0.0]","[7.736, -1.215, 23.4155]","[0.0, 0.0, 0.0]","[13.614, -3.145, 43.042]"
151,0,Cloud Points(m),"[0.0, 0.0, 0.0]","[0.0, 0.0, 0.0]","[0.0, 0.0, 0.0]","[3.228, -0.053, 10.939]","[0.0, 0.0, 0.0]","[0.0, 0.0, 0.0]","[0.0, 0.0, 0.0]","[4.551, 0.261, 12.446]","[0.0, 0.0, 0.0]","[0.0, 0.0, 0.0]","[0.0, 0.0, 0.0]","[3.551, 1.293, 10.597]","[0.0, 0.0, 0.0]","[0.0, 0.0, 0.0]","[3.594, 1.249, 10.434]","[0.0, 0.0, 0.0]","[0.0, 0.0, 0.0]","[0.0, 0.0, 0.0]","[7.736, -1.215, 23.4155]","[0.0, 0.0, 0.0]","[13.614, -3.145, 43.042]"
151,0,Cloud Points(m),"[0.0, 0.0, 0.0]","[0.0, 0.0, 0.0]","[0.0, 0.0, 0.0]","[3.228, -0.053, 10.939]","[0.0, 0.0, 0.0]","[0.0, 0.0, 0.0]","[0.0, 0.0, 0.0]","[4.551, 0.261, 12.446]","[0.0, 0.0, 0.0]","[0.0, 0.0, 0.0]","[0.0, 0.0, 0.0]","[3.551, 1.293, 10.597]","[0.0, 0.0, 0.0]","[0.0, 0.0, 0.0]","[3.594, 1.249, 10.434]","[0.0, 0.0, 0.0]","[0.0, 0.0, 0.0]","[0.0, 0.0, 0.0]","[7.736, -1.215, 23.4155]","[0.0, 0.0, 0.0]","[13.614, -3.145, 43.042]"
152,0,Keypoints(m),"[5.738, -0.914, 17.6195]","[3.407, -0.384, 10.8525]","[3.356, -0.384, 10.8525]","[0.0, 0.0, 0.0]","[0.0, 0.0, 0.0]","[4.456, -0.44, 13.299]","[3.83, -0.054, 11.119]","[4.323, 0.249, 11.899]","[3.607, 0.276, 10.766]","[3.376, 0.222, 10.597]","[3.426, 0.87, 10.597]","[3.551, 1.293, 10.597]","[3.633, 0.225, 10.766]","[3.662, 0.763, 10.8525]","[3.567, 1.239, 10.355]","[4.698, -0.8, 14.744]","[6.268, -0.991, 19.109]","[3.983, -0.658, 12.6875]","[0.0, 0.0, 0.0]","[3.49, -0.472, 11.119]","[15.248, -3.522, 48.208]"
152,0,Keypoints(image),"[564000.0, 214000.0, 717.932]","[559000.0, 221000.0, 644.761]","[557000.0, 221000.0, 393.414]","[551000.0, 234000.0, 167.13400000000001]","[556000.0, 249000.0, 164.76399999999998]","[568000.0, 222000.0, 668.833]","[572000.0, 234000.0, 643.306]","[580000.0, 245000.0, 636.664]","[568000.0, 247000.0, 353.704]","[561000.0, 245000.0, 283.472]","[563000.0, 271000.0, 560.035]","[568000.0, 288000.0, 372.70799999999997]","[569000.0, 245000.0, 428.74899999999997]","[569000.0, 266000.0, 535.394]","[572000.0, 287000.0, 406.109]","[561000.0, 213000.0, 820.226]","[565000.0, 214000.0, 578.92]","[559000.0, 214000.0, 788.177]","[566000.0, 214000.0, 92.5064]","[559000.0, 218000.0, 613.3499999999999]","[560000.0, 205000.0, 731.169]"
152,,Distance(m),0.0,0.0,0.0,0.0,0.0,0.0,0.0,0.0,0.0,0.0,0.0,0.0,0.0,0.0,0.0,0.0,0.0,0.0,0.0,0.0,0.0
152,0,Cloud Points(m),"[0.0, 0.0, 0.0]","[0.0, 0.0, 0.0]","[0.0, 0.0, 0.0]","[3.177, -0.052, 10.766]","[0.0, 0.0, 0.0]","[0.0, 0.0, 0.0]","[0.0, 0.0, 0.0]","[4.323, 0.249, 11.899]","[0.0, 0.0, 0.0]","[0.0, 0.0, 0.0]","[0.0, 0.0, 0.0]","[3.551, 1.293, 10.597]","[0.0, 0.0, 0.0]","[0.0, 0.0, 0.0]","[3.567, 1.239, 10.355]","[0.0, 0.0, 0.0]","[0.0, 0.0, 0.0]","[0.0, 0.0, 0.0]","[6.896, -1.083, 20.874]","[0.0, 0.0, 0.0]","[15.248, -3.522, 48.208]"
152,0,Cloud Points(m),"[0.0, 0.0, 0.0]","[0.0, 0.0, 0.0]","[0.0, 0.0, 0.0]","[3.177, -0.052, 10.766]","[0.0, 0.0, 0.0]","[0.0, 0.0, 0.0]","[0.0, 0.0, 0.0]","[4.323, 0.249, 11.899]","[0.0, 0.0, 0.0]","[0.0, 0.0, 0.0]","[0.0, 0.0, 0.0]","[3.551, 1.293, 10.597]","[0.0, 0.0, 0.0]","[0.0, 0.0, 0.0]","[3.567, 1.239, 10.355]","[0.0, 0.0, 0.0]","[0.0, 0.0, 0.0]","[0.0, 0.0, 0.0]","[6.896, -1.083, 20.874]","[0.0, 0.0, 0.0]","[15.248, -3.522, 48.208]"
152,0,Cloud Points(m),"[0.0, 0.0, 0.0]","[0.0, 0.0, 0.0]","[0.0, 0.0, 0.0]","[3.177, -0.052, 10.766]","[0.0, 0.0, 0.0]","[0.0, 0.0, 0.0]","[0.0, 0.0, 0.0]","[4.323, 0.249, 11.899]","[0.0, 0.0, 0.0]","[0.0, 0.0, 0.0]","[0.0, 0.0, 0.0]","[3.551, 1.293, 10.597]","[0.0, 0.0, 0.0]","[0.0, 0.0, 0.0]","[3.567, 1.239, 10.355]","[0.0, 0.0, 0.0]","[0.0, 0.0, 0.0]","[0.0, 0.0, 0.0]","[6.896, -1.083, 20.874]","[0.0, 0.0, 0.0]","[15.248, -3.522, 48.208]"
152,0,Cloud Points(m),"[0.0, 0.0, 0.0]","[0.0, 0.0, 0.0]","[0.0, 0.0, 0.0]","[3.177, -0.052, 10.766]","[0.0, 0.0, 0.0]","[0.0, 0.0, 0.0]","[0.0, 0.0, 0.0]","[4.323, 0.249, 11.899]","[0.0, 0.0, 0.0]","[0.0, 0.0, 0.0]","[0.0, 0.0, 0.0]","[3.551, 1.293, 10.597]","[0.0, 0.0, 0.0]","[0.0, 0.0, 0.0]","[3.567, 1.239, 10.355]","[0.0, 0.0, 0.0]","[0.0, 0.0, 0.0]","[0.0, 0.0, 0.0]","[6.896, -1.083, 20.874]","[0.0, 0.0, 0.0]","[15.248, -3.522, 48.208]"
152,0,Cloud Points(m),"[0.0, 0.0, 0.0]","[0.0, 0.0, 0.0]","[0.0, 0.0, 0.0]","[3.177, -0.052, 10.766]","[0.0, 0.0, 0.0]","[0.0, 0.0, 0.0]","[0.0, 0.0, 0.0]","[4.323, 0.249, 11.899]","[0.0, 0.0, 0.0]","[0.0, 0.0, 0.0]","[0.0, 0.0, 0.0]","[3.551, 1.293, 10.597]","[0.0, 0.0, 0.0]","[0.0, 0.0, 0.0]","[3.567, 1.239, 10.355]","[0.0, 0.0, 0.0]","[0.0, 0.0, 0.0]","[0.0, 0.0, 0.0]","[6.896, -1.083, 20.874]","[0.0, 0.0, 0.0]","[15.248, -3.522, 48.208]"
152,0,Cloud Points(m),"[0.0, 0.0, 0.0]","[0.0, 0.0, 0.0]","[0.0, 0.0, 0.0]","[3.177, -0.052, 10.766]","[0.0, 0.0, 0.0]","[0.0, 0.0, 0.0]","[0.0, 0.0, 0.0]","[4.323, 0.249, 11.899]","[0.0, 0.0, 0.0]","[0.0, 0.0, 0.0]","[0.0, 0.0, 0.0]","[3.551, 1.293, 10.597]","[0.0, 0.0, 0.0]","[0.0, 0.0, 0.0]","[3.567, 1.239, 10.355]","[0.0, 0.0, 0.0]","[0.0, 0.0, 0.0]","[0.0, 0.0, 0.0]","[6.896, -1.083, 20.874]","[0.0, 0.0, 0.0]","[15.248, -3.522, 48.208]"
152,0,Cloud Points(m),"[0.0, 0.0, 0.0]","[0.0, 0.0, 0.0]","[0.0, 0.0, 0.0]","[3.177, -0.052, 10.766]","[0.0, 0.0, 0.0]","[0.0, 0.0, 0.0]","[0.0, 0.0, 0.0]","[4.323, 0.249, 11.899]","[0.0, 0.0, 0.0]","[0.0, 0.0, 0.0]","[0.0, 0.0, 0.0]","[3.551, 1.293, 10.597]","[0.0, 0.0, 0.0]","[0.0, 0.0, 0.0]","[3.567, 1.239, 10.355]","[0.0, 0.0, 0.0]","[0.0, 0.0, 0.0]","[0.0, 0.0, 0.0]","[6.896, -1.083, 20.874]","[0.0, 0.0, 0.0]","[15.248, -3.522, 48.208]"
152,0,Cloud Points(m),"[0.0, 0.0, 0.0]","[0.0, 0.0, 0.0]","[0.0, 0.0, 0.0]","[3.177, -0.052, 10.766]","[0.0, 0.0, 0.0]","[0.0, 0.0, 0.0]","[0.0, 0.0, 0.0]","[4.323, 0.249, 11.899]","[0.0, 0.0, 0.0]","[0.0, 0.0, 0.0]","[0.0, 0.0, 0.0]","[3.551, 1.293, 10.597]","[0.0, 0.0, 0.0]","[0.0, 0.0, 0.0]","[3.567, 1.239, 10.355]","[0.0, 0.0, 0.0]","[0.0, 0.0, 0.0]","[0.0, 0.0, 0.0]","[6.896, -1.083, 20.874]","[0.0, 0.0, 0.0]","[15.248, -3.522, 48.208]"
152,0,Cloud Points(m),"[0.0, 0.0, 0.0]","[0.0, 0.0, 0.0]","[0.0, 0.0, 0.0]","[3.177, -0.052, 10.766]","[0.0, 0.0, 0.0]","[0.0, 0.0, 0.0]","[0.0, 0.0, 0.0]","[4.323, 0.249, 11.899]","[0.0, 0.0, 0.0]","[0.0, 0.0, 0.0]","[0.0, 0.0, 0.0]","[3.551, 1.293, 10.597]","[0.0, 0.0, 0.0]","[0.0, 0.0, 0.0]","[3.567, 1.239, 10.355]","[0.0, 0.0, 0.0]","[0.0, 0.0, 0.0]","[0.0, 0.0, 0.0]","[6.896, -1.083, 20.874]","[0.0, 0.0, 0.0]","[15.248, -3.522, 48.208]"
152,0,Cloud Points(m),"[0.0, 0.0, 0.0]","[0.0, 0.0, 0.0]","[0.0, 0.0, 0.0]","[3.177, -0.052, 10.766]","[0.0, 0.0, 0.0]","[0.0, 0.0, 0.0]","[0.0, 0.0, 0.0]","[4.323, 0.249, 11.899]","[0.0, 0.0, 0.0]","[0.0, 0.0, 0.0]","[0.0, 0.0, 0.0]","[3.551, 1.293, 10.597]","[0.0, 0.0, 0.0]","[0.0, 0.0, 0.0]","[3.567, 1.239, 10.355]","[0.0, 0.0, 0.0]","[0.0, 0.0, 0.0]","[0.0, 0.0, 0.0]","[6.896, -1.083, 20.874]","[0.0, 0.0, 0.0]","[15.248, -3.522, 48.208]"
152,0,Cloud Points(m),"[0.0, 0.0, 0.0]","[0.0, 0.0, 0.0]","[0.0, 0.0, 0.0]","[3.177, -0.052, 10.766]","[0.0, 0.0, 0.0]","[0.0, 0.0, 0.0]","[0.0, 0.0, 0.0]","[4.323, 0.249, 11.899]","[0.0, 0.0, 0.0]","[0.0, 0.0, 0.0]","[0.0, 0.0, 0.0]","[3.551, 1.293, 10.597]","[0.0, 0.0, 0.0]","[0.0, 0.0, 0.0]","[3.567, 1.239, 10.355]","[0.0, 0.0, 0.0]","[0.0, 0.0, 0.0]","[0.0, 0.0, 0.0]","[6.896, -1.083, 20.874]","[0.0, 0.0, 0.0]","[15.248, -3.522, 48.208]"
152,0,Cloud Points(m),"[0.0, 0.0, 0.0]","[0.0, 0.0, 0.0]","[0.0, 0.0, 0.0]","[3.177, -0.052, 10.766]","[0.0, 0.0, 0.0]","[0.0, 0.0, 0.0]","[0.0, 0.0, 0.0]","[4.323, 0.249, 11.899]","[0.0, 0.0, 0.0]","[0.0, 0.0, 0.0]","[0.0, 0.0, 0.0]","[3.551, 1.293, 10.597]","[0.0, 0.0, 0.0]","[0.0, 0.0, 0.0]","[3.567, 1.239, 10.355]","[0.0, 0.0, 0.0]","[0.0, 0.0, 0.0]","[0.0, 0.0, 0.0]","[6.896, -1.083, 20.874]","[0.0, 0.0, 0.0]","[15.248, -3.522, 48.208]"
152,0,Cloud Points(m),"[0.0, 0.0, 0.0]","[0.0, 0.0, 0.0]","[0.0, 0.0, 0.0]","[3.177, -0.052, 10.766]","[0.0, 0.0, 0.0]","[0.0, 0.0, 0.0]","[0.0, 0.0, 0.0]","[4.323, 0.249, 11.899]","[0.0, 0.0, 0.0]","[0.0, 0.0, 0.0]","[0.0, 0.0, 0.0]","[3.551, 1.293, 10.597]","[0.0, 0.0, 0.0]","[0.0, 0.0, 0.0]","[3.567, 1.239, 10.355]","[0.0, 0.0, 0.0]","[0.0, 0.0, 0.0]","[0.0, 0.0, 0.0]","[6.896, -1.083, 20.874]","[0.0, 0.0, 0.0]","[15.248, -3.522, 48.208]"
152,0,Cloud Points(m),"[0.0, 0.0, 0.0]","[0.0, 0.0, 0.0]","[0.0, 0.0, 0.0]","[3.177, -0.052, 10.766]","[0.0, 0.0, 0.0]","[0.0, 0.0, 0.0]","[0.0, 0.0, 0.0]","[4.323, 0.249, 11.899]","[0.0, 0.0, 0.0]","[0.0, 0.0, 0.0]","[0.0, 0.0, 0.0]","[3.551, 1.293, 10.597]","[0.0, 0.0, 0.0]","[0.0, 0.0, 0.0]","[3.567, 1.239, 10.355]","[0.0, 0.0, 0.0]","[0.0, 0.0, 0.0]","[0.0, 0.0, 0.0]","[6.896, -1.083, 20.874]","[0.0, 0.0, 0.0]","[15.248, -3.522, 48.208]"
152,0,Cloud Points(m),"[0.0, 0.0, 0.0]","[0.0, 0.0, 0.0]","[0.0, 0.0, 0.0]","[3.177, -0.052, 10.766]","[0.0, 0.0, 0.0]","[0.0, 0.0, 0.0]","[0.0, 0.0, 0.0]","[4.323, 0.249, 11.899]","[0.0, 0.0, 0.0]","[0.0, 0.0, 0.0]","[0.0, 0.0, 0.0]","[3.551, 1.293, 10.597]","[0.0, 0.0, 0.0]","[0.0, 0.0, 0.0]","[3.567, 1.239, 10.355]","[0.0, 0.0, 0.0]","[0.0, 0.0, 0.0]","[0.0, 0.0, 0.0]","[6.896, -1.083, 20.874]","[0.0, 0.0, 0.0]","[15.248, -3.522, 48.208]"
152,0,Cloud Points(m),"[0.0, 0.0, 0.0]","[0.0, 0.0, 0.0]","[0.0, 0.0, 0.0]","[3.177, -0.052, 10.766]","[0.0, 0.0, 0.0]","[0.0, 0.0, 0.0]","[0.0, 0.0, 0.0]","[4.323, 0.249, 11.899]","[0.0, 0.0, 0.0]","[0.0, 0.0, 0.0]","[0.0, 0.0, 0.0]","[3.551, 1.293, 10.597]","[0.0, 0.0, 0.0]","[0.0, 0.0, 0.0]","[3.567, 1.239, 10.355]","[0.0, 0.0, 0.0]","[0.0, 0.0, 0.0]","[0.0, 0.0, 0.0]","[6.896, -1.083, 20.874]","[0.0, 0.0, 0.0]","[15.248, -3.522, 48.208]"
153,0,Keypoints(m),"[5.738, -0.914, 17.6195]","[3.407, -0.384, 10.8525]","[3.356, -0.384, 10.8525]","[0.0, 0.0, 0.0]","[3.252, 0.321, 10.597]","[4.686, -0.495, 13.986]","[3.83, -0.054, 11.119]","[4.323, 0.249, 11.899]","[3.607, 0.225, 10.766]","[3.376, 0.222, 10.597]","[3.504, 0.877, 10.6815]","[3.551, 1.368, 10.597]","[3.633, 0.225, 10.766]","[3.662, 0.763, 10.8525]","[3.518, 1.239, 10.355]","[4.698, -0.8, 14.744]","[6.896, -1.083, 20.874]","[3.983, -0.658, 12.6875]","[0.0, 0.0, 0.0]","[3.49, -0.472, 11.119]","[15.248, -3.522, 48.208]"
153,0,Keypoints(image),"[564000.0, 214000.0, 735.49]","[559000.0, 221000.0, 670.5060000000001]","[557000.0, 221000.0, 433.32399999999996]","[552000.0, 234000.0, 187.994]","[556000.0, 249000.0, 270.687]","[568000.0, 221000.0, 684.5250000000001]","[572000.0, 234000.0, 643.3149999999999]","[580000.0, 245000.0, 628.818]","[568000.0, 245000.0, 454.33099999999996]","[561000.0, 245000.0, 378.75399999999996]","[565000.0, 271000.0, 627.757]","[568000.0, 291000.0, 385.428]","[569000.0, 245000.0, 506.53400000000005]","[569000.0, 266000.0, 581.333]","[570000.0, 287000.0, 439.962]","[561000.0, 213000.0, 826.514]","[566000.0, 214000.0, 579.1089999999999]","[559000.0, 214000.0, 790.923]","[566000.0, 214000.0, 96.4902]","[559000.0, 218000.0, 638.6519999999999]","[560000.0, 205000.0, 736.054]"
153,,Distance(m),0.0,0.0,0.0,0.0,0.0,0.0,0.0,0.0,0.0,0.0,0.0,0.0,0.0,0.0,0.0,0.0,0.0,0.0,0.0,0.0,0.0
153,0,Cloud Points(m),"[0.0, 0.0, 0.0]","[0.0, 0.0, 0.0]","[0.0, 0.0, 0.0]","[3.202, -0.052, 10.766]","[3.252, 0.321, 10.597]","[0.0, 0.0, 0.0]","[0.0, 0.0, 0.0]","[4.323, 0.249, 11.899]","[0.0, 0.0, 0.0]","[0.0, 0.0, 0.0]","[0.0, 0.0, 0.0]","[3.551, 1.368, 10.597]","[0.0, 0.0, 0.0]","[0.0, 0.0, 0.0]","[3.518, 1.239, 10.355]","[0.0, 0.0, 0.0]","[0.0, 0.0, 0.0]","[0.0, 0.0, 0.0]","[6.896, -1.083, 20.874]","[0.0, 0.0, 0.0]","[15.248, -3.522, 48.208]"
153,0,Cloud Points(m),"[0.0, 0.0, 0.0]","[0.0, 0.0, 0.0]","[0.0, 0.0, 0.0]","[3.202, -0.052, 10.766]","[3.252, 0.321, 10.597]","[0.0, 0.0, 0.0]","[0.0, 0.0, 0.0]","[4.323, 0.249, 11.899]","[0.0, 0.0, 0.0]","[0.0, 0.0, 0.0]","[0.0, 0.0, 0.0]","[3.551, 1.368, 10.597]","[0.0, 0.0, 0.0]","[0.0, 0.0, 0.0]","[3.518, 1.239, 10.355]","[0.0, 0.0, 0.0]","[0.0, 0.0, 0.0]","[0.0, 0.0, 0.0]","[6.896, -1.083, 20.874]","[0.0, 0.0, 0.0]","[15.248, -3.522, 48.208]"
153,0,Cloud Points(m),"[0.0, 0.0, 0.0]","[0.0, 0.0, 0.0]","[0.0, 0.0, 0.0]","[3.202, -0.052, 10.766]","[3.252, 0.321, 10.597]","[0.0, 0.0, 0.0]","[0.0, 0.0, 0.0]","[4.323, 0.249, 11.899]","[0.0, 0.0, 0.0]","[0.0, 0.0, 0.0]","[0.0, 0.0, 0.0]","[3.551, 1.368, 10.597]","[0.0, 0.0, 0.0]","[0.0, 0.0, 0.0]","[3.518, 1.239, 10.355]","[0.0, 0.0, 0.0]","[0.0, 0.0, 0.0]","[0.0, 0.0, 0.0]","[6.896, -1.083, 20.874]","[0.0, 0.0, 0.0]","[15.248, -3.522, 48.208]"
153,0,Cloud Points(m),"[0.0, 0.0, 0.0]","[0.0, 0.0, 0.0]","[0.0, 0.0, 0.0]","[3.202, -0.052, 10.766]","[3.252, 0.321, 10.597]","[0.0, 0.0, 0.0]","[0.0, 0.0, 0.0]","[4.323, 0.249, 11.899]","[0.0, 0.0, 0.0]","[0.0, 0.0, 0.0]","[0.0, 0.0, 0.0]","[3.551, 1.368, 10.597]","[0.0, 0.0, 0.0]","[0.0, 0.0, 0.0]","[3.518, 1.239, 10.355]","[0.0, 0.0, 0.0]","[0.0, 0.0, 0.0]","[0.0, 0.0, 0.0]","[6.896, -1.083, 20.874]","[0.0, 0.0, 0.0]","[15.248, -3.522, 48.208]"
153,0,Cloud Points(m),"[0.0, 0.0, 0.0]","[0.0, 0.0, 0.0]","[0.0, 0.0, 0.0]","[3.202, -0.052, 10.766]","[3.252, 0.321, 10.597]","[0.0, 0.0, 0.0]","[0.0, 0.0, 0.0]","[4.323, 0.249, 11.899]","[0.0, 0.0, 0.0]","[0.0, 0.0, 0.0]","[0.0, 0.0, 0.0]","[3.551, 1.368, 10.597]","[0.0, 0.0, 0.0]","[0.0, 0.0, 0.0]","[3.518, 1.239, 10.355]","[0.0, 0.0, 0.0]","[0.0, 0.0, 0.0]","[0.0, 0.0, 0.0]","[6.896, -1.083, 20.874]","[0.0, 0.0, 0.0]","[15.248, -3.522, 48.208]"
153,0,Cloud Points(m),"[0.0, 0.0, 0.0]","[0.0, 0.0, 0.0]","[0.0, 0.0, 0.0]","[3.202, -0.052, 10.766]","[3.252, 0.321, 10.597]","[0.0, 0.0, 0.0]","[0.0, 0.0, 0.0]","[4.323, 0.249, 11.899]","[0.0, 0.0, 0.0]","[0.0, 0.0, 0.0]","[0.0, 0.0, 0.0]","[3.551, 1.368, 10.597]","[0.0, 0.0, 0.0]","[0.0, 0.0, 0.0]","[3.518, 1.239, 10.355]","[0.0, 0.0, 0.0]","[0.0, 0.0, 0.0]","[0.0, 0.0, 0.0]","[6.896, -1.083, 20.874]","[0.0, 0.0, 0.0]","[15.248, -3.522, 48.208]"
153,0,Cloud Points(m),"[0.0, 0.0, 0.0]","[0.0, 0.0, 0.0]","[0.0, 0.0, 0.0]","[3.202, -0.052, 10.766]","[3.252, 0.321, 10.597]","[0.0, 0.0, 0.0]","[0.0, 0.0, 0.0]","[4.323, 0.249, 11.899]","[0.0, 0.0, 0.0]","[0.0, 0.0, 0.0]","[0.0, 0.0, 0.0]","[3.551, 1.368, 10.597]","[0.0, 0.0, 0.0]","[0.0, 0.0, 0.0]","[3.518, 1.239, 10.355]","[0.0, 0.0, 0.0]","[0.0, 0.0, 0.0]","[0.0, 0.0, 0.0]","[6.896, -1.083, 20.874]","[0.0, 0.0, 0.0]","[15.248, -3.522, 48.208]"
153,0,Cloud Points(m),"[0.0, 0.0, 0.0]","[0.0, 0.0, 0.0]","[0.0, 0.0, 0.0]","[3.202, -0.052, 10.766]","[3.252, 0.321, 10.597]","[0.0, 0.0, 0.0]","[0.0, 0.0, 0.0]","[4.323, 0.249, 11.899]","[0.0, 0.0, 0.0]","[0.0, 0.0, 0.0]","[0.0, 0.0, 0.0]","[3.551, 1.368, 10.597]","[0.0, 0.0, 0.0]","[0.0, 0.0, 0.0]","[3.518, 1.239, 10.355]","[0.0, 0.0, 0.0]","[0.0, 0.0, 0.0]","[0.0, 0.0, 0.0]","[6.896, -1.083, 20.874]","[0.0, 0.0, 0.0]","[15.248, -3.522, 48.208]"
153,0,Cloud Points(m),"[0.0, 0.0, 0.0]","[0.0, 0.0, 0.0]","[0.0, 0.0, 0.0]","[3.202, -0.052, 10.766]","[3.252, 0.321, 10.597]","[0.0, 0.0, 0.0]","[0.0, 0.0, 0.0]","[4.323, 0.249, 11.899]","[0.0, 0.0, 0.0]","[0.0, 0.0, 0.0]","[0.0, 0.0, 0.0]","[3.551, 1.368, 10.597]","[0.0, 0.0, 0.0]","[0.0, 0.0, 0.0]","[3.518, 1.239, 10.355]","[0.0, 0.0, 0.0]","[0.0, 0.0, 0.0]","[0.0, 0.0, 0.0]","[6.896, -1.083, 20.874]","[0.0, 0.0, 0.0]","[15.248, -3.522, 48.208]"
153,0,Cloud Points(m),"[0.0, 0.0, 0.0]","[0.0, 0.0, 0.0]","[0.0, 0.0, 0.0]","[3.202, -0.052, 10.766]","[3.252, 0.321, 10.597]","[0.0, 0.0, 0.0]","[0.0, 0.0, 0.0]","[4.323, 0.249, 11.899]","[0.0, 0.0, 0.0]","[0.0, 0.0, 0.0]","[0.0, 0.0, 0.0]","[3.551, 1.368, 10.597]","[0.0, 0.0, 0.0]","[0.0, 0.0, 0.0]","[3.518, 1.239, 10.355]","[0.0, 0.0, 0.0]","[0.0, 0.0, 0.0]","[0.0, 0.0, 0.0]","[6.896, -1.083, 20.874]","[0.0, 0.0, 0.0]","[15.248, -3.522, 48.208]"
153,0,Cloud Points(m),"[0.0, 0.0, 0.0]","[0.0, 0.0, 0.0]","[0.0, 0.0, 0.0]","[3.202, -0.052, 10.766]","[3.252, 0.321, 10.597]","[0.0, 0.0, 0.0]","[0.0, 0.0, 0.0]","[4.323, 0.249, 11.899]","[0.0, 0.0, 0.0]","[0.0, 0.0, 0.0]","[0.0, 0.0, 0.0]","[3.551, 1.368, 10.597]","[0.0, 0.0, 0.0]","[0.0, 0.0, 0.0]","[3.518, 1.239, 10.355]","[0.0, 0.0, 0.0]","[0.0, 0.0, 0.0]","[0.0, 0.0, 0.0]","[6.896, -1.083, 20.874]","[0.0, 0.0, 0.0]","[15.248, -3.522, 48.208]"
153,0,Cloud Points(m),"[0.0, 0.0, 0.0]","[0.0, 0.0, 0.0]","[0.0, 0.0, 0.0]","[3.202, -0.052, 10.766]","[3.252, 0.321, 10.597]","[0.0, 0.0, 0.0]","[0.0, 0.0, 0.0]","[4.323, 0.249, 11.899]","[0.0, 0.0, 0.0]","[0.0, 0.0, 0.0]","[0.0, 0.0, 0.0]","[3.551, 1.368, 10.597]","[0.0, 0.0, 0.0]","[0.0, 0.0, 0.0]","[3.518, 1.239, 10.355]","[0.0, 0.0, 0.0]","[0.0, 0.0, 0.0]","[0.0, 0.0, 0.0]","[6.896, -1.083, 20.874]","[0.0, 0.0, 0.0]","[15.248, -3.522, 48.208]"
153,0,Cloud Points(m),"[0.0, 0.0, 0.0]","[0.0, 0.0, 0.0]","[0.0, 0.0, 0.0]","[3.202, -0.052, 10.766]","[3.252, 0.321, 10.597]","[0.0, 0.0, 0.0]","[0.0, 0.0, 0.0]","[4.323, 0.249, 11.899]","[0.0, 0.0, 0.0]","[0.0, 0.0, 0.0]","[0.0, 0.0, 0.0]","[3.551, 1.368, 10.597]","[0.0, 0.0, 0.0]","[0.0, 0.0, 0.0]","[3.518, 1.239, 10.355]","[0.0, 0.0, 0.0]","[0.0, 0.0, 0.0]","[0.0, 0.0, 0.0]","[6.896, -1.083, 20.874]","[0.0, 0.0, 0.0]","[15.248, -3.522, 48.208]"
153,0,Cloud Points(m),"[0.0, 0.0, 0.0]","[0.0, 0.0, 0.0]","[0.0, 0.0, 0.0]","[3.202, -0.052, 10.766]","[3.252, 0.321, 10.597]","[0.0, 0.0, 0.0]","[0.0, 0.0, 0.0]","[4.323, 0.249, 11.899]","[0.0, 0.0, 0.0]","[0.0, 0.0, 0.0]","[0.0, 0.0, 0.0]","[3.551, 1.368, 10.597]","[0.0, 0.0, 0.0]","[0.0, 0.0, 0.0]","[3.518, 1.239, 10.355]","[0.0, 0.0, 0.0]","[0.0, 0.0, 0.0]","[0.0, 0.0, 0.0]","[6.896, -1.083, 20.874]","[0.0, 0.0, 0.0]","[15.248, -3.522, 48.208]"
153,0,Cloud Points(m),"[0.0, 0.0, 0.0]","[0.0, 0.0, 0.0]","[0.0, 0.0, 0.0]","[3.202, -0.052, 10.766]","[3.252, 0.321, 10.597]","[0.0, 0.0, 0.0]","[0.0, 0.0, 0.0]","[4.323, 0.249, 11.899]","[0.0, 0.0, 0.0]","[0.0, 0.0, 0.0]","[0.0, 0.0, 0.0]","[3.551, 1.368, 10.597]","[0.0, 0.0, 0.0]","[0.0, 0.0, 0.0]","[3.518, 1.239, 10.355]","[0.0, 0.0, 0.0]","[0.0, 0.0, 0.0]","[0.0, 0.0, 0.0]","[6.896, -1.083, 20.874]","[0.0, 0.0, 0.0]","[15.248, -3.522, 48.208]"
153,0,Cloud Points(m),"[0.0, 0.0, 0.0]","[0.0, 0.0, 0.0]","[0.0, 0.0, 0.0]","[3.202, -0.052, 10.766]","[3.252, 0.321, 10.597]","[0.0, 0.0, 0.0]","[0.0, 0.0, 0.0]","[4.323, 0.249, 11.899]","[0.0, 0.0, 0.0]","[0.0, 0.0, 0.0]","[0.0, 0.0, 0.0]","[3.551, 1.368, 10.597]","[0.0, 0.0, 0.0]","[0.0, 0.0, 0.0]","[3.518, 1.239, 10.355]","[0.0, 0.0, 0.0]","[0.0, 0.0, 0.0]","[0.0, 0.0, 0.0]","[6.896, -1.083, 20.874]","[0.0, 0.0, 0.0]","[15.248, -3.522, 48.208]"
153,0,Cloud Points(m),"[0.0, 0.0, 0.0]","[0.0, 0.0, 0.0]","[0.0, 0.0, 0.0]","[3.202, -0.052, 10.766]","[3.252, 0.321, 10.597]","[0.0, 0.0, 0.0]","[0.0, 0.0, 0.0]","[4.323, 0.249, 11.899]","[0.0, 0.0, 0.0]","[0.0, 0.0, 0.0]","[0.0, 0.0, 0.0]","[3.551, 1.368, 10.597]","[0.0, 0.0, 0.0]","[0.0, 0.0, 0.0]","[3.518, 1.239, 10.355]","[0.0, 0.0, 0.0]","[0.0, 0.0, 0.0]","[0.0, 0.0, 0.0]","[6.896, -1.083, 20.874]","[0.0, 0.0, 0.0]","[15.248, -3.522, 48.208]"
154,0,Keypoints(m),"[6.268, -0.991, 19.109]","[3.432, -0.384, 10.8525]","[3.329, -0.381, 10.766]","[0.0, 0.0, 0.0]","[0.0, 0.0, 0.0]","[4.943, -0.522, 14.7515]","[3.799, -0.053, 11.029]","[4.361, 0.251, 12.005]","[3.551, 0.222, 10.597]","[3.426, 0.222, 10.597]","[3.422, 0.832, 10.434]","[0.0, 0.0, 0.0]","[3.576, 0.197, 10.597]","[3.465, 0.717, 10.1995]","[3.491, 1.23, 10.276]","[4.857, -0.827, 15.243]","[7.115, -1.117, 21.537]","[4.056, -0.67, 12.92]","[0.0, 0.0, 0.0]","[3.519, -0.476, 11.2115]","[13.507, -3.097, 42.39]"
154,0,Keypoints(image),"[565000.0, 214000.0, 730.232]","[560000.0, 221000.0, 632.6199999999999]","[557000.0, 221000.0, 395.734]","[552000.0, 232000.0, 161.546]","[557000.0, 251000.0, 236.587]","[568000.0, 221000.0, 654.558]","[572000.0, 234000.0, 604.109]","[580000.0, 245000.0, 596.031]","[568000.0, 245000.0, 368.89]","[563000.0, 245000.0, 309.466]","[565000.0, 270000.0, 542.909]","[568000.0, 288000.0, 240.25199999999998]","[569000.0, 244000.0, 390.078]","[570000.0, 266000.0, 488.443]","[570000.0, 287000.0, 321.23699999999997]","[561000.0, 213000.0, 797.851]","[566000.0, 214000.0, 557.79]","[559000.0, 214000.0, 780.6610000000001]","[568000.0, 214000.0, 79.8095]","[559000.0, 218000.0, 606.056]","[561000.0, 205000.0, 719.822]"
154,,Distance(m),0.0,0.0,0.0,0.0,0.0,0.0,0.0,0.0,0.0,0.0,0.0,0.0,0.0,0.0,0.0,0.0,0.0,0.0,0.0,0.0,0.0
154,0,Cloud Points(m),"[0.0, 0.0, 0.0]","[0.0, 0.0, 0.0]","[0.0, 0.0, 0.0]","[3.202, -0.103, 10.766]","[3.226, 0.366, 10.434]","[0.0, 0.0, 0.0]","[0.0, 0.0, 0.0]","[4.361, 0.251, 12.005]","[0.0, 0.0, 0.0]","[0.0, 0.0, 0.0]","[0.0, 0.0, 0.0]","[3.551, 1.293, 10.597]","[0.0, 0.0, 0.0]","[0.0, 0.0, 0.0]","[3.491, 1.23, 10.276]","[0.0, 0.0, 0.0]","[0.0, 0.0, 0.0]","[0.0, 0.0, 0.0]","[8.417, -1.303, 25.12]","[0.0, 0.0, 0.0]","[13.507, -3.097, 42.39]"
154,0,Cloud Points(m),"[0.0, 0.0, 0.0]","[0.0, 0.0, 0.0]","[0.0, 0.0, 0.0]","[3.202, -0.103, 10.766]","[3.226, 0.366, 10.434]","[0.0, 0.0, 0.0]","[0.0, 0.0, 0.0]","[4.361, 0.251, 12.005]","[0.0, 0.0, 0.0]","[0.0, 0.0, 0.0]","[0.0, 0.0, 0.0]","[3.551, 1.293, 10.597]","[0.0, 0.0, 0.0]","[0.0, 0.0, 0.0]","[3.491, 1.23, 10.276]","[0.0, 0.0, 0.0]","[0.0, 0.0, 0.0]","[0.0, 0.0, 0.0]","[8.417, -1.303, 25.12]","[0.0, 0.0, 0.0]","[13.507, -3.097, 42.39]"
154,0,Cloud Points(m),"[0.0, 0.0, 0.0]","[0.0, 0.0, 0.0]","[0.0, 0.0, 0.0]","[3.202, -0.103, 10.766]","[3.226, 0.366, 10.434]","[0.0, 0.0, 0.0]","[0.0, 0.0, 0.0]","[4.361, 0.251, 12.005]","[0.0, 0.0, 0.0]","[0.0, 0.0, 0.0]","[0.0, 0.0, 0.0]","[3.551, 1.293, 10.597]","[0.0, 0.0, 0.0]","[0.0, 0.0, 0.0]","[3.491, 1.23, 10.276]","[0.0, 0.0, 0.0]","[0.0, 0.0, 0.0]","[0.0, 0.0, 0.0]","[8.417, -1.303, 25.12]","[0.0, 0.0, 0.0]","[13.507, -3.097, 42.39]"
154,0,Cloud Points(m),"[0.0, 0.0, 0.0]","[0.0, 0.0, 0.0]","[0.0, 0.0, 0.0]","[3.202, -0.103, 10.766]","[3.226, 0.366, 10.434]","[0.0, 0.0, 0.0]","[0.0, 0.0, 0.0]","[4.361, 0.251, 12.005]","[0.0, 0.0, 0.0]","[0.0, 0.0, 0.0]","[0.0, 0.0, 0.0]","[3.551, 1.293, 10.597]","[0.0, 0.0, 0.0]","[0.0, 0.0, 0.0]","[3.491, 1.23, 10.276]","[0.0, 0.0, 0.0]","[0.0, 0.0, 0.0]","[0.0, 0.0, 0.0]","[8.417, -1.303, 25.12]","[0.0, 0.0, 0.0]","[13.507, -3.097, 42.39]"
154,0,Cloud Points(m),"[0.0, 0.0, 0.0]","[0.0, 0.0, 0.0]","[0.0, 0.0, 0.0]","[3.202, -0.103, 10.766]","[3.226, 0.366, 10.434]","[0.0, 0.0, 0.0]","[0.0, 0.0, 0.0]","[4.361, 0.251, 12.005]","[0.0, 0.0, 0.0]","[0.0, 0.0, 0.0]","[0.0, 0.0, 0.0]","[3.551, 1.293, 10.597]","[0.0, 0.0, 0.0]","[0.0, 0.0, 0.0]","[3.491, 1.23, 10.276]","[0.0, 0.0, 0.0]","[0.0, 0.0, 0.0]","[0.0, 0.0, 0.0]","[8.417, -1.303, 25.12]","[0.0, 0.0, 0.0]","[13.507, -3.097, 42.39]"
154,0,Cloud Points(m),"[0.0, 0.0, 0.0]","[0.0, 0.0, 0.0]","[0.0, 0.0, 0.0]","[3.202, -0.103, 10.766]","[3.226, 0.366, 10.434]","[0.0, 0.0, 0.0]","[0.0, 0.0, 0.0]","[4.361, 0.251, 12.005]","[0.0, 0.0, 0.0]","[0.0, 0.0, 0.0]","[0.0, 0.0, 0.0]","[3.551, 1.293, 10.597]","[0.0, 0.0, 0.0]","[0.0, 0.0, 0.0]","[3.491, 1.23, 10.276]","[0.0, 0.0, 0.0]","[0.0, 0.0, 0.0]","[0.0, 0.0, 0.0]","[8.417, -1.303, 25.12]","[0.0, 0.0, 0.0]","[13.507, -3.097, 42.39]"
154,0,Cloud Points(m),"[0.0, 0.0, 0.0]","[0.0, 0.0, 0.0]","[0.0, 0.0, 0.0]","[3.202, -0.103, 10.766]","[3.226, 0.366, 10.434]","[0.0, 0.0, 0.0]","[0.0, 0.0, 0.0]","[4.361, 0.251, 12.005]","[0.0, 0.0, 0.0]","[0.0, 0.0, 0.0]","[0.0, 0.0, 0.0]","[3.551, 1.293, 10.597]","[0.0, 0.0, 0.0]","[0.0, 0.0, 0.0]","[3.491, 1.23, 10.276]","[0.0, 0.0, 0.0]","[0.0, 0.0, 0.0]","[0.0, 0.0, 0.0]","[8.417, -1.303, 25.12]","[0.0, 0.0, 0.0]","[13.507, -3.097, 42.39]"
154,0,Cloud Points(m),"[0.0, 0.0, 0.0]","[0.0, 0.0, 0.0]","[0.0, 0.0, 0.0]","[3.202, -0.103, 10.766]","[3.226, 0.366, 10.434]","[0.0, 0.0, 0.0]","[0.0, 0.0, 0.0]","[4.361, 0.251, 12.005]","[0.0, 0.0, 0.0]","[0.0, 0.0, 0.0]","[0.0, 0.0, 0.0]","[3.551, 1.293, 10.597]","[0.0, 0.0, 0.0]","[0.0, 0.0, 0.0]","[3.491, 1.23, 10.276]","[0.0, 0.0, 0.0]","[0.0, 0.0, 0.0]","[0.0, 0.0, 0.0]","[8.417, -1.303, 25.12]","[0.0, 0.0, 0.0]","[13.507, -3.097, 42.39]"
154,0,Cloud Points(m),"[0.0, 0.0, 0.0]","[0.0, 0.0, 0.0]","[0.0, 0.0, 0.0]","[3.202, -0.103, 10.766]","[3.226, 0.366, 10.434]","[0.0, 0.0, 0.0]","[0.0, 0.0, 0.0]","[4.361, 0.251, 12.005]","[0.0, 0.0, 0.0]","[0.0, 0.0, 0.0]","[0.0, 0.0, 0.0]","[3.551, 1.293, 10.597]","[0.0, 0.0, 0.0]","[0.0, 0.0, 0.0]","[3.491, 1.23, 10.276]","[0.0, 0.0, 0.0]","[0.0, 0.0, 0.0]","[0.0, 0.0, 0.0]","[8.417, -1.303, 25.12]","[0.0, 0.0, 0.0]","[13.507, -3.097, 42.39]"
154,0,Cloud Points(m),"[0.0, 0.0, 0.0]","[0.0, 0.0, 0.0]","[0.0, 0.0, 0.0]","[3.202, -0.103, 10.766]","[3.226, 0.366, 10.434]","[0.0, 0.0, 0.0]","[0.0, 0.0, 0.0]","[4.361, 0.251, 12.005]","[0.0, 0.0, 0.0]","[0.0, 0.0, 0.0]","[0.0, 0.0, 0.0]","[3.551, 1.293, 10.597]","[0.0, 0.0, 0.0]","[0.0, 0.0, 0.0]","[3.491, 1.23, 10.276]","[0.0, 0.0, 0.0]","[0.0, 0.0, 0.0]","[0.0, 0.0, 0.0]","[8.417, -1.303, 25.12]","[0.0, 0.0, 0.0]","[13.507, -3.097, 42.39]"
154,0,Cloud Points(m),"[0.0, 0.0, 0.0]","[0.0, 0.0, 0.0]","[0.0, 0.0, 0.0]","[3.202, -0.103, 10.766]","[3.226, 0.366, 10.434]","[0.0, 0.0, 0.0]","[0.0, 0.0, 0.0]","[4.361, 0.251, 12.005]","[0.0, 0.0, 0.0]","[0.0, 0.0, 0.0]","[0.0, 0.0, 0.0]","[3.551, 1.293, 10.597]","[0.0, 0.0, 0.0]","[0.0, 0.0, 0.0]","[3.491, 1.23, 10.276]","[0.0, 0.0, 0.0]","[0.0, 0.0, 0.0]","[0.0, 0.0, 0.0]","[8.417, -1.303, 25.12]","[0.0, 0.0, 0.0]","[13.507, -3.097, 42.39]"
154,0,Cloud Points(m),"[0.0, 0.0, 0.0]","[0.0, 0.0, 0.0]","[0.0, 0.0, 0.0]","[3.202, -0.103, 10.766]","[3.226, 0.366, 10.434]","[0.0, 0.0, 0.0]","[0.0, 0.0, 0.0]","[4.361, 0.251, 12.005]","[0.0, 0.0, 0.0]","[0.0, 0.0, 0.0]","[0.0, 0.0, 0.0]","[3.551, 1.293, 10.597]","[0.0, 0.0, 0.0]","[0.0, 0.0, 0.0]","[3.491, 1.23, 10.276]","[0.0, 0.0, 0.0]","[0.0, 0.0, 0.0]","[0.0, 0.0, 0.0]","[8.417, -1.303, 25.12]","[0.0, 0.0, 0.0]","[13.507, -3.097, 42.39]"
154,0,Cloud Points(m),"[0.0, 0.0, 0.0]","[0.0, 0.0, 0.0]","[0.0, 0.0, 0.0]","[3.202, -0.103, 10.766]","[3.226, 0.366, 10.434]","[0.0, 0.0, 0.0]","[0.0, 0.0, 0.0]","[4.361, 0.251, 12.005]","[0.0, 0.0, 0.0]","[0.0, 0.0, 0.0]","[0.0, 0.0, 0.0]","[3.551, 1.293, 10.597]","[0.0, 0.0, 0.0]","[0.0, 0.0, 0.0]","[3.491, 1.23, 10.276]","[0.0, 0.0, 0.0]","[0.0, 0.0, 0.0]","[0.0, 0.0, 0.0]","[8.417, -1.303, 25.12]","[0.0, 0.0, 0.0]","[13.507, -3.097, 42.39]"
154,0,Cloud Points(m),"[0.0, 0.0, 0.0]","[0.0, 0.0, 0.0]","[0.0, 0.0, 0.0]","[3.202, -0.103, 10.766]","[3.226, 0.366, 10.434]","[0.0, 0.0, 0.0]","[0.0, 0.0, 0.0]","[4.361, 0.251, 12.005]","[0.0, 0.0, 0.0]","[0.0, 0.0, 0.0]","[0.0, 0.0, 0.0]","[3.551, 1.293, 10.597]","[0.0, 0.0, 0.0]","[0.0, 0.0, 0.0]","[3.491, 1.23, 10.276]","[0.0, 0.0, 0.0]","[0.0, 0.0, 0.0]","[0.0, 0.0, 0.0]","[8.417, -1.303, 25.12]","[0.0, 0.0, 0.0]","[13.507, -3.097, 42.39]"
154,0,Cloud Points(m),"[0.0, 0.0, 0.0]","[0.0, 0.0, 0.0]","[0.0, 0.0, 0.0]","[3.202, -0.103, 10.766]","[3.226, 0.366, 10.434]","[0.0, 0.0, 0.0]","[0.0, 0.0, 0.0]","[4.361, 0.251, 12.005]","[0.0, 0.0, 0.0]","[0.0, 0.0, 0.0]","[0.0, 0.0, 0.0]","[3.551, 1.293, 10.597]","[0.0, 0.0, 0.0]","[0.0, 0.0, 0.0]","[3.491, 1.23, 10.276]","[0.0, 0.0, 0.0]","[0.0, 0.0, 0.0]","[0.0, 0.0, 0.0]","[8.417, -1.303, 25.12]","[0.0, 0.0, 0.0]","[13.507, -3.097, 42.39]"
154,0,Cloud Points(m),"[0.0, 0.0, 0.0]","[0.0, 0.0, 0.0]","[0.0, 0.0, 0.0]","[3.202, -0.103, 10.766]","[3.226, 0.366, 10.434]","[0.0, 0.0, 0.0]","[0.0, 0.0, 0.0]","[4.361, 0.251, 12.005]","[0.0, 0.0, 0.0]","[0.0, 0.0, 0.0]","[0.0, 0.0, 0.0]","[3.551, 1.293, 10.597]","[0.0, 0.0, 0.0]","[0.0, 0.0, 0.0]","[3.491, 1.23, 10.276]","[0.0, 0.0, 0.0]","[0.0, 0.0, 0.0]","[0.0, 0.0, 0.0]","[8.417, -1.303, 25.12]","[0.0, 0.0, 0.0]","[13.507, -3.097, 42.39]"
154,0,Cloud Points(m),"[0.0, 0.0, 0.0]","[0.0, 0.0, 0.0]","[0.0, 0.0, 0.0]","[3.202, -0.103, 10.766]","[3.226, 0.366, 10.434]","[0.0, 0.0, 0.0]","[0.0, 0.0, 0.0]","[4.361, 0.251, 12.005]","[0.0, 0.0, 0.0]","[0.0, 0.0, 0.0]","[0.0, 0.0, 0.0]","[3.551, 1.293, 10.597]","[0.0, 0.0, 0.0]","[0.0, 0.0, 0.0]","[3.491, 1.23, 10.276]","[0.0, 0.0, 0.0]","[0.0, 0.0, 0.0]","[0.0, 0.0, 0.0]","[8.417, -1.303, 25.12]","[0.0, 0.0, 0.0]","[13.507, -3.097, 42.39]"
154,0,Cloud Points(m),"[0.0, 0.0, 0.0]","[0.0, 0.0, 0.0]","[0.0, 0.0, 0.0]","[3.202, -0.103, 10.766]","[3.226, 0.366, 10.434]","[0.0, 0.0, 0.0]","[0.0, 0.0, 0.0]","[4.361, 0.251, 12.005]","[0.0, 0.0, 0.0]","[0.0, 0.0, 0.0]","[0.0, 0.0, 0.0]","[3.551, 1.293, 10.597]","[0.0, 0.0, 0.0]","[0.0, 0.0, 0.0]","[3.491, 1.23, 10.276]","[0.0, 0.0, 0.0]","[0.0, 0.0, 0.0]","[0.0, 0.0, 0.0]","[8.417, -1.303, 25.12]","[0.0, 0.0, 0.0]","[13.507, -3.097, 42.39]"
155,0,Keypoints(m),"[4.986, -0.8, 15.4225]","[3.407, -0.384, 10.8525]","[3.329, -0.381, 10.766]","[0.0, 0.0, 0.0]","[0.0, 0.0, 0.0]","[4.686, -0.495, 13.986]","[3.717, -0.104, 10.939]","[4.361, 0.251, 12.005]","[3.551, 0.222, 10.597]","[3.376, 0.222, 10.597]","[3.398, 0.832, 10.434]","[0.0, 0.0, 0.0]","[3.576, 0.197, 10.597]","[3.521, 0.734, 10.434]","[0.0, 0.0, 0.0]","[4.502, -0.766, 14.13]","[6.59, -1.035, 19.948]","[3.943, -0.651, 12.56]","[0.0, 0.0, 0.0]","[3.49, -0.472, 11.119]","[12.769, -2.949, 40.371]"
155,0,Keypoints(image),"[563000.0, 214000.0, 709.645]","[559000.0, 221000.0, 629.7660000000001]","[557000.0, 221000.0, 384.685]","[552000.0, 232000.0, 163.8]","[556000.0, 249000.0, 201.216]","[568000.0, 221000.0, 659.358]","[570000.0, 232000.0, 598.88]","[580000.0, 245000.0, 531.728]","[568000.0, 245000.0, 302.709]","[561000.0, 245000.0, 260.774]","[564000.0, 270000.0, 392.393]","[568000.0, 290000.0, 165.493]","[569000.0, 244000.0, 341.82099999999997]","[569000.0, 266000.0, 360.36699999999996]","[570000.0, 287000.0, 200.995]","[561000.0, 213000.0, 825.275]","[566000.0, 214000.0, 643.473]","[559000.0, 214000.0, 792.871]","[566000.0, 214000.0, 137.934]","[559000.0, 218000.0, 606.0569999999999]","[560000.0, 205000.0, 701.843]"
155,,Distance(m),0.0,0.0,0.0,0.0,0.0,0.0,0.0,0.0,0.0,0.0,0.0,0.0,0.0,0.0,0.0,0.0,0.0,0.0,0.0,0.0,0.0
