yoavgoldstein1/3D-Social-Research/CSVs/Sampled/0_540_Final.csv
FrameID,BodyID,Type,Joint 1,Joint 2,Joint 3,Joint 4,Joint 5,Joint 6,Joint 7,Joint 8,Joint 9,Joint 10,Joint 11,Joint 12,Joint 13,Joint 14,Joint 15,Joint 16,Joint 17,Joint 18,Joint 19,Joint 20,Joint 21,Distances
0
1
2
3
4
5
6
7
8
9
10
11
12
13
14
15
16
17
18
19
20
21
22
23
24
25
26
27
28
29
30
31
32
33
34,0,Keypoints(m),"[0.0, 0.0, 0.0]","[0.0, 0.0, 0.0]","[0.0, 0.0, 0.0]","[0.0, 0.0, 0.0]","[0.0, 0.0, 0.0]","[0.0, 0.0, 0.0]","[0.0, 0.0, 0.0]","[0.0, 0.0, 0.0]","[0.0, 0.0, 0.0]","[0.0, 0.0, 0.0]","[0.0, 0.0, 0.0]","[0.0, 0.0, 0.0]","[0.0, 0.0, 0.0]","[0.0, 0.0, 0.0]","[0.0, 0.0, 0.0]","[0.0, 0.0, 0.0]","[0.0, 0.0, 0.0]","[0.0, 0.0, 0.0]","[0.0, 0.0, 0.0]","[0.0, 0.0, 0.0]","[0.0, 0.0, 0.0]"
34,0,Keypoints(image),"[309000.0, 204000.0, 182.51600000000002]","[308000.0, 206000.0, 160.193]","[308000.0, 204000.0, 87.53710000000001]","[307000.0, 204000.0, 123.781]","[0.0, 0.0, 0.0]","[311000.0, 205000.0, 128.152]","[0.0, 0.0, 0.0]","[0.0, 0.0, 0.0]","[0.0, 0.0, 0.0]","[0.0, 0.0, 0.0]","[0.0, 0.0, 0.0]","[0.0, 0.0, 0.0]","[0.0, 0.0, 0.0]","[0.0, 0.0, 0.0]","[0.0, 0.0, 0.0]","[0.0, 0.0, 0.0]","[0.0, 0.0, 0.0]","[0.0, 0.0, 0.0]","[0.0, 0.0, 0.0]","[307000.0, 204000.0, 174.493]","[0.0, 0.0, 0.0]"
34,,Distance(m),0.0,0.0,0.0,0.0,0.0,0.0,0.0,0.0,0.0,0.0,0.0,0.0,0.0,0.0,0.0,0.0,0.0,0.0,0.0,0.0,0.0
34,0,Cloud Points(m),"[-1.986, -0.547, 7.254]","[-1.971, -0.504, 7.139]","[0.0, 0.0, 0.0]","[-2.009, -0.544, 7.215]","[-1.952, -0.53, 7.254]","[0.0, 0.0, 0.0]"
35
36
37
38
39
40
41
42
43
44
45
46
47
48
49
50
51
52
53
54
55
56
57
58
59
60
61
62
63
64
65
66
67
68
69
70
71
72
73
74
75
76
77
78
79
80
81
82
83
84
85
86
87
88
89
90
91
92
93
94
95
96
97
98
99
FrameID,BodyID,Type,Joint 1,Joint 2,Joint 3,Joint 4,Joint 5,Joint 6,Joint 7,Joint 8,Joint 9,Joint 10,Joint 11,Joint 12,Joint 13,Joint 14,Joint 15,Joint 16,Joint 17,Joint 18,Joint 19,Joint 20,Joint 21,Distances
100
101
102
103
104
105
106
107
108
109
110
111
112
113
114
115
116
117
118
119
120
121
122
123
124
125
126
127
128
129
130
131
132
133
134
135
136
137
138
139
140
141
142
143
144
145
146
147
148
149
150
151
152
153
154
155
156
157
158
159
160
161
162
163
164
165
166
167
168
169
170
171
172
173
174
175
176
177
178
179
180
181
182
183
184
185
186
187
188
189
190
191
192
193
194
195
196
197
198
199
FrameID,BodyID,Type,Joint 1,Joint 2,Joint 3,Joint 4,Joint 5,Joint 6,Joint 7,Joint 8,Joint 9,Joint 10,Joint 11,Joint 12,Joint 13,Joint 14,Joint 15,Joint 16,Joint 17,Joint 18,Joint 19,Joint 20,Joint 21,Distances
200
201
202
203
204
205
206
207
208
209
210
211
212
213
214
215
216
217
218
219
220
221
222
223
224
225
226
227
228
229
230
231
232
233
234
235
236
237
238
239
240
241
242
243
244
245
246
247
248
249
250
251
252
253
254
255
256
257
258
259
260
261
262
263
264
265
266
267
268
269
270
271
272
273
274
275
276
277
278
279
280
281
282
283
284
285
286
287
288
289
290
291
292
293
294
295
296
297
298
299
FrameID,BodyID,Type,Joint 1,Joint 2,Joint 3,Joint 4,Joint 5,Joint 6,Joint 7,Joint 8,Joint 9,Joint 10,Joint 11,Joint 12,Joint 13,Joint 14,Joint 15,Joint 16,Joint 17,Joint 18,Joint 19,Joint 20,Joint 21,Distances
300
301
302
303
304
305
306
307
308
309
310
311
312
313
314
315
316
317
318
319
320
321
322
323
324
325
326
327
328
329
330
331
332
333
334
335
336,0,Keypoints(m),"[0.0, 0.0, 0.0]","[0.0, 0.0, 0.0]","[0.0, 0.0, 0.0]","[-1.43, -0.601, 1.607]","[-1.226, -0.503, 1.753]","[0.0, 0.0, 0.0]","[0.0, 0.0, 0.0]","[0.0, 0.0, 0.0]","[0.0, 0.0, 0.0]","[0.0, 0.0, 0.0]","[-1.558, 0.29, 1.715]","[-1.442, 0.523, 1.536]","[0.0, 0.0, 0.0]","[0.0, 0.0, 0.0]","[0.0, 0.0, 0.0]","[0.0, 0.0, 0.0]","[0.0, 0.0, 0.0]","[0.0, 0.0, 0.0]","[0.0, 0.0, 0.0]","[0.0, 0.0, 0.0]","[0.0, 0.0, 0.0]"
336,0,Keypoints(image),"[0.0, 0.0, 0.0]","[0.0, 0.0, 0.0]","[3000.0, 3000.0, 95.7986]","[47000.0, 77000.0, 832.582]","[128000.0, 114000.0, 792.67]","[0.0, 0.0, 0.0]","[0.0, 0.0, 0.0]","[0.0, 0.0, 0.0]","[3000.0, 171000.0, 143.212]","[3000.0, 170000.0, 190.782]","[39000.0, 308000.0, 512.8209999999999]","[26000.0, 381000.0, 318.14]","[0.0, 0.0, 0.0]","[0.0, 0.0, 0.0]","[0.0, 0.0, 0.0]","[0.0, 0.0, 0.0]","[0.0, 0.0, 0.0]","[0.0, 0.0, 0.0]","[0.0, 0.0, 0.0]","[0.0, 0.0, 0.0]","[0.0, 0.0, 0.0]"
336,,Distance(m),0.0,0.0,0.0,0.0,0.0,0.0,0.0,0.0,0.0,0.0,0.0,0.0,0.0,0.0,0.0,0.0,0.0,0.0,0.0,0.0,0.0
336,0,Cloud Points(m),"[0.0, 0.0, 0.0]","[0.0, 0.0, 0.0]","[-1.226, -0.503, 1.753]","[0.0, 0.0, 0.0]","[0.0, 0.0, 0.0]","[0.0, 0.0, 0.0]","[-1.442, 0.523, 1.536]"
337,0,Keypoints(m),"[0.0, 0.0, 0.0]","[0.0, 0.0, 0.0]","[0.0, 0.0, 0.0]","[-1.401, -0.599, 1.613]","[-1.218, -0.49, 1.797]","[0.0, 0.0, 0.0]","[0.0, 0.0, 0.0]","[0.0, 0.0, 0.0]","[0.0, 0.0, 0.0]","[0.0, 0.0, 0.0]","[-1.476, 0.259, 1.757]","[0.0, 0.0, 0.0]","[0.0, 0.0, 0.0]","[0.0, 0.0, 0.0]","[0.0, 0.0, 0.0]","[0.0, 0.0, 0.0]","[0.0, 0.0, 0.0]","[0.0, 0.0, 0.0]","[0.0, 0.0, 0.0]","[0.0, 0.0, 0.0]","[0.0, 0.0, 0.0]"
337,0,Keypoints(image),"[0.0, 0.0, 0.0]","[0.0, 0.0, 0.0]","[3000.0, 3000.0, 239.35799999999998]","[56000.0, 78000.0, 865.3779999999999]","[137000.0, 120000.0, 794.357]","[0.0, 0.0, 0.0]","[0.0, 0.0, 0.0]","[0.0, 0.0, 0.0]","[3000.0, 163000.0, 98.2255]","[3000.0, 161000.0, 154.57399999999998]","[68000.0, 299000.0, 711.5219999999999]","[3000.0, 406000.0, 218.022]","[0.0, 0.0, 0.0]","[0.0, 0.0, 0.0]","[0.0, 0.0, 0.0]","[0.0, 0.0, 0.0]","[0.0, 0.0, 0.0]","[0.0, 0.0, 0.0]","[0.0, 0.0, 0.0]","[0.0, 0.0, 0.0]","[0.0, 0.0, 0.0]"
337,,Distance(m),0.0,0.0,0.0,0.0,0.0,0.0,0.0,0.0,0.0,0.0,0.0,0.0,0.0,0.0,0.0,0.0,0.0,0.0,0.0,0.0,0.0
337,0,Cloud Points(m),"[0.0, 0.0, 0.0]","[0.0, 0.0, 0.0]","[-1.218, -0.49, 1.797]","[0.0, 0.0, 0.0]","[0.0, 0.0, 0.0]","[-1.476, 0.259, 1.757]","[0.0, 0.0, 0.0]"
337,0,Cloud Points(m),"[0.0, 0.0, 0.0]","[0.0, 0.0, 0.0]","[-1.218, -0.49, 1.797]","[0.0, 0.0, 0.0]","[0.0, 0.0, 0.0]","[-1.476, 0.259, 1.757]","[0.0, 0.0, 0.0]"
338,0,Keypoints(m),"[0.0, 0.0, 0.0]","[0.0, 0.0, 0.0]","[0.0, 0.0, 0.0]","[-1.401, -0.614, 1.654]","[-1.195, -0.46, 1.813]","[0.0, 0.0, 0.0]","[0.0, 0.0, 0.0]","[0.0, 0.0, 0.0]","[0.0, 0.0, 0.0]","[0.0, 0.0, 0.0]","[-1.446, 0.224, 1.879]","[-1.481, 0.585, 1.577]","[0.0, 0.0, 0.0]","[0.0, 0.0, 0.0]","[0.0, 0.0, 0.0]","[0.0, 0.0, 0.0]","[0.0, 0.0, 0.0]","[0.0, 0.0, 0.0]","[0.0, 0.0, 0.0]","[0.0, 0.0, 0.0]","[0.0, 0.0, 0.0]"
338,0,Keypoints(image),"[0.0, 0.0, 0.0]","[0.0, 0.0, 0.0]","[13000.0, 3000.0, 109.442]","[65000.0, 78000.0, 846.68]","[145000.0, 128000.0, 798.259]","[0.0, 0.0, 0.0]","[0.0, 0.0, 0.0]","[0.0, 0.0, 0.0]","[3000.0, 163000.0, 203.888]","[27000.0, 159000.0, 228.384]","[98000.0, 287000.0, 749.564]","[26000.0, 394000.0, 549.265]","[0.0, 0.0, 0.0]","[0.0, 0.0, 0.0]","[0.0, 0.0, 0.0]","[0.0, 0.0, 0.0]","[0.0, 0.0, 0.0]","[0.0, 0.0, 0.0]","[0.0, 0.0, 0.0]","[0.0, 0.0, 0.0]","[0.0, 0.0, 0.0]"
338,,Distance(m),0.0,0.0,0.0,0.0,0.0,0.0,0.0,0.0,0.0,0.0,0.0,0.0,0.0,0.0,0.0,0.0,0.0,0.0,0.0,0.0,0.0
338,0,Cloud Points(m),"[0.0, 0.0, 0.0]","[0.0, 0.0, 0.0]","[-1.195, -0.46, 1.813]","[0.0, 0.0, 0.0]","[0.0, 0.0, 0.0]","[-1.446, 0.224, 1.879]","[-1.481, 0.585, 1.577]"
338,0,Cloud Points(m),"[0.0, 0.0, 0.0]","[0.0, 0.0, 0.0]","[-1.195, -0.46, 1.813]","[0.0, 0.0, 0.0]","[0.0, 0.0, 0.0]","[-1.446, 0.224, 1.879]","[-1.481, 0.585, 1.577]"
338,0,Cloud Points(m),"[0.0, 0.0, 0.0]","[0.0, 0.0, 0.0]","[-1.195, -0.46, 1.813]","[0.0, 0.0, 0.0]","[0.0, 0.0, 0.0]","[-1.446, 0.224, 1.879]","[-1.481, 0.585, 1.577]"
339,0,Keypoints(m),"[0.0, 0.0, 0.0]","[0.0, 0.0, 0.0]","[0.0, 0.0, 0.0]","[-1.345, -0.597, 1.638]","[-1.176, -0.446, 1.823]","[0.0, 0.0, 0.0]","[0.0, 0.0, 0.0]","[0.0, 0.0, 0.0]","[-1.575, -0.246, 1.636]","[-1.518, -0.296, 1.702]","[-1.307, 0.172, 1.7965]","[-1.48, 0.594, 1.7085]","[0.0, 0.0, 0.0]","[-1.592, 0.221, 1.848]","[-1.475, 0.727, 1.8655]","[0.0, 0.0, 0.0]","[0.0, 0.0, 0.0]","[0.0, 0.0, 0.0]","[0.0, 0.0, 0.0]","[0.0, 0.0, 0.0]","[0.0, 0.0, 0.0]"
339,0,Keypoints(image),"[0.0, 0.0, 0.0]","[0.0, 0.0, 0.0]","[25000.0, 3000.0, 86.36389999999999]","[76000.0, 81000.0, 797.178]","[151000.0, 132000.0, 843.708]","[0.0, 0.0, 0.0]","[0.0, 0.0, 0.0]","[0.0, 0.0, 0.0]","[16000.0, 172000.0, 522.796]","[46000.0, 162000.0, 521.601]","[116000.0, 277000.0, 784.466]","[57000.0, 384000.0, 784.689]","[3000.0, 183000.0, 246.763]","[59000.0, 287000.0, 555.116]","[89000.0, 402000.0, 778.8009999999999]","[0.0, 0.0, 0.0]","[0.0, 0.0, 0.0]","[0.0, 0.0, 0.0]","[0.0, 0.0, 0.0]","[0.0, 0.0, 0.0]","[0.0, 0.0, 0.0]"
339,,Distance(m),0.0,0.0,0.0,0.0,0.0,0.0,0.0,0.0,0.0,0.0,0.0,0.0,0.0,0.0,0.0,0.0,0.0,0.0,0.0,0.0,0.0
339,0,Cloud Points(m),"[0.0, 0.0, 0.0]","[0.0, 0.0, 0.0]","[-1.176, -0.446, 1.823]","[0.0, 0.0, 0.0]","[0.0, 0.0, 0.0]","[0.0, 0.0, 0.0]","[-1.48, 0.594, 1.7085]","[0.0, 0.0, 0.0]","[0.0, 0.0, 0.0]","[-1.475, 0.727, 1.8655]"
339,0,Cloud Points(m),"[0.0, 0.0, 0.0]","[0.0, 0.0, 0.0]","[-1.176, -0.446, 1.823]","[0.0, 0.0, 0.0]","[0.0, 0.0, 0.0]","[0.0, 0.0, 0.0]","[-1.48, 0.594, 1.7085]","[0.0, 0.0, 0.0]","[0.0, 0.0, 0.0]","[-1.475, 0.727, 1.8655]"
339,0,Cloud Points(m),"[0.0, 0.0, 0.0]","[0.0, 0.0, 0.0]","[-1.176, -0.446, 1.823]","[0.0, 0.0, 0.0]","[0.0, 0.0, 0.0]","[0.0, 0.0, 0.0]","[-1.48, 0.594, 1.7085]","[0.0, 0.0, 0.0]","[0.0, 0.0, 0.0]","[-1.475, 0.727, 1.8655]"
339,0,Cloud Points(m),"[0.0, 0.0, 0.0]","[0.0, 0.0, 0.0]","[-1.176, -0.446, 1.823]","[0.0, 0.0, 0.0]","[0.0, 0.0, 0.0]","[0.0, 0.0, 0.0]","[-1.48, 0.594, 1.7085]","[0.0, 0.0, 0.0]","[0.0, 0.0, 0.0]","[-1.475, 0.727, 1.8655]"
340,0,Keypoints(m),"[0.0, 0.0, 0.0]","[0.0, 0.0, 0.0]","[0.0, 0.0, 0.0]","[-1.379, -0.617, 1.728]","[-1.103, -0.4, 1.775]","[0.0, 0.0, 0.0]","[0.0, 0.0, 0.0]","[0.0, 0.0, 0.0]","[-1.723, -0.317, 1.799]","[-1.672, -0.367, 1.879]","[-1.347, 0.146, 1.946]","[-1.375, 0.603, 1.7705]","[0.0, 0.0, 0.0]","[-1.596, 0.237, 1.843]","[-1.343, 0.676, 1.683]","[0.0, 0.0, 0.0]","[0.0, 0.0, 0.0]","[0.0, 0.0, 0.0]","[0.0, 0.0, 0.0]","[0.0, 0.0, 0.0]","[0.0, 0.0, 0.0]"
340,0,Keypoints(image),"[0.0, 0.0, 0.0]","[0.0, 0.0, 0.0]","[37000.0, 3000.0, 114.816]","[86000.0, 84000.0, 798.41]","[161000.0, 140000.0, 882.728]","[0.0, 0.0, 0.0]","[0.0, 0.0, 0.0]","[0.0, 0.0, 0.0]","[18000.0, 161000.0, 595.6869999999999]","[47000.0, 153000.0, 698.3549999999999]","[131000.0, 268000.0, 841.134]","[95000.0, 381000.0, 676.6189999999999]","[3000.0, 172000.0, 425.522]","[57000.0, 291000.0, 645.649]","[86000.0, 407000.0, 527.331]","[0.0, 0.0, 0.0]","[0.0, 0.0, 0.0]","[0.0, 0.0, 0.0]","[0.0, 0.0, 0.0]","[0.0, 0.0, 0.0]","[0.0, 0.0, 0.0]"
340,,Distance(m),0.0,0.0,0.0,0.0,0.0,0.0,0.0,0.0,0.0,0.0,0.0,0.0,0.0,0.0,0.0,0.0,0.0,0.0,0.0,0.0,0.0
340,0,Cloud Points(m),"[0.0, 0.0, 0.0]","[0.0, 0.0, 0.0]","[-1.103, -0.4, 1.775]","[0.0, 0.0, 0.0]","[0.0, 0.0, 0.0]","[-1.347, 0.146, 1.946]","[-1.375, 0.603, 1.7705]","[0.0, 0.0, 0.0]","[0.0, 0.0, 0.0]","[-1.343, 0.676, 1.683]"
340,0,Cloud Points(m),"[0.0, 0.0, 0.0]","[0.0, 0.0, 0.0]","[-1.103, -0.4, 1.775]","[0.0, 0.0, 0.0]","[0.0, 0.0, 0.0]","[-1.347, 0.146, 1.946]","[-1.375, 0.603, 1.7705]","[0.0, 0.0, 0.0]","[0.0, 0.0, 0.0]","[-1.343, 0.676, 1.683]"
340,0,Cloud Points(m),"[0.0, 0.0, 0.0]","[0.0, 0.0, 0.0]","[-1.103, -0.4, 1.775]","[0.0, 0.0, 0.0]","[0.0, 0.0, 0.0]","[-1.347, 0.146, 1.946]","[-1.375, 0.603, 1.7705]","[0.0, 0.0, 0.0]","[0.0, 0.0, 0.0]","[-1.343, 0.676, 1.683]"
340,0,Cloud Points(m),"[0.0, 0.0, 0.0]","[0.0, 0.0, 0.0]","[-1.103, -0.4, 1.775]","[0.0, 0.0, 0.0]","[0.0, 0.0, 0.0]","[-1.347, 0.146, 1.946]","[-1.375, 0.603, 1.7705]","[0.0, 0.0, 0.0]","[0.0, 0.0, 0.0]","[-1.343, 0.676, 1.683]"
340,0,Cloud Points(m),"[0.0, 0.0, 0.0]","[0.0, 0.0, 0.0]","[-1.103, -0.4, 1.775]","[0.0, 0.0, 0.0]","[0.0, 0.0, 0.0]","[-1.347, 0.146, 1.946]","[-1.375, 0.603, 1.7705]","[0.0, 0.0, 0.0]","[0.0, 0.0, 0.0]","[-1.343, 0.676, 1.683]"
341,0,Keypoints(m),"[0.0, 0.0, 0.0]","[0.0, 0.0, 0.0]","[0.0, 0.0, 0.0]","[-1.329, -0.607, 1.721]","[-1.1, -0.394, 1.7825]","[0.0, 0.0, 0.0]","[0.0, 0.0, 0.0]","[0.0, 0.0, 0.0]","[-1.7, -0.328, 1.811]","[-1.664, -0.388, 1.921]","[-1.341, 0.132, 2.013]","[-1.75, 0.835, 2.503]","[0.0, 0.0, 0.0]","[-1.622, 0.225, 1.848]","[-1.347, 0.696, 1.6935]","[0.0, 0.0, 0.0]","[0.0, 0.0, 0.0]","[0.0, 0.0, 0.0]","[0.0, 0.0, 0.0]","[0.0, 0.0, 0.0]","[0.0, 0.0, 0.0]"
341,0,Keypoints(image),"[0.0, 0.0, 0.0]","[14000.0, 3000.0, 412.39300000000003]","[50000.0, 3000.0, 287.175]","[97000.0, 86000.0, 798.8269999999999]","[163000.0, 142000.0, 831.558]","[0.0, 0.0, 0.0]","[0.0, 0.0, 0.0]","[0.0, 0.0, 0.0]","[26000.0, 159000.0, 720.8449999999999]","[57000.0, 150000.0, 762.7850000000001]","[142000.0, 264000.0, 789.644]","[128000.0, 378000.0, 691.311]","[3000.0, 170000.0, 474.715]","[52000.0, 288000.0, 419.056]","[87000.0, 411000.0, 905.3679999999999]","[0.0, 0.0, 0.0]","[0.0, 0.0, 0.0]","[0.0, 0.0, 0.0]","[0.0, 0.0, 0.0]","[0.0, 0.0, 0.0]","[0.0, 0.0, 0.0]"
341,,Distance(m),0.0,0.0,0.0,0.0,0.0,0.0,0.0,0.0,0.0,0.0,0.0,0.0,0.0,0.0,0.0,0.0,0.0,0.0,0.0,0.0,0.0
341,0,Cloud Points(m),"[0.0, 0.0, 0.0]","[0.0, 0.0, 0.0]","[0.0, 0.0, 0.0]","[-1.1, -0.394, 1.7825]","[0.0, 0.0, 0.0]","[0.0, 0.0, 0.0]","[0.0, 0.0, 0.0]","[-1.75, 0.835, 2.503]","[0.0, 0.0, 0.0]","[0.0, 0.0, 0.0]","[-1.347, 0.696, 1.6935]"
341,0,Cloud Points(m),"[0.0, 0.0, 0.0]","[0.0, 0.0, 0.0]","[0.0, 0.0, 0.0]","[-1.1, -0.394, 1.7825]","[0.0, 0.0, 0.0]","[0.0, 0.0, 0.0]","[0.0, 0.0, 0.0]","[-1.75, 0.835, 2.503]","[0.0, 0.0, 0.0]","[0.0, 0.0, 0.0]","[-1.347, 0.696, 1.6935]"
341,0,Cloud Points(m),"[0.0, 0.0, 0.0]","[0.0, 0.0, 0.0]","[0.0, 0.0, 0.0]","[-1.1, -0.394, 1.7825]","[0.0, 0.0, 0.0]","[0.0, 0.0, 0.0]","[0.0, 0.0, 0.0]","[-1.75, 0.835, 2.503]","[0.0, 0.0, 0.0]","[0.0, 0.0, 0.0]","[-1.347, 0.696, 1.6935]"
341,0,Cloud Points(m),"[0.0, 0.0, 0.0]","[0.0, 0.0, 0.0]","[0.0, 0.0, 0.0]","[-1.1, -0.394, 1.7825]","[0.0, 0.0, 0.0]","[0.0, 0.0, 0.0]","[0.0, 0.0, 0.0]","[-1.75, 0.835, 2.503]","[0.0, 0.0, 0.0]","[0.0, 0.0, 0.0]","[-1.347, 0.696, 1.6935]"
341,0,Cloud Points(m),"[0.0, 0.0, 0.0]","[0.0, 0.0, 0.0]","[0.0, 0.0, 0.0]","[-1.1, -0.394, 1.7825]","[0.0, 0.0, 0.0]","[0.0, 0.0, 0.0]","[0.0, 0.0, 0.0]","[-1.75, 0.835, 2.503]","[0.0, 0.0, 0.0]","[0.0, 0.0, 0.0]","[-1.347, 0.696, 1.6935]"
341,0,Cloud Points(m),"[0.0, 0.0, 0.0]","[0.0, 0.0, 0.0]","[0.0, 0.0, 0.0]","[-1.1, -0.394, 1.7825]","[0.0, 0.0, 0.0]","[0.0, 0.0, 0.0]","[0.0, 0.0, 0.0]","[-1.75, 0.835, 2.503]","[0.0, 0.0, 0.0]","[0.0, 0.0, 0.0]","[-1.347, 0.696, 1.6935]"
342,0,Keypoints(m),"[0.0, 0.0, 0.0]","[0.0, 0.0, 0.0]","[0.0, 0.0, 0.0]","[-1.365, -0.638, 1.823]","[-1.076, -0.368, 1.799]","[0.0, 0.0, 0.0]","[0.0, 0.0, 0.0]","[0.0, 0.0, 0.0]","[-1.616, -0.329, 1.8405]","[-1.517, -0.374, 1.874]","[-1.381, 0.131, 2.1565]","[-1.284, 0.655, 2.065]","[-1.814, -0.312, 1.927]","[-1.758, 0.229, 1.992]","[-1.468, 0.772, 1.879]","[0.0, 0.0, 0.0]","[0.0, 0.0, 0.0]","[0.0, 0.0, 0.0]","[0.0, 0.0, 0.0]","[0.0, 0.0, 0.0]","[0.0, 0.0, 0.0]"
342,0,Keypoints(image),"[0.0, 0.0, 0.0]","[25000.0, 3000.0, 595.073]","[64000.0, 3000.0, 602.1800000000001]","[107000.0, 87000.0, 829.075]","[171000.0, 149000.0, 845.7019999999999]","[3000.0, 3000.0, 84.0627]","[0.0, 0.0, 0.0]","[0.0, 0.0, 0.0]","[52000.0, 160000.0, 759.48]","[81000.0, 151000.0, 697.384]","[153000.0, 262000.0, 759.158]","[161000.0, 371000.0, 822.9119999999999]","[25000.0, 167000.0, 747.383]","[50000.0, 285000.0, 546.187]","[93000.0, 411000.0, 806.932]","[0.0, 0.0, 0.0]","[0.0, 0.0, 0.0]","[0.0, 0.0, 0.0]","[0.0, 0.0, 0.0]","[0.0, 0.0, 0.0]","[0.0, 0.0, 0.0]"
342,,Distance(m),0.0,0.0,0.0,0.0,0.0,0.0,0.0,0.0,0.0,0.0,0.0,0.0,0.0,0.0,0.0,0.0,0.0,0.0,0.0,0.0,0.0
342,0,Cloud Points(m),"[0.0, 0.0, 0.0]","[0.0, 0.0, 0.0]","[0.0, 0.0, 0.0]","[-1.076, -0.368, 1.799]","[0.0, 0.0, 0.0]","[0.0, 0.0, 0.0]","[0.0, 0.0, 0.0]","[0.0, 0.0, 0.0]","[-1.284, 0.655, 2.065]","[-1.814, -0.312, 1.927]","[-1.758, 0.229, 1.992]","[-1.468, 0.772, 1.879]"
342,0,Cloud Points(m),"[0.0, 0.0, 0.0]","[0.0, 0.0, 0.0]","[0.0, 0.0, 0.0]","[-1.076, -0.368, 1.799]","[0.0, 0.0, 0.0]","[0.0, 0.0, 0.0]","[0.0, 0.0, 0.0]","[0.0, 0.0, 0.0]","[-1.284, 0.655, 2.065]","[-1.814, -0.312, 1.927]","[-1.758, 0.229, 1.992]","[-1.468, 0.772, 1.879]"
342,0,Cloud Points(m),"[0.0, 0.0, 0.0]","[0.0, 0.0, 0.0]","[0.0, 0.0, 0.0]","[-1.076, -0.368, 1.799]","[0.0, 0.0, 0.0]","[0.0, 0.0, 0.0]","[0.0, 0.0, 0.0]","[0.0, 0.0, 0.0]","[-1.284, 0.655, 2.065]","[-1.814, -0.312, 1.927]","[-1.758, 0.229, 1.992]","[-1.468, 0.772, 1.879]"
342,0,Cloud Points(m),"[0.0, 0.0, 0.0]","[0.0, 0.0, 0.0]","[0.0, 0.0, 0.0]","[-1.076, -0.368, 1.799]","[0.0, 0.0, 0.0]","[0.0, 0.0, 0.0]","[0.0, 0.0, 0.0]","[0.0, 0.0, 0.0]","[-1.284, 0.655, 2.065]","[-1.814, -0.312, 1.927]","[-1.758, 0.229, 1.992]","[-1.468, 0.772, 1.879]"
342,0,Cloud Points(m),"[0.0, 0.0, 0.0]","[0.0, 0.0, 0.0]","[0.0, 0.0, 0.0]","[-1.076, -0.368, 1.799]","[0.0, 0.0, 0.0]","[0.0, 0.0, 0.0]","[0.0, 0.0, 0.0]","[0.0, 0.0, 0.0]","[-1.284, 0.655, 2.065]","[-1.814, -0.312, 1.927]","[-1.758, 0.229, 1.992]","[-1.468, 0.772, 1.879]"
342,0,Cloud Points(m),"[0.0, 0.0, 0.0]","[0.0, 0.0, 0.0]","[0.0, 0.0, 0.0]","[-1.076, -0.368, 1.799]","[0.0, 0.0, 0.0]","[0.0, 0.0, 0.0]","[0.0, 0.0, 0.0]","[0.0, 0.0, 0.0]","[-1.284, 0.655, 2.065]","[-1.814, -0.312, 1.927]","[-1.758, 0.229, 1.992]","[-1.468, 0.772, 1.879]"
342,0,Cloud Points(m),"[0.0, 0.0, 0.0]","[0.0, 0.0, 0.0]","[0.0, 0.0, 0.0]","[-1.076, -0.368, 1.799]","[0.0, 0.0, 0.0]","[0.0, 0.0, 0.0]","[0.0, 0.0, 0.0]","[0.0, 0.0, 0.0]","[-1.284, 0.655, 2.065]","[-1.814, -0.312, 1.927]","[-1.758, 0.229, 1.992]","[-1.468, 0.772, 1.879]"
343,0,Keypoints(m),"[0.0, 0.0, 0.0]","[0.0, 0.0, 0.0]","[0.0, 0.0, 0.0]","[-1.38, -0.645, 1.843]","[-1.084, -0.371, 1.813]","[0.0, 0.0, 0.0]","[0.0, 0.0, 0.0]","[0.0, 0.0, 0.0]","[-1.622, -0.337, 1.863]","[-1.54, -0.383, 1.9185]","[-1.349, 0.143, 2.106]","[-1.891, 0.964, 3.041]","[-1.913, -0.354, 2.037]","[-1.778, 0.202, 2.0525]","[-1.466, 0.762, 1.8765]","[0.0, 0.0, 0.0]","[0.0, 0.0, 0.0]","[0.0, 0.0, 0.0]","[0.0, 0.0, 0.0]","[0.0, 0.0, 0.0]","[0.0, 0.0, 0.0]"
343,0,Keypoints(image),"[0.0, 0.0, 0.0]","[29000.0, 3000.0, 631.8580000000001]","[64000.0, 3000.0, 680.817]","[107000.0, 87000.0, 826.855]","[171000.0, 149000.0, 865.305]","[3000.0, 3000.0, 212.22899999999998]","[0.0, 0.0, 0.0]","[0.0, 0.0, 0.0]","[55000.0, 159000.0, 775.185]","[84000.0, 151000.0, 708.431]","[153000.0, 265000.0, 798.008]","[161000.0, 371000.0, 847.7919999999999]","[26000.0, 162000.0, 763.171]","[57000.0, 278000.0, 631.693]","[93000.0, 409000.0, 782.953]","[0.0, 0.0, 0.0]","[0.0, 0.0, 0.0]","[0.0, 0.0, 0.0]","[0.0, 0.0, 0.0]","[0.0, 0.0, 0.0]","[0.0, 0.0, 0.0]"
343,,Distance(m),0.0,0.0,0.0,0.0,0.0,0.0,0.0,0.0,0.0,0.0,0.0,0.0,0.0,0.0,0.0,0.0,0.0,0.0,0.0,0.0,0.0
343,0,Cloud Points(m),"[0.0, 0.0, 0.0]","[0.0, 0.0, 0.0]","[0.0, 0.0, 0.0]","[-1.084, -0.371, 1.813]","[0.0, 0.0, 0.0]","[0.0, 0.0, 0.0]","[0.0, 0.0, 0.0]","[0.0, 0.0, 0.0]","[-1.891, 0.964, 3.041]","[-1.913, -0.354, 2.037]","[-1.778, 0.202, 2.0525]","[-1.466, 0.762, 1.8765]"
343,0,Cloud Points(m),"[0.0, 0.0, 0.0]","[0.0, 0.0, 0.0]","[0.0, 0.0, 0.0]","[-1.084, -0.371, 1.813]","[0.0, 0.0, 0.0]","[0.0, 0.0, 0.0]","[0.0, 0.0, 0.0]","[0.0, 0.0, 0.0]","[-1.891, 0.964, 3.041]","[-1.913, -0.354, 2.037]","[-1.778, 0.202, 2.0525]","[-1.466, 0.762, 1.8765]"
343,0,Cloud Points(m),"[0.0, 0.0, 0.0]","[0.0, 0.0, 0.0]","[0.0, 0.0, 0.0]","[-1.084, -0.371, 1.813]","[0.0, 0.0, 0.0]","[0.0, 0.0, 0.0]","[0.0, 0.0, 0.0]","[0.0, 0.0, 0.0]","[-1.891, 0.964, 3.041]","[-1.913, -0.354, 2.037]","[-1.778, 0.202, 2.0525]","[-1.466, 0.762, 1.8765]"
343,0,Cloud Points(m),"[0.0, 0.0, 0.0]","[0.0, 0.0, 0.0]","[0.0, 0.0, 0.0]","[-1.084, -0.371, 1.813]","[0.0, 0.0, 0.0]","[0.0, 0.0, 0.0]","[0.0, 0.0, 0.0]","[0.0, 0.0, 0.0]","[-1.891, 0.964, 3.041]","[-1.913, -0.354, 2.037]","[-1.778, 0.202, 2.0525]","[-1.466, 0.762, 1.8765]"
343,0,Cloud Points(m),"[0.0, 0.0, 0.0]","[0.0, 0.0, 0.0]","[0.0, 0.0, 0.0]","[-1.084, -0.371, 1.813]","[0.0, 0.0, 0.0]","[0.0, 0.0, 0.0]","[0.0, 0.0, 0.0]","[0.0, 0.0, 0.0]","[-1.891, 0.964, 3.041]","[-1.913, -0.354, 2.037]","[-1.778, 0.202, 2.0525]","[-1.466, 0.762, 1.8765]"
343,0,Cloud Points(m),"[0.0, 0.0, 0.0]","[0.0, 0.0, 0.0]","[0.0, 0.0, 0.0]","[-1.084, -0.371, 1.813]","[0.0, 0.0, 0.0]","[0.0, 0.0, 0.0]","[0.0, 0.0, 0.0]","[0.0, 0.0, 0.0]","[-1.891, 0.964, 3.041]","[-1.913, -0.354, 2.037]","[-1.778, 0.202, 2.0525]","[-1.466, 0.762, 1.8765]"
343,0,Cloud Points(m),"[0.0, 0.0, 0.0]","[0.0, 0.0, 0.0]","[0.0, 0.0, 0.0]","[-1.084, -0.371, 1.813]","[0.0, 0.0, 0.0]","[0.0, 0.0, 0.0]","[0.0, 0.0, 0.0]","[0.0, 0.0, 0.0]","[-1.891, 0.964, 3.041]","[-1.913, -0.354, 2.037]","[-1.778, 0.202, 2.0525]","[-1.466, 0.762, 1.8765]"
343,0,Cloud Points(m),"[0.0, 0.0, 0.0]","[0.0, 0.0, 0.0]","[0.0, 0.0, 0.0]","[-1.084, -0.371, 1.813]","[0.0, 0.0, 0.0]","[0.0, 0.0, 0.0]","[0.0, 0.0, 0.0]","[0.0, 0.0, 0.0]","[-1.891, 0.964, 3.041]","[-1.913, -0.354, 2.037]","[-1.778, 0.202, 2.0525]","[-1.466, 0.762, 1.8765]"
344,0,Keypoints(m),"[0.0, 0.0, 0.0]","[0.0, 0.0, 0.0]","[0.0, 0.0, 0.0]","[0.0, 0.0, 0.0]","[0.0, 0.0, 0.0]","[0.0, 0.0, 0.0]","[0.0, 0.0, 0.0]","[0.0, 0.0, 0.0]","[-1.53, -0.329, 1.868]","[-1.503, -0.4, 2.001]","[-1.358, 0.155, 2.28]","[-1.285, 0.719, 2.574]","[-1.651, -0.3, 1.876]","[-1.571, 0.176, 1.924]","[-1.451, 0.75, 1.879]","[0.0, 0.0, 0.0]","[0.0, 0.0, 0.0]","[0.0, 0.0, 0.0]","[0.0, 0.0, 0.0]","[0.0, 0.0, 0.0]","[0.0, 0.0, 0.0]"
344,0,Keypoints(image),"[0.0, 0.0, 0.0]","[51000.0, 9000.0, 684.104]","[0.0, 0.0, 0.0]","[0.0, 0.0, 0.0]","[0.0, 0.0, 0.0]","[0.0, 0.0, 0.0]","[0.0, 0.0, 0.0]","[0.0, 0.0, 0.0]","[77000.0, 161000.0, 789.005]","[106000.0, 151000.0, 656.49]","[172000.0, 265000.0, 749.1189999999999]","[213000.0, 355000.0, 835.698]","[51000.0, 168000.0, 675.2620000000001]","[78000.0, 275000.0, 604.947]","[97000.0, 406000.0, 795.95]","[0.0, 0.0, 0.0]","[0.0, 0.0, 0.0]","[0.0, 0.0, 0.0]","[0.0, 0.0, 0.0]","[51000.0, 3000.0, 268.35999999999996]","[0.0, 0.0, 0.0]"
344,,Distance(m),0.0,0.0,0.0,0.0,0.0,0.0,0.0,0.0,0.0,0.0,0.0,0.0,0.0,0.0,0.0,0.0,0.0,0.0,0.0,0.0,0.0
344,0,Cloud Points(m),"[0.0, 0.0, 0.0]","[0.0, 0.0, 0.0]","[0.0, 0.0, 0.0]","[-1.358, 0.155, 2.28]","[-1.285, 0.719, 2.574]","[-1.651, -0.3, 1.876]","[0.0, 0.0, 0.0]","[-1.451, 0.75, 1.879]","[0.0, 0.0, 0.0]"
344,0,Cloud Points(m),"[0.0, 0.0, 0.0]","[0.0, 0.0, 0.0]","[0.0, 0.0, 0.0]","[-1.358, 0.155, 2.28]","[-1.285, 0.719, 2.574]","[-1.651, -0.3, 1.876]","[0.0, 0.0, 0.0]","[-1.451, 0.75, 1.879]","[0.0, 0.0, 0.0]"
344,0,Cloud Points(m),"[0.0, 0.0, 0.0]","[0.0, 0.0, 0.0]","[0.0, 0.0, 0.0]","[-1.358, 0.155, 2.28]","[-1.285, 0.719, 2.574]","[-1.651, -0.3, 1.876]","[0.0, 0.0, 0.0]","[-1.451, 0.75, 1.879]","[0.0, 0.0, 0.0]"
344,0,Cloud Points(m),"[0.0, 0.0, 0.0]","[0.0, 0.0, 0.0]","[0.0, 0.0, 0.0]","[-1.358, 0.155, 2.28]","[-1.285, 0.719, 2.574]","[-1.651, -0.3, 1.876]","[0.0, 0.0, 0.0]","[-1.451, 0.75, 1.879]","[0.0, 0.0, 0.0]"
344,0,Cloud Points(m),"[0.0, 0.0, 0.0]","[0.0, 0.0, 0.0]","[0.0, 0.0, 0.0]","[-1.358, 0.155, 2.28]","[-1.285, 0.719, 2.574]","[-1.651, -0.3, 1.876]","[0.0, 0.0, 0.0]","[-1.451, 0.75, 1.879]","[0.0, 0.0, 0.0]"
344,0,Cloud Points(m),"[0.0, 0.0, 0.0]","[0.0, 0.0, 0.0]","[0.0, 0.0, 0.0]","[-1.358, 0.155, 2.28]","[-1.285, 0.719, 2.574]","[-1.651, -0.3, 1.876]","[0.0, 0.0, 0.0]","[-1.451, 0.75, 1.879]","[0.0, 0.0, 0.0]"
344,0,Cloud Points(m),"[0.0, 0.0, 0.0]","[0.0, 0.0, 0.0]","[0.0, 0.0, 0.0]","[-1.358, 0.155, 2.28]","[-1.285, 0.719, 2.574]","[-1.651, -0.3, 1.876]","[0.0, 0.0, 0.0]","[-1.451, 0.75, 1.879]","[0.0, 0.0, 0.0]"
344,0,Cloud Points(m),"[0.0, 0.0, 0.0]","[0.0, 0.0, 0.0]","[0.0, 0.0, 0.0]","[-1.358, 0.155, 2.28]","[-1.285, 0.719, 2.574]","[-1.651, -0.3, 1.876]","[0.0, 0.0, 0.0]","[-1.451, 0.75, 1.879]","[0.0, 0.0, 0.0]"
344,0,Cloud Points(m),"[0.0, 0.0, 0.0]","[0.0, 0.0, 0.0]","[0.0, 0.0, 0.0]","[-1.358, 0.155, 2.28]","[-1.285, 0.719, 2.574]","[-1.651, -0.3, 1.876]","[0.0, 0.0, 0.0]","[-1.451, 0.75, 1.879]","[0.0, 0.0, 0.0]"
345,0,Keypoints(m),"[0.0, 0.0, 0.0]","[-1.633, -0.936, 1.943]","[-1.523, -1.035, 2.01]","[-1.332, -0.651, 1.911]","[-1.056, -0.37, 1.853]","[-1.986, -0.997, 2.153]","[0.0, 0.0, 0.0]","[0.0, 0.0, 0.0]","[-1.552, -0.337, 1.992]","[-1.428, -0.371, 2.022]","[-1.226, 0.145, 2.133]","[-1.125, 0.622, 2.388]","[-1.73, -0.29, 2.0585]","[-1.646, 0.22, 2.087]","[-1.475, 0.76, 1.916]","[0.0, 0.0, 0.0]","[0.0, 0.0, 0.0]","[0.0, 0.0, 0.0]","[0.0, 0.0, 0.0]","[-1.626, -1.006, 1.946]","[0.0, 0.0, 0.0]"
345,0,Keypoints(image),"[0.0, 0.0, 0.0]","[68000.0, 31000.0, 736.51]","[103000.0, 17000.0, 768.536]","[129000.0, 91000.0, 851.968]","[183000.0, 151000.0, 923.972]","[33000.0, 39000.0, 622.9449999999999]","[53000.0, 101000.0, 136.72599999999997]","[0.0, 0.0, 0.0]","[94000.0, 164000.0, 679.327]","[125000.0, 158000.0, 607.6700000000001]","[181000.0, 265000.0, 699.939]","[225000.0, 347000.0, 875.0409999999999]","[68000.0, 176000.0, 706.252]","[90000.0, 281000.0, 648.409]","[98000.0, 405000.0, 824.661]","[0.0, 0.0, 0.0]","[0.0, 0.0, 0.0]","[0.0, 0.0, 0.0]","[46000.0, 3000.0, 87.60239999999999]","[70000.0, 16000.0, 423.682]","[0.0, 0.0, 0.0]"
345,1,Keypoints(m),"[0.0, 0.0, 0.0]","[0.0, 0.0, 0.0]","[0.0, 0.0, 0.0]","[0.0, 0.0, 0.0]","[0.0, 0.0, 0.0]","[0.0, 0.0, 0.0]","[0.0, 0.0, 0.0]","[0.0, 0.0, 0.0]","[0.0, 0.0, 0.0]","[-2.377, -0.411, 2.531]","[0.0, 0.0, 0.0]","[0.0, 0.0, 0.0]","[0.0, 0.0, 0.0]","[0.0, 0.0, 0.0]","[0.0, 0.0, 0.0]","[0.0, 0.0, 0.0]","[0.0, 0.0, 0.0]","[0.0, 0.0, 0.0]","[0.0, 0.0, 0.0]","[0.0, 0.0, 0.0]","[0.0, 0.0, 0.0]"
345,1,Keypoints(image),"[0.0, 0.0, 0.0]","[3000.0, 47000.0, 62.818]","[3000.0, 46000.0, 623.832]","[27000.0, 74000.0, 86.4215]","[0.0, 0.0, 0.0]","[0.0, 0.0, 0.0]","[0.0, 0.0, 0.0]","[0.0, 0.0, 0.0]","[0.0, 0.0, 0.0]","[26000.0, 167000.0, 472.501]","[59000.0, 279000.0, 207.769]","[57000.0, 379000.0, 170.041]","[0.0, 0.0, 0.0]","[0.0, 0.0, 0.0]","[0.0, 0.0, 0.0]","[0.0, 0.0, 0.0]","[0.0, 0.0, 0.0]","[0.0, 0.0, 0.0]","[0.0, 0.0, 0.0]","[0.0, 0.0, 0.0]","[0.0, 0.0, 0.0]"
345,,Distance(m),0.0,2.705186500040247,2.725959280693679,2.4186661613376903,0.0,0.0,0.0,0.0,0.0,1.0776279506397373,2.464506035699649,2.712020095795752,0.0,0.0,0.0,0.0,0.0,0.0,0.0,0.0,0.0
345,1,Cloud Points(m),"[0.0, 0.0, 0.0]","[0.0, 0.0, 0.0]","[-2.128, -0.865, 2.272]","[0.0, 0.0, 0.0]","[-2.148, 0.251, 2.494]","[-2.192, 0.85, 2.531]"
345,1,Cloud Points(m),"[0.0, 0.0, 0.0]","[0.0, 0.0, 0.0]","[-2.128, -0.865, 2.272]","[0.0, 0.0, 0.0]","[-2.148, 0.251, 2.494]","[-2.192, 0.85, 2.531]"
345,1,Cloud Points(m),"[0.0, 0.0, 0.0]","[0.0, 0.0, 0.0]","[-2.128, -0.865, 2.272]","[0.0, 0.0, 0.0]","[-2.148, 0.251, 2.494]","[-2.192, 0.85, 2.531]"
345,1,Cloud Points(m),"[0.0, 0.0, 0.0]","[0.0, 0.0, 0.0]","[-2.128, -0.865, 2.272]","[0.0, 0.0, 0.0]","[-2.148, 0.251, 2.494]","[-2.192, 0.85, 2.531]"
345,1,Cloud Points(m),"[0.0, 0.0, 0.0]","[0.0, 0.0, 0.0]","[-2.128, -0.865, 2.272]","[0.0, 0.0, 0.0]","[-2.148, 0.251, 2.494]","[-2.192, 0.85, 2.531]"
345,1,Cloud Points(m),"[0.0, 0.0, 0.0]","[0.0, 0.0, 0.0]","[-2.128, -0.865, 2.272]","[0.0, 0.0, 0.0]","[-2.148, 0.251, 2.494]","[-2.192, 0.85, 2.531]"
345,1,Cloud Points(m),"[0.0, 0.0, 0.0]","[0.0, 0.0, 0.0]","[-2.128, -0.865, 2.272]","[0.0, 0.0, 0.0]","[-2.148, 0.251, 2.494]","[-2.192, 0.85, 2.531]"
345,1,Cloud Points(m),"[0.0, 0.0, 0.0]","[0.0, 0.0, 0.0]","[-2.128, -0.865, 2.272]","[0.0, 0.0, 0.0]","[-2.148, 0.251, 2.494]","[-2.192, 0.85, 2.531]"
345,1,Cloud Points(m),"[0.0, 0.0, 0.0]","[0.0, 0.0, 0.0]","[-2.128, -0.865, 2.272]","[0.0, 0.0, 0.0]","[-2.148, 0.251, 2.494]","[-2.192, 0.85, 2.531]"
345,1,Cloud Points(m),"[0.0, 0.0, 0.0]","[0.0, 0.0, 0.0]","[-2.128, -0.865, 2.272]","[0.0, 0.0, 0.0]","[-2.148, 0.251, 2.494]","[-2.192, 0.85, 2.531]"
346,0,Keypoints(m),"[0.0, 0.0, 0.0]","[-1.615, -0.933, 1.995]","[-1.491, -1.01, 2.037]","[-1.323, -0.64, 1.9575]","[-1.058, -0.379, 1.895]","[-2.034, -1.018, 2.28]","[0.0, 0.0, 0.0]","[0.0, 0.0, 0.0]","[-1.516, -0.309, 2.025]","[-1.516, -0.382, 2.2275]","[-1.203, 0.154, 2.1915]","[-1.099, 0.63, 2.418]","[-1.652, -0.268, 2.04]","[-1.611, 0.221, 2.0995]","[-1.469, 0.744, 1.908]","[0.0, 0.0, 0.0]","[0.0, 0.0, 0.0]","[0.0, 0.0, 0.0]","[0.0, 0.0, 0.0]","[-1.606, -0.965, 1.983]","[0.0, 0.0, 0.0]"
346,0,Keypoints(image),"[91000.0, 3000.0, 116.62599999999999]","[81000.0, 37000.0, 784.2479999999999]","[114000.0, 25000.0, 794.7239999999999]","[138000.0, 97000.0, 832.038]","[188000.0, 151000.0, 846.8670000000001]","[46000.0, 46000.0, 759.578]","[0.0, 0.0, 0.0]","[0.0, 0.0, 0.0]","[107000.0, 171000.0, 765.6429999999999]","[136000.0, 163000.0, 608.081]","[192000.0, 266000.0, 753.358]","[232000.0, 347000.0, 838.527]","[81000.0, 180000.0, 747.398]","[99000.0, 281000.0, 689.621]","[98000.0, 402000.0, 862.446]","[0.0, 0.0, 0.0]","[0.0, 0.0, 0.0]","[0.0, 0.0, 0.0]","[0.0, 0.0, 0.0]","[81000.0, 29000.0, 518.8770000000001]","[0.0, 0.0, 0.0]"
346,1,Keypoints(m),"[-2.329, -1.321, 2.531]","[0.0, 0.0, 0.0]","[-2.3, -1.097, 2.431]","[0.0, 0.0, 0.0]","[0.0, 0.0, 0.0]","[0.0, 0.0, 0.0]","[0.0, 0.0, 0.0]","[0.0, 0.0, 0.0]","[-2.432, -0.344, 2.564]","[-2.381, -0.381, 2.614]","[-2.2, 0.268, 2.54]","[0.0, 0.0, 0.0]","[0.0, 0.0, 0.0]","[0.0, 0.0, 0.0]","[0.0, 0.0, 0.0]","[0.0, 0.0, 0.0]","[0.0, 0.0, 0.0]","[0.0, 0.0, 0.0]","[0.0, 0.0, 0.0]","[0.0, 0.0, 0.0]","[0.0, 0.0, 0.0]"
346,1,Keypoints(image),"[34000.0, 14000.0, 834.646]","[3000.0, 48000.0, 303.484]","[23000.0, 44000.0, 725.487]","[50000.0, 89000.0, 91.4431]","[0.0, 0.0, 0.0]","[0.0, 0.0, 0.0]","[0.0, 0.0, 0.0]","[0.0, 0.0, 0.0]","[22000.0, 179000.0, 541.223]","[38000.0, 174000.0, 527.451]","[57000.0, 281000.0, 429.22700000000003]","[67000.0, 380000.0, 173.66500000000002]","[0.0, 0.0, 0.0]","[0.0, 0.0, 0.0]","[0.0, 0.0, 0.0]","[27000.0, 3000.0, 847.898]","[37000.0, 3000.0, 307.03499999999997]","[0.0, 0.0, 0.0]","[0.0, 0.0, 0.0]","[3000.0, 38000.0, 370.603]","[0.0, 0.0, 0.0]"
346,,Distance(m),3.6844596618771663,2.7310692045424263,0.9040387159851064,2.447802126398292,0.0,0.0,0.0,0.0,1.0633917434323064,0.9474218965170691,1.062288684868666,2.7297298401123875,0.0,0.0,0.0,0.0,0.0,0.0,0.0,2.7281403922818925,0.0
346,1,Cloud Points(m),"[0.0, 0.0, 0.0]","[0.0, 0.0, 0.0]","[0.0, 0.0, 0.0]","[-1.999, -0.783, 2.2645]","[-2.432, -0.344, 2.564]","[0.0, 0.0, 0.0]","[0.0, 0.0, 0.0]","[-2.133, 0.856, 2.531]","[0.0, 0.0, 0.0]","[0.0, 0.0, 0.0]","[0.0, 0.0, 0.0]"
346,1,Cloud Points(m),"[0.0, 0.0, 0.0]","[0.0, 0.0, 0.0]","[0.0, 0.0, 0.0]","[-1.999, -0.783, 2.2645]","[-2.432, -0.344, 2.564]","[0.0, 0.0, 0.0]","[0.0, 0.0, 0.0]","[-2.133, 0.856, 2.531]","[0.0, 0.0, 0.0]","[0.0, 0.0, 0.0]","[0.0, 0.0, 0.0]"
346,1,Cloud Points(m),"[0.0, 0.0, 0.0]","[0.0, 0.0, 0.0]","[0.0, 0.0, 0.0]","[-1.999, -0.783, 2.2645]","[-2.432, -0.344, 2.564]","[0.0, 0.0, 0.0]","[0.0, 0.0, 0.0]","[-2.133, 0.856, 2.531]","[0.0, 0.0, 0.0]","[0.0, 0.0, 0.0]","[0.0, 0.0, 0.0]"
346,1,Cloud Points(m),"[0.0, 0.0, 0.0]","[0.0, 0.0, 0.0]","[0.0, 0.0, 0.0]","[-1.999, -0.783, 2.2645]","[-2.432, -0.344, 2.564]","[0.0, 0.0, 0.0]","[0.0, 0.0, 0.0]","[-2.133, 0.856, 2.531]","[0.0, 0.0, 0.0]","[0.0, 0.0, 0.0]","[0.0, 0.0, 0.0]"
346,1,Cloud Points(m),"[0.0, 0.0, 0.0]","[0.0, 0.0, 0.0]","[0.0, 0.0, 0.0]","[-1.999, -0.783, 2.2645]","[-2.432, -0.344, 2.564]","[0.0, 0.0, 0.0]","[0.0, 0.0, 0.0]","[-2.133, 0.856, 2.531]","[0.0, 0.0, 0.0]","[0.0, 0.0, 0.0]","[0.0, 0.0, 0.0]"
346,1,Cloud Points(m),"[0.0, 0.0, 0.0]","[0.0, 0.0, 0.0]","[0.0, 0.0, 0.0]","[-1.999, -0.783, 2.2645]","[-2.432, -0.344, 2.564]","[0.0, 0.0, 0.0]","[0.0, 0.0, 0.0]","[-2.133, 0.856, 2.531]","[0.0, 0.0, 0.0]","[0.0, 0.0, 0.0]","[0.0, 0.0, 0.0]"
346,1,Cloud Points(m),"[0.0, 0.0, 0.0]","[0.0, 0.0, 0.0]","[0.0, 0.0, 0.0]","[-1.999, -0.783, 2.2645]","[-2.432, -0.344, 2.564]","[0.0, 0.0, 0.0]","[0.0, 0.0, 0.0]","[-2.133, 0.856, 2.531]","[0.0, 0.0, 0.0]","[0.0, 0.0, 0.0]","[0.0, 0.0, 0.0]"
346,1,Cloud Points(m),"[0.0, 0.0, 0.0]","[0.0, 0.0, 0.0]","[0.0, 0.0, 0.0]","[-1.999, -0.783, 2.2645]","[-2.432, -0.344, 2.564]","[0.0, 0.0, 0.0]","[0.0, 0.0, 0.0]","[-2.133, 0.856, 2.531]","[0.0, 0.0, 0.0]","[0.0, 0.0, 0.0]","[0.0, 0.0, 0.0]"
346,1,Cloud Points(m),"[0.0, 0.0, 0.0]","[0.0, 0.0, 0.0]","[0.0, 0.0, 0.0]","[-1.999, -0.783, 2.2645]","[-2.432, -0.344, 2.564]","[0.0, 0.0, 0.0]","[0.0, 0.0, 0.0]","[-2.133, 0.856, 2.531]","[0.0, 0.0, 0.0]","[0.0, 0.0, 0.0]","[0.0, 0.0, 0.0]"
346,1,Cloud Points(m),"[0.0, 0.0, 0.0]","[0.0, 0.0, 0.0]","[0.0, 0.0, 0.0]","[-1.999, -0.783, 2.2645]","[-2.432, -0.344, 2.564]","[0.0, 0.0, 0.0]","[0.0, 0.0, 0.0]","[-2.133, 0.856, 2.531]","[0.0, 0.0, 0.0]","[0.0, 0.0, 0.0]","[0.0, 0.0, 0.0]"
346,1,Cloud Points(m),"[0.0, 0.0, 0.0]","[0.0, 0.0, 0.0]","[0.0, 0.0, 0.0]","[-1.999, -0.783, 2.2645]","[-2.432, -0.344, 2.564]","[0.0, 0.0, 0.0]","[0.0, 0.0, 0.0]","[-2.133, 0.856, 2.531]","[0.0, 0.0, 0.0]","[0.0, 0.0, 0.0]","[0.0, 0.0, 0.0]"
347,0,Keypoints(m),"[0.0, 0.0, 0.0]","[-1.589, -0.929, 2.0585]","[-1.465, -1.033, 2.103]","[-1.308, -0.653, 2.013]","[-1.042, -0.372, 1.908]","[-2.035, -1.022, 2.3755]","[0.0, 0.0, 0.0]","[0.0, 0.0, 0.0]","[-1.489, -0.313, 2.08]","[-1.302, -0.327, 2.019]","[-1.228, 0.158, 2.327]","[-1.092, 0.642, 2.44]","[-1.606, -0.269, 2.0805]","[-1.587, 0.236, 2.14]","[-1.469, 0.708, 1.908]","[0.0, 0.0, 0.0]","[0.0, 0.0, 0.0]","[0.0, 0.0, 0.0]","[-1.886, -1.129, 2.276]","[-1.587, -0.95, 2.062]","[0.0, 0.0, 0.0]"
347,0,Keypoints(image),"[110000.0, 3000.0, 407.251]","[97000.0, 44000.0, 784.443]","[129000.0, 27000.0, 818.883]","[149000.0, 98000.0, 865.923]","[193000.0, 153000.0, 859.917]","[61000.0, 53000.0, 681.544]","[0.0, 0.0, 0.0]","[0.0, 0.0, 0.0]","[121000.0, 172000.0, 759.87]","[151000.0, 167000.0, 728.462]","[201000.0, 265000.0, 788.5659999999999]","[235000.0, 348000.0, 919.1589999999999]","[97000.0, 181000.0, 722.422]","[110000.0, 283000.0, 696.981]","[98000.0, 394000.0, 820.439]","[0.0, 0.0, 0.0]","[0.0, 0.0, 0.0]","[112000.0, 3000.0, 326.447]","[73000.0, 25000.0, 369.883]","[98000.0, 40000.0, 658.3389999999999]","[0.0, 0.0, 0.0]"
347,1,Keypoints(m),"[-2.344, -1.352, 2.614]","[-2.486, -1.079, 2.564]","[-2.311, -1.125, 2.531]","[-1.931, -0.658, 2.351]","[0.0, 0.0, 0.0]","[0.0, 0.0, 0.0]","[0.0, 0.0, 0.0]","[0.0, 0.0, 0.0]","[-2.341, -0.366, 2.55]","[-2.288, -0.388, 2.579]","[-2.145, 0.243, 2.531]","[-2.211, 0.9, 2.624]","[-2.452, -0.34, 2.579]","[0.0, 0.0, 0.0]","[0.0, 0.0, 0.0]","[0.0, 0.0, 0.0]","[0.0, 0.0, 0.0]","[-2.475, -1.342, 2.559]","[0.0, 0.0, 0.0]","[-2.467, -1.139, 2.55]","[0.0, 0.0, 0.0]"
347,1,Keypoints(image),"[44000.0, 16000.0, 859.3309999999999]","[13000.0, 57000.0, 747.2769999999999]","[37000.0, 47000.0, 808.639]","[76000.0, 117000.0, 351.089]","[0.0, 0.0, 0.0]","[3000.0, 63000.0, 283.46999999999997]","[0.0, 0.0, 0.0]","[0.0, 0.0, 0.0]","[35000.0, 175000.0, 781.342]","[48000.0, 172000.0, 725.549]","[65000.0, 277000.0, 556.686]","[67000.0, 382000.0, 692.9699999999999]","[21000.0, 180000.0, 728.068]","[39000.0, 278000.0, 209.976]","[0.0, 0.0, 0.0]","[37000.0, 3000.0, 889.719]","[47000.0, 3000.0, 416.758]","[14000.0, 13000.0, 855.475]","[0.0, 0.0, 0.0]","[14000.0, 46000.0, 816.149]","[0.0, 0.0, 0.0]"
347,,Distance(m),3.7623444818357608,1.0404995194616864,0.9525565600005073,0.7088003950337499,0.0,3.290700419363634,0.0,0.0,0.9744808874472604,1.1355690203593967,0.9432550026371448,1.1630051590599244,0.9845096495210192,2.6746710078063805,0.0,0.0,0.0,3.8046116753224632,0.0,1.0238481332697735,0.0
347,1,Cloud Points(m),"[0.0, 0.0, 0.0]","[0.0, 0.0, 0.0]","[0.0, 0.0, 0.0]","[-1.931, -0.658, 2.351]","[0.0, 0.0, 0.0]","[0.0, 0.0, 0.0]","[0.0, 0.0, 0.0]","[0.0, 0.0, 0.0]","[-2.211, 0.9, 2.624]","[-2.452, -0.34, 2.579]","[-2.37, 0.257, 2.609]","[0.0, 0.0, 0.0]","[0.0, 0.0, 0.0]","[-2.475, -1.342, 2.559]","[0.0, 0.0, 0.0]"
347,1,Cloud Points(m),"[0.0, 0.0, 0.0]","[0.0, 0.0, 0.0]","[0.0, 0.0, 0.0]","[-1.931, -0.658, 2.351]","[0.0, 0.0, 0.0]","[0.0, 0.0, 0.0]","[0.0, 0.0, 0.0]","[0.0, 0.0, 0.0]","[-2.211, 0.9, 2.624]","[-2.452, -0.34, 2.579]","[-2.37, 0.257, 2.609]","[0.0, 0.0, 0.0]","[0.0, 0.0, 0.0]","[-2.475, -1.342, 2.559]","[0.0, 0.0, 0.0]"
347,1,Cloud Points(m),"[0.0, 0.0, 0.0]","[0.0, 0.0, 0.0]","[0.0, 0.0, 0.0]","[-1.931, -0.658, 2.351]","[0.0, 0.0, 0.0]","[0.0, 0.0, 0.0]","[0.0, 0.0, 0.0]","[0.0, 0.0, 0.0]","[-2.211, 0.9, 2.624]","[-2.452, -0.34, 2.579]","[-2.37, 0.257, 2.609]","[0.0, 0.0, 0.0]","[0.0, 0.0, 0.0]","[-2.475, -1.342, 2.559]","[0.0, 0.0, 0.0]"
347,1,Cloud Points(m),"[0.0, 0.0, 0.0]","[0.0, 0.0, 0.0]","[0.0, 0.0, 0.0]","[-1.931, -0.658, 2.351]","[0.0, 0.0, 0.0]","[0.0, 0.0, 0.0]","[0.0, 0.0, 0.0]","[0.0, 0.0, 0.0]","[-2.211, 0.9, 2.624]","[-2.452, -0.34, 2.579]","[-2.37, 0.257, 2.609]","[0.0, 0.0, 0.0]","[0.0, 0.0, 0.0]","[-2.475, -1.342, 2.559]","[0.0, 0.0, 0.0]"
347,1,Cloud Points(m),"[0.0, 0.0, 0.0]","[0.0, 0.0, 0.0]","[0.0, 0.0, 0.0]","[-1.931, -0.658, 2.351]","[0.0, 0.0, 0.0]","[0.0, 0.0, 0.0]","[0.0, 0.0, 0.0]","[0.0, 0.0, 0.0]","[-2.211, 0.9, 2.624]","[-2.452, -0.34, 2.579]","[-2.37, 0.257, 2.609]","[0.0, 0.0, 0.0]","[0.0, 0.0, 0.0]","[-2.475, -1.342, 2.559]","[0.0, 0.0, 0.0]"
347,1,Cloud Points(m),"[0.0, 0.0, 0.0]","[0.0, 0.0, 0.0]","[0.0, 0.0, 0.0]","[-1.931, -0.658, 2.351]","[0.0, 0.0, 0.0]","[0.0, 0.0, 0.0]","[0.0, 0.0, 0.0]","[0.0, 0.0, 0.0]","[-2.211, 0.9, 2.624]","[-2.452, -0.34, 2.579]","[-2.37, 0.257, 2.609]","[0.0, 0.0, 0.0]","[0.0, 0.0, 0.0]","[-2.475, -1.342, 2.559]","[0.0, 0.0, 0.0]"
347,1,Cloud Points(m),"[0.0, 0.0, 0.0]","[0.0, 0.0, 0.0]","[0.0, 0.0, 0.0]","[-1.931, -0.658, 2.351]","[0.0, 0.0, 0.0]","[0.0, 0.0, 0.0]","[0.0, 0.0, 0.0]","[0.0, 0.0, 0.0]","[-2.211, 0.9, 2.624]","[-2.452, -0.34, 2.579]","[-2.37, 0.257, 2.609]","[0.0, 0.0, 0.0]","[0.0, 0.0, 0.0]","[-2.475, -1.342, 2.559]","[0.0, 0.0, 0.0]"
347,1,Cloud Points(m),"[0.0, 0.0, 0.0]","[0.0, 0.0, 0.0]","[0.0, 0.0, 0.0]","[-1.931, -0.658, 2.351]","[0.0, 0.0, 0.0]","[0.0, 0.0, 0.0]","[0.0, 0.0, 0.0]","[0.0, 0.0, 0.0]","[-2.211, 0.9, 2.624]","[-2.452, -0.34, 2.579]","[-2.37, 0.257, 2.609]","[0.0, 0.0, 0.0]","[0.0, 0.0, 0.0]","[-2.475, -1.342, 2.559]","[0.0, 0.0, 0.0]"
347,1,Cloud Points(m),"[0.0, 0.0, 0.0]","[0.0, 0.0, 0.0]","[0.0, 0.0, 0.0]","[-1.931, -0.658, 2.351]","[0.0, 0.0, 0.0]","[0.0, 0.0, 0.0]","[0.0, 0.0, 0.0]","[0.0, 0.0, 0.0]","[-2.211, 0.9, 2.624]","[-2.452, -0.34, 2.579]","[-2.37, 0.257, 2.609]","[0.0, 0.0, 0.0]","[0.0, 0.0, 0.0]","[-2.475, -1.342, 2.559]","[0.0, 0.0, 0.0]"
347,1,Cloud Points(m),"[0.0, 0.0, 0.0]","[0.0, 0.0, 0.0]","[0.0, 0.0, 0.0]","[-1.931, -0.658, 2.351]","[0.0, 0.0, 0.0]","[0.0, 0.0, 0.0]","[0.0, 0.0, 0.0]","[0.0, 0.0, 0.0]","[-2.211, 0.9, 2.624]","[-2.452, -0.34, 2.579]","[-2.37, 0.257, 2.609]","[0.0, 0.0, 0.0]","[0.0, 0.0, 0.0]","[-2.475, -1.342, 2.559]","[0.0, 0.0, 0.0]"
347,1,Cloud Points(m),"[0.0, 0.0, 0.0]","[0.0, 0.0, 0.0]","[0.0, 0.0, 0.0]","[-1.931, -0.658, 2.351]","[0.0, 0.0, 0.0]","[0.0, 0.0, 0.0]","[0.0, 0.0, 0.0]","[0.0, 0.0, 0.0]","[-2.211, 0.9, 2.624]","[-2.452, -0.34, 2.579]","[-2.37, 0.257, 2.609]","[0.0, 0.0, 0.0]","[0.0, 0.0, 0.0]","[-2.475, -1.342, 2.559]","[0.0, 0.0, 0.0]"
347,1,Cloud Points(m),"[0.0, 0.0, 0.0]","[0.0, 0.0, 0.0]","[0.0, 0.0, 0.0]","[-1.931, -0.658, 2.351]","[0.0, 0.0, 0.0]","[0.0, 0.0, 0.0]","[0.0, 0.0, 0.0]","[0.0, 0.0, 0.0]","[-2.211, 0.9, 2.624]","[-2.452, -0.34, 2.579]","[-2.37, 0.257, 2.609]","[0.0, 0.0, 0.0]","[0.0, 0.0, 0.0]","[-2.475, -1.342, 2.559]","[0.0, 0.0, 0.0]"
348,0,Keypoints(m),"[0.0, 0.0, 0.0]","[-1.629, -0.958, 2.1225]","[-1.472, -1.028, 2.113]","[-1.356, -0.677, 2.087]","[-1.108, -0.391, 2.028]","[-2.117, -1.075, 2.512]","[0.0, 0.0, 0.0]","[0.0, 0.0, 0.0]","[-1.556, -0.329, 2.188]","[-1.395, -0.348, 2.1775]","[-1.27, 0.168, 2.397]","[-1.096, 0.644, 2.449]","[-1.782, -0.299, 2.315]","[-1.906, 0.296, 2.579]","[-1.426, 0.685, 1.858]","[0.0, 0.0, 0.0]","[0.0, 0.0, 0.0]","[0.0, 0.0, 0.0]","[0.0, 0.0, 0.0]","[-1.626, -0.986, 2.119]","[0.0, 0.0, 0.0]"
348,0,Keypoints(image),"[112000.0, 3000.0, 573.957]","[99000.0, 44000.0, 880.761]","[129000.0, 29000.0, 847.626]","[149000.0, 98000.0, 887.3649999999999]","[193000.0, 154000.0, 865.449]","[67000.0, 54000.0, 838.539]","[0.0, 0.0, 0.0]","[0.0, 0.0, 0.0]","[123000.0, 172000.0, 813.303]","[153000.0, 168000.0, 783.2679999999999]","[200000.0, 266000.0, 805.663]","[235000.0, 348000.0, 921.2289999999999]","[98000.0, 181000.0, 845.761]","[111000.0, 285000.0, 751.669]","[99000.0, 393000.0, 856.5129999999999]","[0.0, 0.0, 0.0]","[0.0, 0.0, 0.0]","[116000.0, 3000.0, 412.842]","[76000.0, 25000.0, 429.49199999999996]","[99000.0, 38000.0, 744.6329999999999]","[0.0, 0.0, 0.0]"
348,1,Keypoints(m),"[-2.349, -1.367, 2.619]","[-2.531, -1.113, 2.629]","[-2.355, -1.146, 2.579]","[-2.083, -0.739, 2.5355]","[0.0, 0.0, 0.0]","[0.0, 0.0, 0.0]","[0.0, 0.0, 0.0]","[0.0, 0.0, 0.0]","[-2.407, -0.383, 2.629]","[-2.224, -0.386, 2.526]","[-2.177, 0.248, 2.584]","[-2.233, 0.909, 2.6495]","[-2.529, -0.35, 2.66]","[-2.29, 0.228, 2.629]","[0.0, 0.0, 0.0]","[0.0, 0.0, 0.0]","[0.0, 0.0, 0.0]","[-2.524, -1.362, 2.609]","[0.0, 0.0, 0.0]","[-2.505, -1.165, 2.609]","[0.0, 0.0, 0.0]"
348,1,Keypoints(image),"[44000.0, 14000.0, 839.48]","[16000.0, 56000.0, 788.1709999999999]","[37000.0, 47000.0, 838.284]","[76000.0, 112000.0, 427.751]","[0.0, 0.0, 0.0]","[3000.0, 60000.0, 437.486]","[0.0, 0.0, 0.0]","[0.0, 0.0, 0.0]","[36000.0, 174000.0, 877.309]","[51000.0, 171000.0, 790.14]","[67000.0, 277000.0, 724.8559999999999]","[67000.0, 382000.0, 837.9879999999999]","[21000.0, 180000.0, 804.9889999999999]","[55000.0, 273000.0, 257.811]","[0.0, 0.0, 0.0]","[37000.0, 3000.0, 875.426]","[47000.0, 3000.0, 524.707]","[14000.0, 14000.0, 885.696]","[0.0, 0.0, 0.0]","[17000.0, 46000.0, 822.8729999999999]","[0.0, 0.0, 0.0]"
348,,Distance(m),3.774341134555805,1.0460264098004408,1.0053700811144124,0.8564608864390714,0.0,3.4565095110530217,0.0,0.0,0.9599989583327682,0.9000762467702389,0.9295256854977166,1.1845650045480831,0.8243997816593598,0.39316663134096214,0.0,0.0,0.0,3.877176936896226,0.0,1.0221457821661253,0.0
348,1,Cloud Points(m),"[0.0, 0.0, 0.0]","[0.0, 0.0, 0.0]","[0.0, 0.0, 0.0]","[-2.083, -0.739, 2.5355]","[0.0, 0.0, 0.0]","[0.0, 0.0, 0.0]","[0.0, 0.0, 0.0]","[0.0, 0.0, 0.0]","[-2.233, 0.909, 2.6495]","[-2.529, -0.35, 2.66]","[0.0, 0.0, 0.0]","[0.0, 0.0, 0.0]","[0.0, 0.0, 0.0]","[-2.524, -1.362, 2.609]","[0.0, 0.0, 0.0]"
348,1,Cloud Points(m),"[0.0, 0.0, 0.0]","[0.0, 0.0, 0.0]","[0.0, 0.0, 0.0]","[-2.083, -0.739, 2.5355]","[0.0, 0.0, 0.0]","[0.0, 0.0, 0.0]","[0.0, 0.0, 0.0]","[0.0, 0.0, 0.0]","[-2.233, 0.909, 2.6495]","[-2.529, -0.35, 2.66]","[0.0, 0.0, 0.0]","[0.0, 0.0, 0.0]","[0.0, 0.0, 0.0]","[-2.524, -1.362, 2.609]","[0.0, 0.0, 0.0]"
348,1,Cloud Points(m),"[0.0, 0.0, 0.0]","[0.0, 0.0, 0.0]","[0.0, 0.0, 0.0]","[-2.083, -0.739, 2.5355]","[0.0, 0.0, 0.0]","[0.0, 0.0, 0.0]","[0.0, 0.0, 0.0]","[0.0, 0.0, 0.0]","[-2.233, 0.909, 2.6495]","[-2.529, -0.35, 2.66]","[0.0, 0.0, 0.0]","[0.0, 0.0, 0.0]","[0.0, 0.0, 0.0]","[-2.524, -1.362, 2.609]","[0.0, 0.0, 0.0]"
348,1,Cloud Points(m),"[0.0, 0.0, 0.0]","[0.0, 0.0, 0.0]","[0.0, 0.0, 0.0]","[-2.083, -0.739, 2.5355]","[0.0, 0.0, 0.0]","[0.0, 0.0, 0.0]","[0.0, 0.0, 0.0]","[0.0, 0.0, 0.0]","[-2.233, 0.909, 2.6495]","[-2.529, -0.35, 2.66]","[0.0, 0.0, 0.0]","[0.0, 0.0, 0.0]","[0.0, 0.0, 0.0]","[-2.524, -1.362, 2.609]","[0.0, 0.0, 0.0]"
348,1,Cloud Points(m),"[0.0, 0.0, 0.0]","[0.0, 0.0, 0.0]","[0.0, 0.0, 0.0]","[-2.083, -0.739, 2.5355]","[0.0, 0.0, 0.0]","[0.0, 0.0, 0.0]","[0.0, 0.0, 0.0]","[0.0, 0.0, 0.0]","[-2.233, 0.909, 2.6495]","[-2.529, -0.35, 2.66]","[0.0, 0.0, 0.0]","[0.0, 0.0, 0.0]","[0.0, 0.0, 0.0]","[-2.524, -1.362, 2.609]","[0.0, 0.0, 0.0]"
348,1,Cloud Points(m),"[0.0, 0.0, 0.0]","[0.0, 0.0, 0.0]","[0.0, 0.0, 0.0]","[-2.083, -0.739, 2.5355]","[0.0, 0.0, 0.0]","[0.0, 0.0, 0.0]","[0.0, 0.0, 0.0]","[0.0, 0.0, 0.0]","[-2.233, 0.909, 2.6495]","[-2.529, -0.35, 2.66]","[0.0, 0.0, 0.0]","[0.0, 0.0, 0.0]","[0.0, 0.0, 0.0]","[-2.524, -1.362, 2.609]","[0.0, 0.0, 0.0]"
348,1,Cloud Points(m),"[0.0, 0.0, 0.0]","[0.0, 0.0, 0.0]","[0.0, 0.0, 0.0]","[-2.083, -0.739, 2.5355]","[0.0, 0.0, 0.0]","[0.0, 0.0, 0.0]","[0.0, 0.0, 0.0]","[0.0, 0.0, 0.0]","[-2.233, 0.909, 2.6495]","[-2.529, -0.35, 2.66]","[0.0, 0.0, 0.0]","[0.0, 0.0, 0.0]","[0.0, 0.0, 0.0]","[-2.524, -1.362, 2.609]","[0.0, 0.0, 0.0]"
348,1,Cloud Points(m),"[0.0, 0.0, 0.0]","[0.0, 0.0, 0.0]","[0.0, 0.0, 0.0]","[-2.083, -0.739, 2.5355]","[0.0, 0.0, 0.0]","[0.0, 0.0, 0.0]","[0.0, 0.0, 0.0]","[0.0, 0.0, 0.0]","[-2.233, 0.909, 2.6495]","[-2.529, -0.35, 2.66]","[0.0, 0.0, 0.0]","[0.0, 0.0, 0.0]","[0.0, 0.0, 0.0]","[-2.524, -1.362, 2.609]","[0.0, 0.0, 0.0]"
348,1,Cloud Points(m),"[0.0, 0.0, 0.0]","[0.0, 0.0, 0.0]","[0.0, 0.0, 0.0]","[-2.083, -0.739, 2.5355]","[0.0, 0.0, 0.0]","[0.0, 0.0, 0.0]","[0.0, 0.0, 0.0]","[0.0, 0.0, 0.0]","[-2.233, 0.909, 2.6495]","[-2.529, -0.35, 2.66]","[0.0, 0.0, 0.0]","[0.0, 0.0, 0.0]","[0.0, 0.0, 0.0]","[-2.524, -1.362, 2.609]","[0.0, 0.0, 0.0]"
348,1,Cloud Points(m),"[0.0, 0.0, 0.0]","[0.0, 0.0, 0.0]","[0.0, 0.0, 0.0]","[-2.083, -0.739, 2.5355]","[0.0, 0.0, 0.0]","[0.0, 0.0, 0.0]","[0.0, 0.0, 0.0]","[0.0, 0.0, 0.0]","[-2.233, 0.909, 2.6495]","[-2.529, -0.35, 2.66]","[0.0, 0.0, 0.0]","[0.0, 0.0, 0.0]","[0.0, 0.0, 0.0]","[-2.524, -1.362, 2.609]","[0.0, 0.0, 0.0]"
348,1,Cloud Points(m),"[0.0, 0.0, 0.0]","[0.0, 0.0, 0.0]","[0.0, 0.0, 0.0]","[-2.083, -0.739, 2.5355]","[0.0, 0.0, 0.0]","[0.0, 0.0, 0.0]","[0.0, 0.0, 0.0]","[0.0, 0.0, 0.0]","[-2.233, 0.909, 2.6495]","[-2.529, -0.35, 2.66]","[0.0, 0.0, 0.0]","[0.0, 0.0, 0.0]","[0.0, 0.0, 0.0]","[-2.524, -1.362, 2.609]","[0.0, 0.0, 0.0]"
348,1,Cloud Points(m),"[0.0, 0.0, 0.0]","[0.0, 0.0, 0.0]","[0.0, 0.0, 0.0]","[-2.083, -0.739, 2.5355]","[0.0, 0.0, 0.0]","[0.0, 0.0, 0.0]","[0.0, 0.0, 0.0]","[0.0, 0.0, 0.0]","[-2.233, 0.909, 2.6495]","[-2.529, -0.35, 2.66]","[0.0, 0.0, 0.0]","[0.0, 0.0, 0.0]","[0.0, 0.0, 0.0]","[-2.524, -1.362, 2.609]","[0.0, 0.0, 0.0]"
348,1,Cloud Points(m),"[0.0, 0.0, 0.0]","[0.0, 0.0, 0.0]","[0.0, 0.0, 0.0]","[-2.083, -0.739, 2.5355]","[0.0, 0.0, 0.0]","[0.0, 0.0, 0.0]","[0.0, 0.0, 0.0]","[0.0, 0.0, 0.0]","[-2.233, 0.909, 2.6495]","[-2.529, -0.35, 2.66]","[0.0, 0.0, 0.0]","[0.0, 0.0, 0.0]","[0.0, 0.0, 0.0]","[-2.524, -1.362, 2.609]","[0.0, 0.0, 0.0]"
349,0,Keypoints(m),"[0.0, 0.0, 0.0]","[-1.537, -0.951, 2.14]","[-1.395, -1.029, 2.1775]","[-1.262, -0.682, 2.119]","[-1.04, -0.402, 2.0835]","[-1.812, -0.943, 2.291]","[0.0, 0.0, 0.0]","[0.0, 0.0, 0.0]","[-1.41, -0.316, 2.1705]","[-1.312, -0.342, 2.202]","[-1.199, 0.144, 2.4705]","[-1.091, 0.638, 2.449]","[-1.612, -0.283, 2.268]","[-1.709, 0.246, 2.5645]","[-1.741, 0.657, 2.7185]","[0.0, 0.0, 0.0]","[0.0, 0.0, 0.0]","[0.0, 0.0, 0.0]","[-0.834, -0.544, 1.087]","[0.0, 0.0, 0.0]","[0.0, 0.0, 0.0]"
349,0,Keypoints(image),"[136000.0, 3000.0, 542.922]","[120000.0, 47000.0, 850.625]","[153000.0, 35000.0, 831.901]","[172000.0, 99000.0, 840.208]","[213000.0, 154000.0, 842.661]","[89000.0, 61000.0, 727.469]","[99000.0, 119000.0, 136.096]","[0.0, 0.0, 0.0]","[149000.0, 174000.0, 700.391]","[172000.0, 170000.0, 641.467]","[219000.0, 261000.0, 737.4549999999999]","[236000.0, 347000.0, 862.93]","[123000.0, 183000.0, 732.0020000000001]","[142000.0, 277000.0, 777.995]","[153000.0, 339000.0, 738.829]","[0.0, 0.0, 0.0]","[0.0, 0.0, 0.0]","[140000.0, 3000.0, 620.7009999999999]","[99000.0, 23000.0, 520.0989999999999]","[0.0, 0.0, 0.0]","[0.0, 0.0, 0.0]"
349,1,Keypoints(m),"[-2.299, -1.391, 2.713]","[-2.438, -1.065, 2.649]","[-2.26, -1.104, 2.609]","[-1.976, -0.753, 2.484]","[0.0, 0.0, 0.0]","[0.0, 0.0, 0.0]","[0.0, 0.0, 0.0]","[0.0, 0.0, 0.0]","[-2.264, -0.393, 2.614]","[-2.166, -0.399, 2.614]","[-2.248, 0.261, 2.713]","[-2.226, 0.902, 2.6495]","[-2.387, -0.359, 2.6755]","[-2.353, 0.243, 2.8085]","[0.0, 0.0, 0.0]","[-2.308, -1.397, 2.665]","[0.0, 0.0, 0.0]","[-2.392, -1.342, 2.619]","[0.0, 0.0, 0.0]","[-2.396, -1.151, 2.604]","[0.0, 0.0, 0.0]"
349,1,Keypoints(image),"[65000.0, 18000.0, 738.125]","[34000.0, 65000.0, 813.609]","[57000.0, 56000.0, 809.138]","[87000.0, 107000.0, 416.156]","[0.0, 0.0, 0.0]","[3000.0, 74000.0, 749.245]","[3000.0, 138000.0, 595.883]","[0.0, 0.0, 0.0]","[57000.0, 172000.0, 769.698]","[73000.0, 171000.0, 666.845]","[73000.0, 277000.0, 606.8059999999999]","[68000.0, 381000.0, 878.617]","[46000.0, 179000.0, 689.232]","[69000.0, 273000.0, 492.08]","[0.0, 0.0, 0.0]","[57000.0, 13000.0, 792.759]","[0.0, 0.0, 0.0]","[37000.0, 18000.0, 907.694]","[0.0, 0.0, 0.0]","[34000.0, 48000.0, 758.886]","[44000.0, 3000.0, 135.849]"
349,,Distance(m),3.818461863106662,1.0410946162573314,0.9695577600122646,0.8050229810384297,0.0,3.0694093894428613,0.0,0.0,0.9653689709121585,0.9498994683649423,1.0830033471785765,1.1824217733110296,0.8788954716005767,0.6886806226401321,0.0,0.0,0.0,3.7923329231490213,0.0,0.0,0.0
349,1,Cloud Points(m),"[-2.299, -1.391, 2.713]","[0.0, 0.0, 0.0]","[0.0, 0.0, 0.0]","[-1.976, -0.753, 2.484]","[0.0, 0.0, 0.0]","[0.0, 0.0, 0.0]","[0.0, 0.0, 0.0]","[0.0, 0.0, 0.0]","[0.0, 0.0, 0.0]","[-2.226, 0.902, 2.6495]","[0.0, 0.0, 0.0]","[0.0, 0.0, 0.0]","[0.0, 0.0, 0.0]","[0.0, 0.0, 0.0]","[0.0, 0.0, 0.0]","[0.0, 0.0, 0.0]"
349,1,Cloud Points(m),"[-2.299, -1.391, 2.713]","[0.0, 0.0, 0.0]","[0.0, 0.0, 0.0]","[-1.976, -0.753, 2.484]","[0.0, 0.0, 0.0]","[0.0, 0.0, 0.0]","[0.0, 0.0, 0.0]","[0.0, 0.0, 0.0]","[0.0, 0.0, 0.0]","[-2.226, 0.902, 2.6495]","[0.0, 0.0, 0.0]","[0.0, 0.0, 0.0]","[0.0, 0.0, 0.0]","[0.0, 0.0, 0.0]","[0.0, 0.0, 0.0]","[0.0, 0.0, 0.0]"
349,1,Cloud Points(m),"[-2.299, -1.391, 2.713]","[0.0, 0.0, 0.0]","[0.0, 0.0, 0.0]","[-1.976, -0.753, 2.484]","[0.0, 0.0, 0.0]","[0.0, 0.0, 0.0]","[0.0, 0.0, 0.0]","[0.0, 0.0, 0.0]","[0.0, 0.0, 0.0]","[-2.226, 0.902, 2.6495]","[0.0, 0.0, 0.0]","[0.0, 0.0, 0.0]","[0.0, 0.0, 0.0]","[0.0, 0.0, 0.0]","[0.0, 0.0, 0.0]","[0.0, 0.0, 0.0]"
349,1,Cloud Points(m),"[-2.299, -1.391, 2.713]","[0.0, 0.0, 0.0]","[0.0, 0.0, 0.0]","[-1.976, -0.753, 2.484]","[0.0, 0.0, 0.0]","[0.0, 0.0, 0.0]","[0.0, 0.0, 0.0]","[0.0, 0.0, 0.0]","[0.0, 0.0, 0.0]","[-2.226, 0.902, 2.6495]","[0.0, 0.0, 0.0]","[0.0, 0.0, 0.0]","[0.0, 0.0, 0.0]","[0.0, 0.0, 0.0]","[0.0, 0.0, 0.0]","[0.0, 0.0, 0.0]"
349,1,Cloud Points(m),"[-2.299, -1.391, 2.713]","[0.0, 0.0, 0.0]","[0.0, 0.0, 0.0]","[-1.976, -0.753, 2.484]","[0.0, 0.0, 0.0]","[0.0, 0.0, 0.0]","[0.0, 0.0, 0.0]","[0.0, 0.0, 0.0]","[0.0, 0.0, 0.0]","[-2.226, 0.902, 2.6495]","[0.0, 0.0, 0.0]","[0.0, 0.0, 0.0]","[0.0, 0.0, 0.0]","[0.0, 0.0, 0.0]","[0.0, 0.0, 0.0]","[0.0, 0.0, 0.0]"
349,1,Cloud Points(m),"[-2.299, -1.391, 2.713]","[0.0, 0.0, 0.0]","[0.0, 0.0, 0.0]","[-1.976, -0.753, 2.484]","[0.0, 0.0, 0.0]","[0.0, 0.0, 0.0]","[0.0, 0.0, 0.0]","[0.0, 0.0, 0.0]","[0.0, 0.0, 0.0]","[-2.226, 0.902, 2.6495]","[0.0, 0.0, 0.0]","[0.0, 0.0, 0.0]","[0.0, 0.0, 0.0]","[0.0, 0.0, 0.0]","[0.0, 0.0, 0.0]","[0.0, 0.0, 0.0]"
349,1,Cloud Points(m),"[-2.299, -1.391, 2.713]","[0.0, 0.0, 0.0]","[0.0, 0.0, 0.0]","[-1.976, -0.753, 2.484]","[0.0, 0.0, 0.0]","[0.0, 0.0, 0.0]","[0.0, 0.0, 0.0]","[0.0, 0.0, 0.0]","[0.0, 0.0, 0.0]","[-2.226, 0.902, 2.6495]","[0.0, 0.0, 0.0]","[0.0, 0.0, 0.0]","[0.0, 0.0, 0.0]","[0.0, 0.0, 0.0]","[0.0, 0.0, 0.0]","[0.0, 0.0, 0.0]"
349,1,Cloud Points(m),"[-2.299, -1.391, 2.713]","[0.0, 0.0, 0.0]","[0.0, 0.0, 0.0]","[-1.976, -0.753, 2.484]","[0.0, 0.0, 0.0]","[0.0, 0.0, 0.0]","[0.0, 0.0, 0.0]","[0.0, 0.0, 0.0]","[0.0, 0.0, 0.0]","[-2.226, 0.902, 2.6495]","[0.0, 0.0, 0.0]","[0.0, 0.0, 0.0]","[0.0, 0.0, 0.0]","[0.0, 0.0, 0.0]","[0.0, 0.0, 0.0]","[0.0, 0.0, 0.0]"
349,1,Cloud Points(m),"[-2.299, -1.391, 2.713]","[0.0, 0.0, 0.0]","[0.0, 0.0, 0.0]","[-1.976, -0.753, 2.484]","[0.0, 0.0, 0.0]","[0.0, 0.0, 0.0]","[0.0, 0.0, 0.0]","[0.0, 0.0, 0.0]","[0.0, 0.0, 0.0]","[-2.226, 0.902, 2.6495]","[0.0, 0.0, 0.0]","[0.0, 0.0, 0.0]","[0.0, 0.0, 0.0]","[0.0, 0.0, 0.0]","[0.0, 0.0, 0.0]","[0.0, 0.0, 0.0]"
349,1,Cloud Points(m),"[-2.299, -1.391, 2.713]","[0.0, 0.0, 0.0]","[0.0, 0.0, 0.0]","[-1.976, -0.753, 2.484]","[0.0, 0.0, 0.0]","[0.0, 0.0, 0.0]","[0.0, 0.0, 0.0]","[0.0, 0.0, 0.0]","[0.0, 0.0, 0.0]","[-2.226, 0.902, 2.6495]","[0.0, 0.0, 0.0]","[0.0, 0.0, 0.0]","[0.0, 0.0, 0.0]","[0.0, 0.0, 0.0]","[0.0, 0.0, 0.0]","[0.0, 0.0, 0.0]"
349,1,Cloud Points(m),"[-2.299, -1.391, 2.713]","[0.0, 0.0, 0.0]","[0.0, 0.0, 0.0]","[-1.976, -0.753, 2.484]","[0.0, 0.0, 0.0]","[0.0, 0.0, 0.0]","[0.0, 0.0, 0.0]","[0.0, 0.0, 0.0]","[0.0, 0.0, 0.0]","[-2.226, 0.902, 2.6495]","[0.0, 0.0, 0.0]","[0.0, 0.0, 0.0]","[0.0, 0.0, 0.0]","[0.0, 0.0, 0.0]","[0.0, 0.0, 0.0]","[0.0, 0.0, 0.0]"
349,1,Cloud Points(m),"[-2.299, -1.391, 2.713]","[0.0, 0.0, 0.0]","[0.0, 0.0, 0.0]","[-1.976, -0.753, 2.484]","[0.0, 0.0, 0.0]","[0.0, 0.0, 0.0]","[0.0, 0.0, 0.0]","[0.0, 0.0, 0.0]","[0.0, 0.0, 0.0]","[-2.226, 0.902, 2.6495]","[0.0, 0.0, 0.0]","[0.0, 0.0, 0.0]","[0.0, 0.0, 0.0]","[0.0, 0.0, 0.0]","[0.0, 0.0, 0.0]","[0.0, 0.0, 0.0]"
349,1,Cloud Points(m),"[-2.299, -1.391, 2.713]","[0.0, 0.0, 0.0]","[0.0, 0.0, 0.0]","[-1.976, -0.753, 2.484]","[0.0, 0.0, 0.0]","[0.0, 0.0, 0.0]","[0.0, 0.0, 0.0]","[0.0, 0.0, 0.0]","[0.0, 0.0, 0.0]","[-2.226, 0.902, 2.6495]","[0.0, 0.0, 0.0]","[0.0, 0.0, 0.0]","[0.0, 0.0, 0.0]","[0.0, 0.0, 0.0]","[0.0, 0.0, 0.0]","[0.0, 0.0, 0.0]"
349,1,Cloud Points(m),"[-2.299, -1.391, 2.713]","[0.0, 0.0, 0.0]","[0.0, 0.0, 0.0]","[-1.976, -0.753, 2.484]","[0.0, 0.0, 0.0]","[0.0, 0.0, 0.0]","[0.0, 0.0, 0.0]","[0.0, 0.0, 0.0]","[0.0, 0.0, 0.0]","[-2.226, 0.902, 2.6495]","[0.0, 0.0, 0.0]","[0.0, 0.0, 0.0]","[0.0, 0.0, 0.0]","[0.0, 0.0, 0.0]","[0.0, 0.0, 0.0]","[0.0, 0.0, 0.0]"
350,0,Keypoints(m),"[0.0, 0.0, 0.0]","[-1.488, -0.933, 2.1565]","[-1.353, -1.035, 2.202]","[-1.233, -0.702, 2.1635]","[-0.993, -0.423, 2.119]","[-1.792, -0.95, 2.335]","[0.0, 0.0, 0.0]","[0.0, 0.0, 0.0]","[-1.466, -0.355, 2.359]","[-1.24, -0.346, 2.231]","[-1.18, 0.151, 2.4795]","[-1.079, 0.627, 2.449]","[-1.556, -0.285, 2.2875]","[-1.474, 0.195, 2.38]","[-1.658, 0.6, 2.719]","[0.0, 0.0, 0.0]","[0.0, 0.0, 0.0]","[0.0, 0.0, 0.0]","[0.0, 0.0, 0.0]","[-1.485, -0.963, 2.167]","[0.0, 0.0, 0.0]"
350,0,Keypoints(image),"[147000.0, 3000.0, 426.489]","[132000.0, 52000.0, 795.399]","[164000.0, 36000.0, 815.036]","[183000.0, 98000.0, 873.4]","[226000.0, 151000.0, 846.561]","[99000.0, 63000.0, 727.1729999999999]","[116000.0, 119000.0, 154.0]","[0.0, 0.0, 0.0]","[161000.0, 172000.0, 739.0409999999999]","[189000.0, 170000.0, 670.381]","[223000.0, 262000.0, 802.5640000000001]","[238000.0, 345000.0, 819.492]","[136000.0, 183000.0, 700.315]","[162000.0, 271000.0, 789.884]","[166000.0, 330000.0, 489.613]","[0.0, 0.0, 0.0]","[0.0, 0.0, 0.0]","[150000.0, 3000.0, 706.634]","[0.0, 0.0, 0.0]","[134000.0, 47000.0, 673.303]","[0.0, 0.0, 0.0]"
350,1,Keypoints(m),"[-2.239, -1.353, 2.702]","[-2.4, -1.069, 2.691]","[-2.205, -1.117, 2.639]","[-1.932, -0.663, 2.589]","[0.0, 0.0, 0.0]","[-2.651, -1.025, 2.7405]","[0.0, 0.0, 0.0]","[0.0, 0.0, 0.0]","[-2.237, -0.352, 2.67]","[-2.191, -0.4, 2.746]","[-2.143, 0.231, 2.67]","[-2.231, 0.885, 2.6545]","[-2.371, -0.34, 2.7295]","[-2.186, 0.177, 2.7075]","[0.0, 0.0, 0.0]","[-2.268, -1.405, 2.6915]","[0.0, 0.0, 0.0]","[-2.371, -1.322, 2.665]","[0.0, 0.0, 0.0]","[-2.362, -1.127, 2.634]","[0.0, 0.0, 0.0]"
350,1,Keypoints(image),"[73000.0, 23000.0, 772.783]","[46000.0, 67000.0, 883.109]","[70000.0, 56000.0, 831.766]","[108000.0, 127000.0, 492.558]","[0.0, 0.0, 0.0]","[14000.0, 77000.0, 834.4259999999999]","[3000.0, 138000.0, 733.5939999999999]","[3000.0, 197000.0, 305.508]","[69000.0, 180000.0, 744.244]","[86000.0, 174000.0, 686.891]","[84000.0, 273000.0, 612.885]","[68000.0, 378000.0, 811.6139999999999]","[56000.0, 183000.0, 732.266]","[82000.0, 264000.0, 293.144]","[0.0, 0.0, 0.0]","[67000.0, 14000.0, 869.0909999999999]","[0.0, 0.0, 0.0]","[47000.0, 25000.0, 938.3059999999999]","[0.0, 0.0, 0.0]","[44000.0, 54000.0, 779.679]","[50000.0, 3000.0, 245.04699999999997]"
350,,Distance(m),3.7609219614344567,1.0658002861699747,0.961039541330116,0.8192510299047538,0.0,0.9528568885199918,0.0,0.0,0.8313669466607391,1.0828397850097677,0.984915859350432,1.198289718724149,0.9287701545592428,0.7839159712622266,0.0,0.0,0.0,3.8041490507076614,0.0,1.0070322735642587,0.0
350,1,Cloud Points(m),"[-2.239, -1.353, 2.702]","[0.0, 0.0, 0.0]","[0.0, 0.0, 0.0]","[-1.932, -0.663, 2.589]","[-2.651, -1.025, 2.7405]","[0.0, 0.0, 0.0]","[0.0, 0.0, 0.0]","[0.0, 0.0, 0.0]","[0.0, 0.0, 0.0]","[0.0, 0.0, 0.0]","[-2.231, 0.885, 2.6545]","[0.0, 0.0, 0.0]","[0.0, 0.0, 0.0]","[-2.268, -1.405, 2.6915]","[0.0, 0.0, 0.0]","[0.0, 0.0, 0.0]","[0.0, 0.0, 0.0]"
350,1,Cloud Points(m),"[-2.239, -1.353, 2.702]","[0.0, 0.0, 0.0]","[0.0, 0.0, 0.0]","[-1.932, -0.663, 2.589]","[-2.651, -1.025, 2.7405]","[0.0, 0.0, 0.0]","[0.0, 0.0, 0.0]","[0.0, 0.0, 0.0]","[0.0, 0.0, 0.0]","[0.0, 0.0, 0.0]","[-2.231, 0.885, 2.6545]","[0.0, 0.0, 0.0]","[0.0, 0.0, 0.0]","[-2.268, -1.405, 2.6915]","[0.0, 0.0, 0.0]","[0.0, 0.0, 0.0]","[0.0, 0.0, 0.0]"
350,1,Cloud Points(m),"[-2.239, -1.353, 2.702]","[0.0, 0.0, 0.0]","[0.0, 0.0, 0.0]","[-1.932, -0.663, 2.589]","[-2.651, -1.025, 2.7405]","[0.0, 0.0, 0.0]","[0.0, 0.0, 0.0]","[0.0, 0.0, 0.0]","[0.0, 0.0, 0.0]","[0.0, 0.0, 0.0]","[-2.231, 0.885, 2.6545]","[0.0, 0.0, 0.0]","[0.0, 0.0, 0.0]","[-2.268, -1.405, 2.6915]","[0.0, 0.0, 0.0]","[0.0, 0.0, 0.0]","[0.0, 0.0, 0.0]"
350,1,Cloud Points(m),"[-2.239, -1.353, 2.702]","[0.0, 0.0, 0.0]","[0.0, 0.0, 0.0]","[-1.932, -0.663, 2.589]","[-2.651, -1.025, 2.7405]","[0.0, 0.0, 0.0]","[0.0, 0.0, 0.0]","[0.0, 0.0, 0.0]","[0.0, 0.0, 0.0]","[0.0, 0.0, 0.0]","[-2.231, 0.885, 2.6545]","[0.0, 0.0, 0.0]","[0.0, 0.0, 0.0]","[-2.268, -1.405, 2.6915]","[0.0, 0.0, 0.0]","[0.0, 0.0, 0.0]","[0.0, 0.0, 0.0]"
350,1,Cloud Points(m),"[-2.239, -1.353, 2.702]","[0.0, 0.0, 0.0]","[0.0, 0.0, 0.0]","[-1.932, -0.663, 2.589]","[-2.651, -1.025, 2.7405]","[0.0, 0.0, 0.0]","[0.0, 0.0, 0.0]","[0.0, 0.0, 0.0]","[0.0, 0.0, 0.0]","[0.0, 0.0, 0.0]","[-2.231, 0.885, 2.6545]","[0.0, 0.0, 0.0]","[0.0, 0.0, 0.0]","[-2.268, -1.405, 2.6915]","[0.0, 0.0, 0.0]","[0.0, 0.0, 0.0]","[0.0, 0.0, 0.0]"
350,1,Cloud Points(m),"[-2.239, -1.353, 2.702]","[0.0, 0.0, 0.0]","[0.0, 0.0, 0.0]","[-1.932, -0.663, 2.589]","[-2.651, -1.025, 2.7405]","[0.0, 0.0, 0.0]","[0.0, 0.0, 0.0]","[0.0, 0.0, 0.0]","[0.0, 0.0, 0.0]","[0.0, 0.0, 0.0]","[-2.231, 0.885, 2.6545]","[0.0, 0.0, 0.0]","[0.0, 0.0, 0.0]","[-2.268, -1.405, 2.6915]","[0.0, 0.0, 0.0]","[0.0, 0.0, 0.0]","[0.0, 0.0, 0.0]"
350,1,Cloud Points(m),"[-2.239, -1.353, 2.702]","[0.0, 0.0, 0.0]","[0.0, 0.0, 0.0]","[-1.932, -0.663, 2.589]","[-2.651, -1.025, 2.7405]","[0.0, 0.0, 0.0]","[0.0, 0.0, 0.0]","[0.0, 0.0, 0.0]","[0.0, 0.0, 0.0]","[0.0, 0.0, 0.0]","[-2.231, 0.885, 2.6545]","[0.0, 0.0, 0.0]","[0.0, 0.0, 0.0]","[-2.268, -1.405, 2.6915]","[0.0, 0.0, 0.0]","[0.0, 0.0, 0.0]","[0.0, 0.0, 0.0]"
350,1,Cloud Points(m),"[-2.239, -1.353, 2.702]","[0.0, 0.0, 0.0]","[0.0, 0.0, 0.0]","[-1.932, -0.663, 2.589]","[-2.651, -1.025, 2.7405]","[0.0, 0.0, 0.0]","[0.0, 0.0, 0.0]","[0.0, 0.0, 0.0]","[0.0, 0.0, 0.0]","[0.0, 0.0, 0.0]","[-2.231, 0.885, 2.6545]","[0.0, 0.0, 0.0]","[0.0, 0.0, 0.0]","[-2.268, -1.405, 2.6915]","[0.0, 0.0, 0.0]","[0.0, 0.0, 0.0]","[0.0, 0.0, 0.0]"
350,1,Cloud Points(m),"[-2.239, -1.353, 2.702]","[0.0, 0.0, 0.0]","[0.0, 0.0, 0.0]","[-1.932, -0.663, 2.589]","[-2.651, -1.025, 2.7405]","[0.0, 0.0, 0.0]","[0.0, 0.0, 0.0]","[0.0, 0.0, 0.0]","[0.0, 0.0, 0.0]","[0.0, 0.0, 0.0]","[-2.231, 0.885, 2.6545]","[0.0, 0.0, 0.0]","[0.0, 0.0, 0.0]","[-2.268, -1.405, 2.6915]","[0.0, 0.0, 0.0]","[0.0, 0.0, 0.0]","[0.0, 0.0, 0.0]"
350,1,Cloud Points(m),"[-2.239, -1.353, 2.702]","[0.0, 0.0, 0.0]","[0.0, 0.0, 0.0]","[-1.932, -0.663, 2.589]","[-2.651, -1.025, 2.7405]","[0.0, 0.0, 0.0]","[0.0, 0.0, 0.0]","[0.0, 0.0, 0.0]","[0.0, 0.0, 0.0]","[0.0, 0.0, 0.0]","[-2.231, 0.885, 2.6545]","[0.0, 0.0, 0.0]","[0.0, 0.0, 0.0]","[-2.268, -1.405, 2.6915]","[0.0, 0.0, 0.0]","[0.0, 0.0, 0.0]","[0.0, 0.0, 0.0]"
350,1,Cloud Points(m),"[-2.239, -1.353, 2.702]","[0.0, 0.0, 0.0]","[0.0, 0.0, 0.0]","[-1.932, -0.663, 2.589]","[-2.651, -1.025, 2.7405]","[0.0, 0.0, 0.0]","[0.0, 0.0, 0.0]","[0.0, 0.0, 0.0]","[0.0, 0.0, 0.0]","[0.0, 0.0, 0.0]","[-2.231, 0.885, 2.6545]","[0.0, 0.0, 0.0]","[0.0, 0.0, 0.0]","[-2.268, -1.405, 2.6915]","[0.0, 0.0, 0.0]","[0.0, 0.0, 0.0]","[0.0, 0.0, 0.0]"
350,1,Cloud Points(m),"[-2.239, -1.353, 2.702]","[0.0, 0.0, 0.0]","[0.0, 0.0, 0.0]","[-1.932, -0.663, 2.589]","[-2.651, -1.025, 2.7405]","[0.0, 0.0, 0.0]","[0.0, 0.0, 0.0]","[0.0, 0.0, 0.0]","[0.0, 0.0, 0.0]","[0.0, 0.0, 0.0]","[-2.231, 0.885, 2.6545]","[0.0, 0.0, 0.0]","[0.0, 0.0, 0.0]","[-2.268, -1.405, 2.6915]","[0.0, 0.0, 0.0]","[0.0, 0.0, 0.0]","[0.0, 0.0, 0.0]"
350,1,Cloud Points(m),"[-2.239, -1.353, 2.702]","[0.0, 0.0, 0.0]","[0.0, 0.0, 0.0]","[-1.932, -0.663, 2.589]","[-2.651, -1.025, 2.7405]","[0.0, 0.0, 0.0]","[0.0, 0.0, 0.0]","[0.0, 0.0, 0.0]","[0.0, 0.0, 0.0]","[0.0, 0.0, 0.0]","[-2.231, 0.885, 2.6545]","[0.0, 0.0, 0.0]","[0.0, 0.0, 0.0]","[-2.268, -1.405, 2.6915]","[0.0, 0.0, 0.0]","[0.0, 0.0, 0.0]","[0.0, 0.0, 0.0]"
350,1,Cloud Points(m),"[-2.239, -1.353, 2.702]","[0.0, 0.0, 0.0]","[0.0, 0.0, 0.0]","[-1.932, -0.663, 2.589]","[-2.651, -1.025, 2.7405]","[0.0, 0.0, 0.0]","[0.0, 0.0, 0.0]","[0.0, 0.0, 0.0]","[0.0, 0.0, 0.0]","[0.0, 0.0, 0.0]","[-2.231, 0.885, 2.6545]","[0.0, 0.0, 0.0]","[0.0, 0.0, 0.0]","[-2.268, -1.405, 2.6915]","[0.0, 0.0, 0.0]","[0.0, 0.0, 0.0]","[0.0, 0.0, 0.0]"
350,1,Cloud Points(m),"[-2.239, -1.353, 2.702]","[0.0, 0.0, 0.0]","[0.0, 0.0, 0.0]","[-1.932, -0.663, 2.589]","[-2.651, -1.025, 2.7405]","[0.0, 0.0, 0.0]","[0.0, 0.0, 0.0]","[0.0, 0.0, 0.0]","[0.0, 0.0, 0.0]","[0.0, 0.0, 0.0]","[-2.231, 0.885, 2.6545]","[0.0, 0.0, 0.0]","[0.0, 0.0, 0.0]","[-2.268, -1.405, 2.6915]","[0.0, 0.0, 0.0]","[0.0, 0.0, 0.0]","[0.0, 0.0, 0.0]"
351,0,Keypoints(m),"[-1.457, -1.203, 2.284]","[-1.439, -0.939, 2.16]","[-1.31, -1.037, 2.2165]","[-1.169, -0.692, 2.1495]","[-0.903, -0.421, 2.106]","[-1.644, -0.894, 2.224]","[0.0, 0.0, 0.0]","[0.0, 0.0, 0.0]","[-1.416, -0.378, 2.367]","[-1.184, -0.387, 2.195]","[-1.185, 0.117, 2.503]","[-1.069, 0.607, 2.44]","[-1.51, -0.325, 2.307]","[-1.331, 0.151, 2.307]","[-1.456, 0.536, 2.307]","[0.0, 0.0, 0.0]","[0.0, 0.0, 0.0]","[0.0, 0.0, 0.0]","[-1.604, -1.172, 2.2345]","[-1.439, -0.985, 2.16]","[0.0, 0.0, 0.0]"
351,0,Keypoints(image),"[154000.0, 12000.0, 538.279]","[142000.0, 51000.0, 811.679]","[174000.0, 37000.0, 834.766]","[194000.0, 99000.0, 854.58]","[243000.0, 151000.0, 874.129]","[111000.0, 65000.0, 723.364]","[134000.0, 110000.0, 124.724]","[0.0, 0.0, 0.0]","[171000.0, 168000.0, 779.301]","[196000.0, 161000.0, 688.984]","[224000.0, 256000.0, 851.979]","[239000.0, 342000.0, 834.626]","[147000.0, 176000.0, 709.323]","[180000.0, 264000.0, 807.6560000000001]","[157000.0, 335000.0, 717.858]","[0.0, 0.0, 0.0]","[0.0, 0.0, 0.0]","[159000.0, 3000.0, 639.771]","[120000.0, 13000.0, 314.818]","[142000.0, 42000.0, 693.655]","[0.0, 0.0, 0.0]"
351,1,Keypoints(m),"[-2.207, -1.328, 2.702]","[-2.321, -1.046, 2.665]","[-2.118, -1.098, 2.639]","[-1.751, -0.623, 2.431]","[0.0, 0.0, 0.0]","[-2.509, -0.99, 2.665]","[-2.603, -0.601, 2.691]","[0.0, 0.0, 0.0]","[-2.168, -0.349, 2.6545]","[-2.142, -0.417, 2.774]","[-2.131, 0.185, 2.735]","[-2.204, 0.843, 2.6595]","[-2.326, -0.331, 2.7075]","[-1.876, 0.092, 2.639]","[0.0, 0.0, 0.0]","[-2.227, -1.381, 2.7185]","[0.0, 0.0, 0.0]","[-2.322, -1.324, 2.681]","[0.0, 0.0, 0.0]","[-2.29, -1.113, 2.629]","[0.0, 0.0, 0.0]"
351,1,Keypoints(image),"[78000.0, 27000.0, 828.615]","[55000.0, 69000.0, 855.771]","[84000.0, 59000.0, 802.158]","[119000.0, 127000.0, 525.4830000000001]","[0.0, 0.0, 0.0]","[25000.0, 78000.0, 822.833]","[14000.0, 141000.0, 807.8729999999999]","[3000.0, 201000.0, 657.307]","[78000.0, 180000.0, 805.035]","[97000.0, 172000.0, 723.21]","[94000.0, 265000.0, 612.135]","[73000.0, 371000.0, 843.073]","[60000.0, 184000.0, 758.848]","[123000.0, 251000.0, 633.558]","[0.0, 0.0, 0.0]","[77000.0, 20000.0, 854.197]","[0.0, 0.0, 0.0]","[57000.0, 26000.0, 916.227]","[34000.0, 43000.0, 125.313]","[55000.0, 56000.0, 840.175]","[60000.0, 3000.0, 632.535]"
351,,Distance(m),0.8676687155821627,1.0219579247698998,0.9138332725393621,0.6501747841926815,0.0,0.9756649014902606,3.7918717014160697,0.0,0.8056061382586406,1.1197789960523459,0.97640360507323,1.1798734042260635,0.9090061880977489,0.6408822044650639,0.0,0.0,0.0,3.785818405576263,2.9898813103533057,0.980074486965149,0.0
351,1,Cloud Points(m),"[0.0, 0.0, 0.0]","[0.0, 0.0, 0.0]","[0.0, 0.0, 0.0]","[-1.751, -0.623, 2.431]","[-2.509, -0.99, 2.665]","[0.0, 0.0, 0.0]","[0.0, 0.0, 0.0]","[0.0, 0.0, 0.0]","[0.0, 0.0, 0.0]","[0.0, 0.0, 0.0]","[-2.204, 0.843, 2.6595]","[0.0, 0.0, 0.0]","[-1.876, 0.092, 2.639]","[-2.227, -1.381, 2.7185]","[0.0, 0.0, 0.0]","[-2.41, -1.188, 2.619]","[0.0, 0.0, 0.0]","[0.0, 0.0, 0.0]"
351,1,Cloud Points(m),"[0.0, 0.0, 0.0]","[0.0, 0.0, 0.0]","[0.0, 0.0, 0.0]","[-1.751, -0.623, 2.431]","[-2.509, -0.99, 2.665]","[0.0, 0.0, 0.0]","[0.0, 0.0, 0.0]","[0.0, 0.0, 0.0]","[0.0, 0.0, 0.0]","[0.0, 0.0, 0.0]","[-2.204, 0.843, 2.6595]","[0.0, 0.0, 0.0]","[-1.876, 0.092, 2.639]","[-2.227, -1.381, 2.7185]","[0.0, 0.0, 0.0]","[-2.41, -1.188, 2.619]","[0.0, 0.0, 0.0]","[0.0, 0.0, 0.0]"
351,1,Cloud Points(m),"[0.0, 0.0, 0.0]","[0.0, 0.0, 0.0]","[0.0, 0.0, 0.0]","[-1.751, -0.623, 2.431]","[-2.509, -0.99, 2.665]","[0.0, 0.0, 0.0]","[0.0, 0.0, 0.0]","[0.0, 0.0, 0.0]","[0.0, 0.0, 0.0]","[0.0, 0.0, 0.0]","[-2.204, 0.843, 2.6595]","[0.0, 0.0, 0.0]","[-1.876, 0.092, 2.639]","[-2.227, -1.381, 2.7185]","[0.0, 0.0, 0.0]","[-2.41, -1.188, 2.619]","[0.0, 0.0, 0.0]","[0.0, 0.0, 0.0]"
351,1,Cloud Points(m),"[0.0, 0.0, 0.0]","[0.0, 0.0, 0.0]","[0.0, 0.0, 0.0]","[-1.751, -0.623, 2.431]","[-2.509, -0.99, 2.665]","[0.0, 0.0, 0.0]","[0.0, 0.0, 0.0]","[0.0, 0.0, 0.0]","[0.0, 0.0, 0.0]","[0.0, 0.0, 0.0]","[-2.204, 0.843, 2.6595]","[0.0, 0.0, 0.0]","[-1.876, 0.092, 2.639]","[-2.227, -1.381, 2.7185]","[0.0, 0.0, 0.0]","[-2.41, -1.188, 2.619]","[0.0, 0.0, 0.0]","[0.0, 0.0, 0.0]"
351,1,Cloud Points(m),"[0.0, 0.0, 0.0]","[0.0, 0.0, 0.0]","[0.0, 0.0, 0.0]","[-1.751, -0.623, 2.431]","[-2.509, -0.99, 2.665]","[0.0, 0.0, 0.0]","[0.0, 0.0, 0.0]","[0.0, 0.0, 0.0]","[0.0, 0.0, 0.0]","[0.0, 0.0, 0.0]","[-2.204, 0.843, 2.6595]","[0.0, 0.0, 0.0]","[-1.876, 0.092, 2.639]","[-2.227, -1.381, 2.7185]","[0.0, 0.0, 0.0]","[-2.41, -1.188, 2.619]","[0.0, 0.0, 0.0]","[0.0, 0.0, 0.0]"
351,1,Cloud Points(m),"[0.0, 0.0, 0.0]","[0.0, 0.0, 0.0]","[0.0, 0.0, 0.0]","[-1.751, -0.623, 2.431]","[-2.509, -0.99, 2.665]","[0.0, 0.0, 0.0]","[0.0, 0.0, 0.0]","[0.0, 0.0, 0.0]","[0.0, 0.0, 0.0]","[0.0, 0.0, 0.0]","[-2.204, 0.843, 2.6595]","[0.0, 0.0, 0.0]","[-1.876, 0.092, 2.639]","[-2.227, -1.381, 2.7185]","[0.0, 0.0, 0.0]","[-2.41, -1.188, 2.619]","[0.0, 0.0, 0.0]","[0.0, 0.0, 0.0]"
351,1,Cloud Points(m),"[0.0, 0.0, 0.0]","[0.0, 0.0, 0.0]","[0.0, 0.0, 0.0]","[-1.751, -0.623, 2.431]","[-2.509, -0.99, 2.665]","[0.0, 0.0, 0.0]","[0.0, 0.0, 0.0]","[0.0, 0.0, 0.0]","[0.0, 0.0, 0.0]","[0.0, 0.0, 0.0]","[-2.204, 0.843, 2.6595]","[0.0, 0.0, 0.0]","[-1.876, 0.092, 2.639]","[-2.227, -1.381, 2.7185]","[0.0, 0.0, 0.0]","[-2.41, -1.188, 2.619]","[0.0, 0.0, 0.0]","[0.0, 0.0, 0.0]"
351,1,Cloud Points(m),"[0.0, 0.0, 0.0]","[0.0, 0.0, 0.0]","[0.0, 0.0, 0.0]","[-1.751, -0.623, 2.431]","[-2.509, -0.99, 2.665]","[0.0, 0.0, 0.0]","[0.0, 0.0, 0.0]","[0.0, 0.0, 0.0]","[0.0, 0.0, 0.0]","[0.0, 0.0, 0.0]","[-2.204, 0.843, 2.6595]","[0.0, 0.0, 0.0]","[-1.876, 0.092, 2.639]","[-2.227, -1.381, 2.7185]","[0.0, 0.0, 0.0]","[-2.41, -1.188, 2.619]","[0.0, 0.0, 0.0]","[0.0, 0.0, 0.0]"
351,1,Cloud Points(m),"[0.0, 0.0, 0.0]","[0.0, 0.0, 0.0]","[0.0, 0.0, 0.0]","[-1.751, -0.623, 2.431]","[-2.509, -0.99, 2.665]","[0.0, 0.0, 0.0]","[0.0, 0.0, 0.0]","[0.0, 0.0, 0.0]","[0.0, 0.0, 0.0]","[0.0, 0.0, 0.0]","[-2.204, 0.843, 2.6595]","[0.0, 0.0, 0.0]","[-1.876, 0.092, 2.639]","[-2.227, -1.381, 2.7185]","[0.0, 0.0, 0.0]","[-2.41, -1.188, 2.619]","[0.0, 0.0, 0.0]","[0.0, 0.0, 0.0]"
351,1,Cloud Points(m),"[0.0, 0.0, 0.0]","[0.0, 0.0, 0.0]","[0.0, 0.0, 0.0]","[-1.751, -0.623, 2.431]","[-2.509, -0.99, 2.665]","[0.0, 0.0, 0.0]","[0.0, 0.0, 0.0]","[0.0, 0.0, 0.0]","[0.0, 0.0, 0.0]","[0.0, 0.0, 0.0]","[-2.204, 0.843, 2.6595]","[0.0, 0.0, 0.0]","[-1.876, 0.092, 2.639]","[-2.227, -1.381, 2.7185]","[0.0, 0.0, 0.0]","[-2.41, -1.188, 2.619]","[0.0, 0.0, 0.0]","[0.0, 0.0, 0.0]"
351,1,Cloud Points(m),"[0.0, 0.0, 0.0]","[0.0, 0.0, 0.0]","[0.0, 0.0, 0.0]","[-1.751, -0.623, 2.431]","[-2.509, -0.99, 2.665]","[0.0, 0.0, 0.0]","[0.0, 0.0, 0.0]","[0.0, 0.0, 0.0]","[0.0, 0.0, 0.0]","[0.0, 0.0, 0.0]","[-2.204, 0.843, 2.6595]","[0.0, 0.0, 0.0]","[-1.876, 0.092, 2.639]","[-2.227, -1.381, 2.7185]","[0.0, 0.0, 0.0]","[-2.41, -1.188, 2.619]","[0.0, 0.0, 0.0]","[0.0, 0.0, 0.0]"
351,1,Cloud Points(m),"[0.0, 0.0, 0.0]","[0.0, 0.0, 0.0]","[0.0, 0.0, 0.0]","[-1.751, -0.623, 2.431]","[-2.509, -0.99, 2.665]","[0.0, 0.0, 0.0]","[0.0, 0.0, 0.0]","[0.0, 0.0, 0.0]","[0.0, 0.0, 0.0]","[0.0, 0.0, 0.0]","[-2.204, 0.843, 2.6595]","[0.0, 0.0, 0.0]","[-1.876, 0.092, 2.639]","[-2.227, -1.381, 2.7185]","[0.0, 0.0, 0.0]","[-2.41, -1.188, 2.619]","[0.0, 0.0, 0.0]","[0.0, 0.0, 0.0]"
351,1,Cloud Points(m),"[0.0, 0.0, 0.0]","[0.0, 0.0, 0.0]","[0.0, 0.0, 0.0]","[-1.751, -0.623, 2.431]","[-2.509, -0.99, 2.665]","[0.0, 0.0, 0.0]","[0.0, 0.0, 0.0]","[0.0, 0.0, 0.0]","[0.0, 0.0, 0.0]","[0.0, 0.0, 0.0]","[-2.204, 0.843, 2.6595]","[0.0, 0.0, 0.0]","[-1.876, 0.092, 2.639]","[-2.227, -1.381, 2.7185]","[0.0, 0.0, 0.0]","[-2.41, -1.188, 2.619]","[0.0, 0.0, 0.0]","[0.0, 0.0, 0.0]"
351,1,Cloud Points(m),"[0.0, 0.0, 0.0]","[0.0, 0.0, 0.0]","[0.0, 0.0, 0.0]","[-1.751, -0.623, 2.431]","[-2.509, -0.99, 2.665]","[0.0, 0.0, 0.0]","[0.0, 0.0, 0.0]","[0.0, 0.0, 0.0]","[0.0, 0.0, 0.0]","[0.0, 0.0, 0.0]","[-2.204, 0.843, 2.6595]","[0.0, 0.0, 0.0]","[-1.876, 0.092, 2.639]","[-2.227, -1.381, 2.7185]","[0.0, 0.0, 0.0]","[-2.41, -1.188, 2.619]","[0.0, 0.0, 0.0]","[0.0, 0.0, 0.0]"
351,1,Cloud Points(m),"[0.0, 0.0, 0.0]","[0.0, 0.0, 0.0]","[0.0, 0.0, 0.0]","[-1.751, -0.623, 2.431]","[-2.509, -0.99, 2.665]","[0.0, 0.0, 0.0]","[0.0, 0.0, 0.0]","[0.0, 0.0, 0.0]","[0.0, 0.0, 0.0]","[0.0, 0.0, 0.0]","[-2.204, 0.843, 2.6595]","[0.0, 0.0, 0.0]","[-1.876, 0.092, 2.639]","[-2.227, -1.381, 2.7185]","[0.0, 0.0, 0.0]","[-2.41, -1.188, 2.619]","[0.0, 0.0, 0.0]","[0.0, 0.0, 0.0]"
351,1,Cloud Points(m),"[0.0, 0.0, 0.0]","[0.0, 0.0, 0.0]","[0.0, 0.0, 0.0]","[-1.751, -0.623, 2.431]","[-2.509, -0.99, 2.665]","[0.0, 0.0, 0.0]","[0.0, 0.0, 0.0]","[0.0, 0.0, 0.0]","[0.0, 0.0, 0.0]","[0.0, 0.0, 0.0]","[-2.204, 0.843, 2.6595]","[0.0, 0.0, 0.0]","[-1.876, 0.092, 2.639]","[-2.227, -1.381, 2.7185]","[0.0, 0.0, 0.0]","[-2.41, -1.188, 2.619]","[0.0, 0.0, 0.0]","[0.0, 0.0, 0.0]"
352,0,Keypoints(m),"[-1.448, -1.243, 2.339]","[-1.399, -0.929, 2.16]","[-1.273, -1.047, 2.216]","[-1.1, -0.692, 2.133]","[-7.405, -3.586, 18.5855]","[-1.566, -0.861, 2.181]","[0.0, 0.0, 0.0]","[0.0, 0.0, 0.0]","[-1.324, -0.399, 2.295]","[-1.166, -0.444, 2.22]","[-1.176, 0.118, 2.521]","[-1.071, 0.612, 2.4575]","[-1.498, -0.359, 2.347]","[-1.256, 0.107, 2.299]","[-1.874, 0.684, 3.133]","[0.0, 0.0, 0.0]","[0.0, 0.0, 0.0]","[0.0, 0.0, 0.0]","[-1.52, -1.092, 2.181]","[-1.399, -0.975, 2.16]","[0.0, 0.0, 0.0]"
352,0,Keypoints(image),"[162000.0, 10000.0, 463.81]","[150000.0, 53000.0, 870.445]","[181000.0, 35000.0, 861.709]","[206000.0, 98000.0, 865.826]","[256000.0, 154000.0, 846.092]","[120000.0, 68000.0, 863.322]","[129000.0, 117000.0, 197.11]","[0.0, 0.0, 0.0]","[180000.0, 162000.0, 812.633]","[202000.0, 151000.0, 742.5559999999999]","[227000.0, 256000.0, 804.5219999999999]","[240000.0, 342000.0, 824.569]","[154000.0, 171000.0, 787.986]","[193000.0, 256000.0, 898.905]","[171000.0, 329000.0, 877.42]","[170000.0, 3000.0, 82.8661]","[0.0, 0.0, 0.0]","[163000.0, 3000.0, 700.3829999999999]","[129000.0, 23000.0, 274.88]","[150000.0, 44000.0, 738.432]","[134000.0, 18000.0, 75.5652]"
352,1,Keypoints(m),"[-1.8, -1.076, 2.276]","[-2.198, -0.981, 2.609]","[-1.978, -1.024, 2.531]","[-1.687, -0.616, 2.405]","[0.0, 0.0, 0.0]","[-2.456, -0.944, 2.6755]","[-2.506, -0.585, 2.649]","[0.0, 0.0, 0.0]","[-2.163, -0.386, 2.735]","[-1.962, -0.402, 2.629]","[-2.073, 0.205, 2.735]","[-2.192, 0.836, 2.6755]","[-2.231, -0.333, 2.67]","[-1.776, 0.108, 2.584]","[0.0, 0.0, 0.0]","[0.0, 0.0, 0.0]","[0.0, 0.0, 0.0]","[-2.271, -1.283, 2.702]","[0.0, 0.0, 0.0]","[-2.228, -1.088, 2.629]","[0.0, 0.0, 0.0]"
352,1,Keypoints(image),"[89000.0, 35000.0, 877.968]","[67000.0, 76000.0, 884.025]","[93000.0, 64000.0, 786.043]","[127000.0, 127000.0, 309.97]","[0.0, 0.0, 0.0]","[35000.0, 86000.0, 827.2969999999999]","[23000.0, 142000.0, 778.346]","[3000.0, 202000.0, 876.3]","[89000.0, 176000.0, 811.269]","[108000.0, 171000.0, 781.449]","[103000.0, 268000.0, 710.914]","[77000.0, 369000.0, 853.525]","[70000.0, 183000.0, 803.3149999999999]","[133000.0, 254000.0, 753.01]","[0.0, 0.0, 0.0]","[86000.0, 26000.0, 919.069]","[0.0, 0.0, 0.0]","[68000.0, 34000.0, 899.1379999999999]","[0.0, 0.0, 0.0]","[65000.0, 60000.0, 794.018]","[67000.0, 3000.0, 869.3380000000001]"
352,,Distance(m),0.3946669481980978,0.9179901960260796,0.7725147247787579,0.6514054037233649,0.0,1.0215278997658361,3.6931642259720867,0.0,0.9474650389328358,0.8959135002889509,0.9262688594571233,1.1637615735192497,0.8014324675229971,0.5929806067655164,0.0,0.0,0.0,3.7555737244793903,0.0,0.959151187248392,0.0
352,1,Cloud Points(m),"[0.0, 0.0, 0.0]","[0.0, 0.0, 0.0]","[0.0, 0.0, 0.0]","[-1.687, -0.616, 2.405]","[-2.456, -0.944, 2.6755]","[0.0, 0.0, 0.0]","[0.0, 0.0, 0.0]","[0.0, 0.0, 0.0]","[0.0, 0.0, 0.0]","[0.0, 0.0, 0.0]","[-2.192, 0.836, 2.6755]","[0.0, 0.0, 0.0]","[-1.776, 0.108, 2.584]","[0.0, 0.0, 0.0]","[0.0, 0.0, 0.0]","[0.0, 0.0, 0.0]","[0.0, 0.0, 0.0]"
352,1,Cloud Points(m),"[0.0, 0.0, 0.0]","[0.0, 0.0, 0.0]","[0.0, 0.0, 0.0]","[-1.687, -0.616, 2.405]","[-2.456, -0.944, 2.6755]","[0.0, 0.0, 0.0]","[0.0, 0.0, 0.0]","[0.0, 0.0, 0.0]","[0.0, 0.0, 0.0]","[0.0, 0.0, 0.0]","[-2.192, 0.836, 2.6755]","[0.0, 0.0, 0.0]","[-1.776, 0.108, 2.584]","[0.0, 0.0, 0.0]","[0.0, 0.0, 0.0]","[0.0, 0.0, 0.0]","[0.0, 0.0, 0.0]"
352,1,Cloud Points(m),"[0.0, 0.0, 0.0]","[0.0, 0.0, 0.0]","[0.0, 0.0, 0.0]","[-1.687, -0.616, 2.405]","[-2.456, -0.944, 2.6755]","[0.0, 0.0, 0.0]","[0.0, 0.0, 0.0]","[0.0, 0.0, 0.0]","[0.0, 0.0, 0.0]","[0.0, 0.0, 0.0]","[-2.192, 0.836, 2.6755]","[0.0, 0.0, 0.0]","[-1.776, 0.108, 2.584]","[0.0, 0.0, 0.0]","[0.0, 0.0, 0.0]","[0.0, 0.0, 0.0]","[0.0, 0.0, 0.0]"
352,1,Cloud Points(m),"[0.0, 0.0, 0.0]","[0.0, 0.0, 0.0]","[0.0, 0.0, 0.0]","[-1.687, -0.616, 2.405]","[-2.456, -0.944, 2.6755]","[0.0, 0.0, 0.0]","[0.0, 0.0, 0.0]","[0.0, 0.0, 0.0]","[0.0, 0.0, 0.0]","[0.0, 0.0, 0.0]","[-2.192, 0.836, 2.6755]","[0.0, 0.0, 0.0]","[-1.776, 0.108, 2.584]","[0.0, 0.0, 0.0]","[0.0, 0.0, 0.0]","[0.0, 0.0, 0.0]","[0.0, 0.0, 0.0]"
352,1,Cloud Points(m),"[0.0, 0.0, 0.0]","[0.0, 0.0, 0.0]","[0.0, 0.0, 0.0]","[-1.687, -0.616, 2.405]","[-2.456, -0.944, 2.6755]","[0.0, 0.0, 0.0]","[0.0, 0.0, 0.0]","[0.0, 0.0, 0.0]","[0.0, 0.0, 0.0]","[0.0, 0.0, 0.0]","[-2.192, 0.836, 2.6755]","[0.0, 0.0, 0.0]","[-1.776, 0.108, 2.584]","[0.0, 0.0, 0.0]","[0.0, 0.0, 0.0]","[0.0, 0.0, 0.0]","[0.0, 0.0, 0.0]"
352,1,Cloud Points(m),"[0.0, 0.0, 0.0]","[0.0, 0.0, 0.0]","[0.0, 0.0, 0.0]","[-1.687, -0.616, 2.405]","[-2.456, -0.944, 2.6755]","[0.0, 0.0, 0.0]","[0.0, 0.0, 0.0]","[0.0, 0.0, 0.0]","[0.0, 0.0, 0.0]","[0.0, 0.0, 0.0]","[-2.192, 0.836, 2.6755]","[0.0, 0.0, 0.0]","[-1.776, 0.108, 2.584]","[0.0, 0.0, 0.0]","[0.0, 0.0, 0.0]","[0.0, 0.0, 0.0]","[0.0, 0.0, 0.0]"
352,1,Cloud Points(m),"[0.0, 0.0, 0.0]","[0.0, 0.0, 0.0]","[0.0, 0.0, 0.0]","[-1.687, -0.616, 2.405]","[-2.456, -0.944, 2.6755]","[0.0, 0.0, 0.0]","[0.0, 0.0, 0.0]","[0.0, 0.0, 0.0]","[0.0, 0.0, 0.0]","[0.0, 0.0, 0.0]","[-2.192, 0.836, 2.6755]","[0.0, 0.0, 0.0]","[-1.776, 0.108, 2.584]","[0.0, 0.0, 0.0]","[0.0, 0.0, 0.0]","[0.0, 0.0, 0.0]","[0.0, 0.0, 0.0]"
352,1,Cloud Points(m),"[0.0, 0.0, 0.0]","[0.0, 0.0, 0.0]","[0.0, 0.0, 0.0]","[-1.687, -0.616, 2.405]","[-2.456, -0.944, 2.6755]","[0.0, 0.0, 0.0]","[0.0, 0.0, 0.0]","[0.0, 0.0, 0.0]","[0.0, 0.0, 0.0]","[0.0, 0.0, 0.0]","[-2.192, 0.836, 2.6755]","[0.0, 0.0, 0.0]","[-1.776, 0.108, 2.584]","[0.0, 0.0, 0.0]","[0.0, 0.0, 0.0]","[0.0, 0.0, 0.0]","[0.0, 0.0, 0.0]"
352,1,Cloud Points(m),"[0.0, 0.0, 0.0]","[0.0, 0.0, 0.0]","[0.0, 0.0, 0.0]","[-1.687, -0.616, 2.405]","[-2.456, -0.944, 2.6755]","[0.0, 0.0, 0.0]","[0.0, 0.0, 0.0]","[0.0, 0.0, 0.0]","[0.0, 0.0, 0.0]","[0.0, 0.0, 0.0]","[-2.192, 0.836, 2.6755]","[0.0, 0.0, 0.0]","[-1.776, 0.108, 2.584]","[0.0, 0.0, 0.0]","[0.0, 0.0, 0.0]","[0.0, 0.0, 0.0]","[0.0, 0.0, 0.0]"
352,1,Cloud Points(m),"[0.0, 0.0, 0.0]","[0.0, 0.0, 0.0]","[0.0, 0.0, 0.0]","[-1.687, -0.616, 2.405]","[-2.456, -0.944, 2.6755]","[0.0, 0.0, 0.0]","[0.0, 0.0, 0.0]","[0.0, 0.0, 0.0]","[0.0, 0.0, 0.0]","[0.0, 0.0, 0.0]","[-2.192, 0.836, 2.6755]","[0.0, 0.0, 0.0]","[-1.776, 0.108, 2.584]","[0.0, 0.0, 0.0]","[0.0, 0.0, 0.0]","[0.0, 0.0, 0.0]","[0.0, 0.0, 0.0]"
352,1,Cloud Points(m),"[0.0, 0.0, 0.0]","[0.0, 0.0, 0.0]","[0.0, 0.0, 0.0]","[-1.687, -0.616, 2.405]","[-2.456, -0.944, 2.6755]","[0.0, 0.0, 0.0]","[0.0, 0.0, 0.0]","[0.0, 0.0, 0.0]","[0.0, 0.0, 0.0]","[0.0, 0.0, 0.0]","[-2.192, 0.836, 2.6755]","[0.0, 0.0, 0.0]","[-1.776, 0.108, 2.584]","[0.0, 0.0, 0.0]","[0.0, 0.0, 0.0]","[0.0, 0.0, 0.0]","[0.0, 0.0, 0.0]"
352,1,Cloud Points(m),"[0.0, 0.0, 0.0]","[0.0, 0.0, 0.0]","[0.0, 0.0, 0.0]","[-1.687, -0.616, 2.405]","[-2.456, -0.944, 2.6755]","[0.0, 0.0, 0.0]","[0.0, 0.0, 0.0]","[0.0, 0.0, 0.0]","[0.0, 0.0, 0.0]","[0.0, 0.0, 0.0]","[-2.192, 0.836, 2.6755]","[0.0, 0.0, 0.0]","[-1.776, 0.108, 2.584]","[0.0, 0.0, 0.0]","[0.0, 0.0, 0.0]","[0.0, 0.0, 0.0]","[0.0, 0.0, 0.0]"
352,1,Cloud Points(m),"[0.0, 0.0, 0.0]","[0.0, 0.0, 0.0]","[0.0, 0.0, 0.0]","[-1.687, -0.616, 2.405]","[-2.456, -0.944, 2.6755]","[0.0, 0.0, 0.0]","[0.0, 0.0, 0.0]","[0.0, 0.0, 0.0]","[0.0, 0.0, 0.0]","[0.0, 0.0, 0.0]","[-2.192, 0.836, 2.6755]","[0.0, 0.0, 0.0]","[-1.776, 0.108, 2.584]","[0.0, 0.0, 0.0]","[0.0, 0.0, 0.0]","[0.0, 0.0, 0.0]","[0.0, 0.0, 0.0]"
352,1,Cloud Points(m),"[0.0, 0.0, 0.0]","[0.0, 0.0, 0.0]","[0.0, 0.0, 0.0]","[-1.687, -0.616, 2.405]","[-2.456, -0.944, 2.6755]","[0.0, 0.0, 0.0]","[0.0, 0.0, 0.0]","[0.0, 0.0, 0.0]","[0.0, 0.0, 0.0]","[0.0, 0.0, 0.0]","[-2.192, 0.836, 2.6755]","[0.0, 0.0, 0.0]","[-1.776, 0.108, 2.584]","[0.0, 0.0, 0.0]","[0.0, 0.0, 0.0]","[0.0, 0.0, 0.0]","[0.0, 0.0, 0.0]"
352,1,Cloud Points(m),"[0.0, 0.0, 0.0]","[0.0, 0.0, 0.0]","[0.0, 0.0, 0.0]","[-1.687, -0.616, 2.405]","[-2.456, -0.944, 2.6755]","[0.0, 0.0, 0.0]","[0.0, 0.0, 0.0]","[0.0, 0.0, 0.0]","[0.0, 0.0, 0.0]","[0.0, 0.0, 0.0]","[-2.192, 0.836, 2.6755]","[0.0, 0.0, 0.0]","[-1.776, 0.108, 2.584]","[0.0, 0.0, 0.0]","[0.0, 0.0, 0.0]","[0.0, 0.0, 0.0]","[0.0, 0.0, 0.0]"
352,1,Cloud Points(m),"[0.0, 0.0, 0.0]","[0.0, 0.0, 0.0]","[0.0, 0.0, 0.0]","[-1.687, -0.616, 2.405]","[-2.456, -0.944, 2.6755]","[0.0, 0.0, 0.0]","[0.0, 0.0, 0.0]","[0.0, 0.0, 0.0]","[0.0, 0.0, 0.0]","[0.0, 0.0, 0.0]","[-2.192, 0.836, 2.6755]","[0.0, 0.0, 0.0]","[-1.776, 0.108, 2.584]","[0.0, 0.0, 0.0]","[0.0, 0.0, 0.0]","[0.0, 0.0, 0.0]","[0.0, 0.0, 0.0]"
352,1,Cloud Points(m),"[0.0, 0.0, 0.0]","[0.0, 0.0, 0.0]","[0.0, 0.0, 0.0]","[-1.687, -0.616, 2.405]","[-2.456, -0.944, 2.6755]","[0.0, 0.0, 0.0]","[0.0, 0.0, 0.0]","[0.0, 0.0, 0.0]","[0.0, 0.0, 0.0]","[0.0, 0.0, 0.0]","[-2.192, 0.836, 2.6755]","[0.0, 0.0, 0.0]","[-1.776, 0.108, 2.584]","[0.0, 0.0, 0.0]","[0.0, 0.0, 0.0]","[0.0, 0.0, 0.0]","[0.0, 0.0, 0.0]"
353,0,Keypoints(m),"[-1.453, -1.231, 2.347]","[-1.488, -0.987, 2.307]","[-1.335, -1.098, 2.323]","[-1.194, -0.746, 2.315]","[-0.943, -0.462, 2.367]","[-1.863, -1.031, 2.594]","[-1.923, -0.689, 2.7405]","[0.0, 0.0, 0.0]","[-1.335, -0.412, 2.276]","[-1.233, -0.47, 2.327]","[-1.146, 0.115, 2.457]","[-1.085, 0.619, 2.489]","[-1.603, -0.4, 2.503]","[-1.378, 0.118, 2.5215]","[0.0, 0.0, 0.0]","[0.0, 0.0, 0.0]","[0.0, 0.0, 0.0]","[0.0, 0.0, 0.0]","[0.0, 0.0, 0.0]","[-1.493, -1.045, 2.315]","[0.0, 0.0, 0.0]"
353,0,Keypoints(image),"[162000.0, 13000.0, 569.04]","[151000.0, 54000.0, 890.152]","[181000.0, 35000.0, 893.909]","[206000.0, 99000.0, 876.669]","[256000.0, 153000.0, 874.164]","[120000.0, 67000.0, 881.074]","[127000.0, 129000.0, 577.379]","[0.0, 0.0, 0.0]","[176000.0, 159000.0, 825.4839999999999]","[200000.0, 150000.0, 746.684]","[227000.0, 256000.0, 805.783]","[240000.0, 342000.0, 829.27]","[153000.0, 168000.0, 793.871]","[193000.0, 256000.0, 937.4689999999999]","[0.0, 0.0, 0.0]","[171000.0, 3000.0, 61.3153]","[0.0, 0.0, 0.0]","[163000.0, 3000.0, 695.254]","[129000.0, 33000.0, 344.18199999999996]","[151000.0, 44000.0, 791.0740000000001]","[138000.0, 17000.0, 140.05999999999997]"
353,1,Keypoints(m),"[-2.264, -1.339, 2.862]","[-2.427, -1.083, 2.88]","[-2.191, -1.14, 2.803]","[0.0, 0.0, 0.0]","[0.0, 0.0, 0.0]","[-9.434, -3.626, 10.276]","[0.0, 0.0, 0.0]","[0.0, 0.0, 0.0]","[-2.32, -0.412, 2.9685]","[-2.197, -0.453, 2.962]","[-2.65, 0.311, 3.496]","[-2.027, 0.773, 2.475]","[-2.402, -0.364, 2.9235]","[-1.824, 0.119, 2.681]","[-1.969, 0.716, 3.2785]","[-2.221, -1.378, 2.7915]","[0.0, 0.0, 0.0]","[-2.415, -1.372, 2.874]","[0.0, 0.0, 0.0]","[-2.358, -1.148, 2.791]","[0.0, 0.0, 0.0]"
353,1,Keypoints(image),"[89000.0, 37000.0, 883.672]","[67000.0, 76000.0, 908.204]","[93000.0, 63000.0, 793.439]","[0.0, 0.0, 0.0]","[0.0, 0.0, 0.0]","[35000.0, 86000.0, 872.465]","[22000.0, 146000.0, 772.222]","[3000.0, 202000.0, 886.615]","[93000.0, 177000.0, 796.519]","[110000.0, 171000.0, 829.3000000000001]","[103000.0, 274000.0, 756.7049999999999]","[77000.0, 369000.0, 872.264]","[76000.0, 183000.0, 864.9369999999999]","[136000.0, 255000.0, 825.667]","[170000.0, 329000.0, 862.938]","[87000.0, 26000.0, 912.458]","[0.0, 0.0, 0.0]","[68000.0, 33000.0, 889.684]","[0.0, 0.0, 0.0]","[66000.0, 61000.0, 822.87]","[67000.0, 3000.0, 872.829]"
353,,Distance(m),0.9667522950580464,1.1042037855396076,0.9822932352408826,0.0,0.0,11.09356525198279,3.4180389479934252,0.0,1.2040686234596434,1.1544739061581253,1.838464848725697,0.9546077728575229,0.9036134405817567,0.4736636464834514,0.0,3.8241596789360144,0.0,3.9968093524710433,0.0,0.9926781955900915,0.0
353,1,Cloud Points(m),"[0.0, 0.0, 0.0]","[0.0, 0.0, 0.0]","[0.0, 0.0, 0.0]","[-9.434, -3.626, 10.276]","[0.0, 0.0, 0.0]","[0.0, 0.0, 0.0]","[0.0, 0.0, 0.0]","[0.0, 0.0, 0.0]","[0.0, 0.0, 0.0]","[-2.027, 0.773, 2.475]","[0.0, 0.0, 0.0]","[0.0, 0.0, 0.0]","[-1.969, 0.716, 3.2785]","[-2.221, -1.378, 2.7915]","[0.0, 0.0, 0.0]","[0.0, 0.0, 0.0]","[0.0, 0.0, 0.0]"
353,1,Cloud Points(m),"[0.0, 0.0, 0.0]","[0.0, 0.0, 0.0]","[0.0, 0.0, 0.0]","[-9.434, -3.626, 10.276]","[0.0, 0.0, 0.0]","[0.0, 0.0, 0.0]","[0.0, 0.0, 0.0]","[0.0, 0.0, 0.0]","[0.0, 0.0, 0.0]","[-2.027, 0.773, 2.475]","[0.0, 0.0, 0.0]","[0.0, 0.0, 0.0]","[-1.969, 0.716, 3.2785]","[-2.221, -1.378, 2.7915]","[0.0, 0.0, 0.0]","[0.0, 0.0, 0.0]","[0.0, 0.0, 0.0]"
353,1,Cloud Points(m),"[0.0, 0.0, 0.0]","[0.0, 0.0, 0.0]","[0.0, 0.0, 0.0]","[-9.434, -3.626, 10.276]","[0.0, 0.0, 0.0]","[0.0, 0.0, 0.0]","[0.0, 0.0, 0.0]","[0.0, 0.0, 0.0]","[0.0, 0.0, 0.0]","[-2.027, 0.773, 2.475]","[0.0, 0.0, 0.0]","[0.0, 0.0, 0.0]","[-1.969, 0.716, 3.2785]","[-2.221, -1.378, 2.7915]","[0.0, 0.0, 0.0]","[0.0, 0.0, 0.0]","[0.0, 0.0, 0.0]"
353,1,Cloud Points(m),"[0.0, 0.0, 0.0]","[0.0, 0.0, 0.0]","[0.0, 0.0, 0.0]","[-9.434, -3.626, 10.276]","[0.0, 0.0, 0.0]","[0.0, 0.0, 0.0]","[0.0, 0.0, 0.0]","[0.0, 0.0, 0.0]","[0.0, 0.0, 0.0]","[-2.027, 0.773, 2.475]","[0.0, 0.0, 0.0]","[0.0, 0.0, 0.0]","[-1.969, 0.716, 3.2785]","[-2.221, -1.378, 2.7915]","[0.0, 0.0, 0.0]","[0.0, 0.0, 0.0]","[0.0, 0.0, 0.0]"
353,1,Cloud Points(m),"[0.0, 0.0, 0.0]","[0.0, 0.0, 0.0]","[0.0, 0.0, 0.0]","[-9.434, -3.626, 10.276]","[0.0, 0.0, 0.0]","[0.0, 0.0, 0.0]","[0.0, 0.0, 0.0]","[0.0, 0.0, 0.0]","[0.0, 0.0, 0.0]","[-2.027, 0.773, 2.475]","[0.0, 0.0, 0.0]","[0.0, 0.0, 0.0]","[-1.969, 0.716, 3.2785]","[-2.221, -1.378, 2.7915]","[0.0, 0.0, 0.0]","[0.0, 0.0, 0.0]","[0.0, 0.0, 0.0]"
353,1,Cloud Points(m),"[0.0, 0.0, 0.0]","[0.0, 0.0, 0.0]","[0.0, 0.0, 0.0]","[-9.434, -3.626, 10.276]","[0.0, 0.0, 0.0]","[0.0, 0.0, 0.0]","[0.0, 0.0, 0.0]","[0.0, 0.0, 0.0]","[0.0, 0.0, 0.0]","[-2.027, 0.773, 2.475]","[0.0, 0.0, 0.0]","[0.0, 0.0, 0.0]","[-1.969, 0.716, 3.2785]","[-2.221, -1.378, 2.7915]","[0.0, 0.0, 0.0]","[0.0, 0.0, 0.0]","[0.0, 0.0, 0.0]"
353,1,Cloud Points(m),"[0.0, 0.0, 0.0]","[0.0, 0.0, 0.0]","[0.0, 0.0, 0.0]","[-9.434, -3.626, 10.276]","[0.0, 0.0, 0.0]","[0.0, 0.0, 0.0]","[0.0, 0.0, 0.0]","[0.0, 0.0, 0.0]","[0.0, 0.0, 0.0]","[-2.027, 0.773, 2.475]","[0.0, 0.0, 0.0]","[0.0, 0.0, 0.0]","[-1.969, 0.716, 3.2785]","[-2.221, -1.378, 2.7915]","[0.0, 0.0, 0.0]","[0.0, 0.0, 0.0]","[0.0, 0.0, 0.0]"
353,1,Cloud Points(m),"[0.0, 0.0, 0.0]","[0.0, 0.0, 0.0]","[0.0, 0.0, 0.0]","[-9.434, -3.626, 10.276]","[0.0, 0.0, 0.0]","[0.0, 0.0, 0.0]","[0.0, 0.0, 0.0]","[0.0, 0.0, 0.0]","[0.0, 0.0, 0.0]","[-2.027, 0.773, 2.475]","[0.0, 0.0, 0.0]","[0.0, 0.0, 0.0]","[-1.969, 0.716, 3.2785]","[-2.221, -1.378, 2.7915]","[0.0, 0.0, 0.0]","[0.0, 0.0, 0.0]","[0.0, 0.0, 0.0]"
353,1,Cloud Points(m),"[0.0, 0.0, 0.0]","[0.0, 0.0, 0.0]","[0.0, 0.0, 0.0]","[-9.434, -3.626, 10.276]","[0.0, 0.0, 0.0]","[0.0, 0.0, 0.0]","[0.0, 0.0, 0.0]","[0.0, 0.0, 0.0]","[0.0, 0.0, 0.0]","[-2.027, 0.773, 2.475]","[0.0, 0.0, 0.0]","[0.0, 0.0, 0.0]","[-1.969, 0.716, 3.2785]","[-2.221, -1.378, 2.7915]","[0.0, 0.0, 0.0]","[0.0, 0.0, 0.0]","[0.0, 0.0, 0.0]"
353,1,Cloud Points(m),"[0.0, 0.0, 0.0]","[0.0, 0.0, 0.0]","[0.0, 0.0, 0.0]","[-9.434, -3.626, 10.276]","[0.0, 0.0, 0.0]","[0.0, 0.0, 0.0]","[0.0, 0.0, 0.0]","[0.0, 0.0, 0.0]","[0.0, 0.0, 0.0]","[-2.027, 0.773, 2.475]","[0.0, 0.0, 0.0]","[0.0, 0.0, 0.0]","[-1.969, 0.716, 3.2785]","[-2.221, -1.378, 2.7915]","[0.0, 0.0, 0.0]","[0.0, 0.0, 0.0]","[0.0, 0.0, 0.0]"
353,1,Cloud Points(m),"[0.0, 0.0, 0.0]","[0.0, 0.0, 0.0]","[0.0, 0.0, 0.0]","[-9.434, -3.626, 10.276]","[0.0, 0.0, 0.0]","[0.0, 0.0, 0.0]","[0.0, 0.0, 0.0]","[0.0, 0.0, 0.0]","[0.0, 0.0, 0.0]","[-2.027, 0.773, 2.475]","[0.0, 0.0, 0.0]","[0.0, 0.0, 0.0]","[-1.969, 0.716, 3.2785]","[-2.221, -1.378, 2.7915]","[0.0, 0.0, 0.0]","[0.0, 0.0, 0.0]","[0.0, 0.0, 0.0]"
353,1,Cloud Points(m),"[0.0, 0.0, 0.0]","[0.0, 0.0, 0.0]","[0.0, 0.0, 0.0]","[-9.434, -3.626, 10.276]","[0.0, 0.0, 0.0]","[0.0, 0.0, 0.0]","[0.0, 0.0, 0.0]","[0.0, 0.0, 0.0]","[0.0, 0.0, 0.0]","[-2.027, 0.773, 2.475]","[0.0, 0.0, 0.0]","[0.0, 0.0, 0.0]","[-1.969, 0.716, 3.2785]","[-2.221, -1.378, 2.7915]","[0.0, 0.0, 0.0]","[0.0, 0.0, 0.0]","[0.0, 0.0, 0.0]"
353,1,Cloud Points(m),"[0.0, 0.0, 0.0]","[0.0, 0.0, 0.0]","[0.0, 0.0, 0.0]","[-9.434, -3.626, 10.276]","[0.0, 0.0, 0.0]","[0.0, 0.0, 0.0]","[0.0, 0.0, 0.0]","[0.0, 0.0, 0.0]","[0.0, 0.0, 0.0]","[-2.027, 0.773, 2.475]","[0.0, 0.0, 0.0]","[0.0, 0.0, 0.0]","[-1.969, 0.716, 3.2785]","[-2.221, -1.378, 2.7915]","[0.0, 0.0, 0.0]","[0.0, 0.0, 0.0]","[0.0, 0.0, 0.0]"
353,1,Cloud Points(m),"[0.0, 0.0, 0.0]","[0.0, 0.0, 0.0]","[0.0, 0.0, 0.0]","[-9.434, -3.626, 10.276]","[0.0, 0.0, 0.0]","[0.0, 0.0, 0.0]","[0.0, 0.0, 0.0]","[0.0, 0.0, 0.0]","[0.0, 0.0, 0.0]","[-2.027, 0.773, 2.475]","[0.0, 0.0, 0.0]","[0.0, 0.0, 0.0]","[-1.969, 0.716, 3.2785]","[-2.221, -1.378, 2.7915]","[0.0, 0.0, 0.0]","[0.0, 0.0, 0.0]","[0.0, 0.0, 0.0]"
353,1,Cloud Points(m),"[0.0, 0.0, 0.0]","[0.0, 0.0, 0.0]","[0.0, 0.0, 0.0]","[-9.434, -3.626, 10.276]","[0.0, 0.0, 0.0]","[0.0, 0.0, 0.0]","[0.0, 0.0, 0.0]","[0.0, 0.0, 0.0]","[0.0, 0.0, 0.0]","[-2.027, 0.773, 2.475]","[0.0, 0.0, 0.0]","[0.0, 0.0, 0.0]","[-1.969, 0.716, 3.2785]","[-2.221, -1.378, 2.7915]","[0.0, 0.0, 0.0]","[0.0, 0.0, 0.0]","[0.0, 0.0, 0.0]"
353,1,Cloud Points(m),"[0.0, 0.0, 0.0]","[0.0, 0.0, 0.0]","[0.0, 0.0, 0.0]","[-9.434, -3.626, 10.276]","[0.0, 0.0, 0.0]","[0.0, 0.0, 0.0]","[0.0, 0.0, 0.0]","[0.0, 0.0, 0.0]","[0.0, 0.0, 0.0]","[-2.027, 0.773, 2.475]","[0.0, 0.0, 0.0]","[0.0, 0.0, 0.0]","[-1.969, 0.716, 3.2785]","[-2.221, -1.378, 2.7915]","[0.0, 0.0, 0.0]","[0.0, 0.0, 0.0]","[0.0, 0.0, 0.0]"
353,1,Cloud Points(m),"[0.0, 0.0, 0.0]","[0.0, 0.0, 0.0]","[0.0, 0.0, 0.0]","[-9.434, -3.626, 10.276]","[0.0, 0.0, 0.0]","[0.0, 0.0, 0.0]","[0.0, 0.0, 0.0]","[0.0, 0.0, 0.0]","[0.0, 0.0, 0.0]","[-2.027, 0.773, 2.475]","[0.0, 0.0, 0.0]","[0.0, 0.0, 0.0]","[-1.969, 0.716, 3.2785]","[-2.221, -1.378, 2.7915]","[0.0, 0.0, 0.0]","[0.0, 0.0, 0.0]","[0.0, 0.0, 0.0]"
353,1,Cloud Points(m),"[0.0, 0.0, 0.0]","[0.0, 0.0, 0.0]","[0.0, 0.0, 0.0]","[-9.434, -3.626, 10.276]","[0.0, 0.0, 0.0]","[0.0, 0.0, 0.0]","[0.0, 0.0, 0.0]","[0.0, 0.0, 0.0]","[0.0, 0.0, 0.0]","[-2.027, 0.773, 2.475]","[0.0, 0.0, 0.0]","[0.0, 0.0, 0.0]","[-1.969, 0.716, 3.2785]","[-2.221, -1.378, 2.7915]","[0.0, 0.0, 0.0]","[0.0, 0.0, 0.0]","[0.0, 0.0, 0.0]"
354,0,Keypoints(m),"[0.0, 0.0, 0.0]","[-1.433, -1.03, 2.331]","[-1.313, -1.141, 2.414]","[-1.089, -0.769, 2.371]","[-0.784, -0.508, 2.3755]","[-1.701, -1.003, 2.466]","[-1.761, -0.648, 2.624]","[0.0, 0.0, 0.0]","[-1.328, -0.438, 2.3885]","[-1.265, -0.5, 2.475]","[-1.096, 0.114, 2.4355]","[-1.077, 0.621, 2.4705]","[-1.455, -0.413, 2.405]","[-1.243, 0.051, 2.466]","[-1.232, 0.528, 2.444]","[0.0, 0.0, 0.0]","[0.0, 0.0, 0.0]","[0.0, 0.0, 0.0]","[0.0, 0.0, 0.0]","[-1.421, -1.078, 2.339]","[0.0, 0.0, 0.0]"
354,0,Keypoints(image),"[176000.0, 3000.0, 521.664]","[164000.0, 48000.0, 814.22]","[194000.0, 35000.0, 840.456]","[230000.0, 98000.0, 832.9649999999999]","[285000.0, 145000.0, 793.061]","[132000.0, 63000.0, 744.197]","[140000.0, 131000.0, 624.561]","[0.0, 0.0, 0.0]","[189000.0, 158000.0, 780.047]","[208000.0, 150000.0, 731.62]","[234000.0, 256000.0, 826.763]","[240000.0, 343000.0, 792.931]","[168000.0, 163000.0, 742.136]","[211000.0, 245000.0, 781.4259999999999]","[211000.0, 328000.0, 828.545]","[184000.0, 3000.0, 63.494400000000006]","[0.0, 0.0, 0.0]","[181000.0, 3000.0, 719.665]","[146000.0, 3000.0, 386.0]","[167000.0, 40000.0, 689.5609999999999]","[0.0, 0.0, 0.0]"
354,1,Keypoints(m),"[-2.229, -1.339, 2.9045]","[-2.326, -1.077, 2.898]","[-2.154, -1.154, 2.9045]","[0.0, 0.0, 0.0]","[0.0, 0.0, 0.0]","[-2.561, -1.019, 2.949]","[-2.702, -0.631, 2.9815]","[-2.844, -0.277, 3.021]","[-2.145, -0.381, 2.8925]","[-2.007, -0.433, 2.88]","[-1.919, 0.191, 2.82]","[-2.03, 0.698, 2.629]","[-2.442, -0.379, 3.097]","[-1.807, 0.117, 2.78]","[-1.862, 0.77, 3.214]","[-2.234, -1.403, 2.911]","[0.0, 0.0, 0.0]","[-2.298, -1.348, 2.88]","[0.0, 0.0, 0.0]","[-2.34, -1.179, 2.898]","[0.0, 0.0, 0.0]"
354,1,Keypoints(image),"[99000.0, 40000.0, 839.2570000000001]","[84000.0, 78000.0, 864.855]","[110000.0, 67000.0, 885.512]","[130000.0, 112000.0, 230.117]","[0.0, 0.0, 0.0]","[56000.0, 89000.0, 899.378]","[40000.0, 146000.0, 778.103]","[25000.0, 197000.0, 840.576]","[110000.0, 180000.0, 857.752]","[129000.0, 172000.0, 808.9490000000001]","[136000.0, 265000.0, 705.844]","[97000.0, 349000.0, 851.896]","[90000.0, 184000.0, 799.9540000000001]","[149000.0, 254000.0, 718.659]","[179000.0, 338000.0, 820.16]","[99000.0, 31000.0, 856.0699999999999]","[0.0, 0.0, 0.0]","[86000.0, 37000.0, 893.4499999999999]","[60000.0, 48000.0, 60.87929999999999]","[82000.0, 63000.0, 795.0749999999999]","[78000.0, 8000.0, 791.3820000000001]"
354,,Distance(m),3.8983948299267994,1.058842292317416,0.9736735849349103,2.72009613800689,0.0,0.9864811199409749,1.0067652407587382,0.0,0.9616413052692776,0.8479846696727483,0.9116459016526098,0.96915439946378,1.205897591008457,0.6488821156419708,1.0238964791423009,3.9284966590287436,0.0,3.9233032001108454,0.0,1.080390207286238,0.0
354,1,Cloud Points(m),"[0.0, 0.0, 0.0]","[0.0, 0.0, 0.0]","[0.0, 0.0, 0.0]","[-1.858, -0.78, 2.6755]","[0.0, 0.0, 0.0]","[0.0, 0.0, 0.0]","[-2.844, -0.277, 3.021]","[0.0, 0.0, 0.0]","[0.0, 0.0, 0.0]","[0.0, 0.0, 0.0]","[-2.03, 0.698, 2.629]","[0.0, 0.0, 0.0]","[0.0, 0.0, 0.0]","[-1.862, 0.77, 3.214]","[-2.234, -1.403, 2.911]","[0.0, 0.0, 0.0]","[-2.49, -1.281, 2.898]","[0.0, 0.0, 0.0]","[0.0, 0.0, 0.0]"
354,1,Cloud Points(m),"[0.0, 0.0, 0.0]","[0.0, 0.0, 0.0]","[0.0, 0.0, 0.0]","[-1.858, -0.78, 2.6755]","[0.0, 0.0, 0.0]","[0.0, 0.0, 0.0]","[-2.844, -0.277, 3.021]","[0.0, 0.0, 0.0]","[0.0, 0.0, 0.0]","[0.0, 0.0, 0.0]","[-2.03, 0.698, 2.629]","[0.0, 0.0, 0.0]","[0.0, 0.0, 0.0]","[-1.862, 0.77, 3.214]","[-2.234, -1.403, 2.911]","[0.0, 0.0, 0.0]","[-2.49, -1.281, 2.898]","[0.0, 0.0, 0.0]","[0.0, 0.0, 0.0]"
354,1,Cloud Points(m),"[0.0, 0.0, 0.0]","[0.0, 0.0, 0.0]","[0.0, 0.0, 0.0]","[-1.858, -0.78, 2.6755]","[0.0, 0.0, 0.0]","[0.0, 0.0, 0.0]","[-2.844, -0.277, 3.021]","[0.0, 0.0, 0.0]","[0.0, 0.0, 0.0]","[0.0, 0.0, 0.0]","[-2.03, 0.698, 2.629]","[0.0, 0.0, 0.0]","[0.0, 0.0, 0.0]","[-1.862, 0.77, 3.214]","[-2.234, -1.403, 2.911]","[0.0, 0.0, 0.0]","[-2.49, -1.281, 2.898]","[0.0, 0.0, 0.0]","[0.0, 0.0, 0.0]"
354,1,Cloud Points(m),"[0.0, 0.0, 0.0]","[0.0, 0.0, 0.0]","[0.0, 0.0, 0.0]","[-1.858, -0.78, 2.6755]","[0.0, 0.0, 0.0]","[0.0, 0.0, 0.0]","[-2.844, -0.277, 3.021]","[0.0, 0.0, 0.0]","[0.0, 0.0, 0.0]","[0.0, 0.0, 0.0]","[-2.03, 0.698, 2.629]","[0.0, 0.0, 0.0]","[0.0, 0.0, 0.0]","[-1.862, 0.77, 3.214]","[-2.234, -1.403, 2.911]","[0.0, 0.0, 0.0]","[-2.49, -1.281, 2.898]","[0.0, 0.0, 0.0]","[0.0, 0.0, 0.0]"
354,1,Cloud Points(m),"[0.0, 0.0, 0.0]","[0.0, 0.0, 0.0]","[0.0, 0.0, 0.0]","[-1.858, -0.78, 2.6755]","[0.0, 0.0, 0.0]","[0.0, 0.0, 0.0]","[-2.844, -0.277, 3.021]","[0.0, 0.0, 0.0]","[0.0, 0.0, 0.0]","[0.0, 0.0, 0.0]","[-2.03, 0.698, 2.629]","[0.0, 0.0, 0.0]","[0.0, 0.0, 0.0]","[-1.862, 0.77, 3.214]","[-2.234, -1.403, 2.911]","[0.0, 0.0, 0.0]","[-2.49, -1.281, 2.898]","[0.0, 0.0, 0.0]","[0.0, 0.0, 0.0]"
354,1,Cloud Points(m),"[0.0, 0.0, 0.0]","[0.0, 0.0, 0.0]","[0.0, 0.0, 0.0]","[-1.858, -0.78, 2.6755]","[0.0, 0.0, 0.0]","[0.0, 0.0, 0.0]","[-2.844, -0.277, 3.021]","[0.0, 0.0, 0.0]","[0.0, 0.0, 0.0]","[0.0, 0.0, 0.0]","[-2.03, 0.698, 2.629]","[0.0, 0.0, 0.0]","[0.0, 0.0, 0.0]","[-1.862, 0.77, 3.214]","[-2.234, -1.403, 2.911]","[0.0, 0.0, 0.0]","[-2.49, -1.281, 2.898]","[0.0, 0.0, 0.0]","[0.0, 0.0, 0.0]"
354,1,Cloud Points(m),"[0.0, 0.0, 0.0]","[0.0, 0.0, 0.0]","[0.0, 0.0, 0.0]","[-1.858, -0.78, 2.6755]","[0.0, 0.0, 0.0]","[0.0, 0.0, 0.0]","[-2.844, -0.277, 3.021]","[0.0, 0.0, 0.0]","[0.0, 0.0, 0.0]","[0.0, 0.0, 0.0]","[-2.03, 0.698, 2.629]","[0.0, 0.0, 0.0]","[0.0, 0.0, 0.0]","[-1.862, 0.77, 3.214]","[-2.234, -1.403, 2.911]","[0.0, 0.0, 0.0]","[-2.49, -1.281, 2.898]","[0.0, 0.0, 0.0]","[0.0, 0.0, 0.0]"
354,1,Cloud Points(m),"[0.0, 0.0, 0.0]","[0.0, 0.0, 0.0]","[0.0, 0.0, 0.0]","[-1.858, -0.78, 2.6755]","[0.0, 0.0, 0.0]","[0.0, 0.0, 0.0]","[-2.844, -0.277, 3.021]","[0.0, 0.0, 0.0]","[0.0, 0.0, 0.0]","[0.0, 0.0, 0.0]","[-2.03, 0.698, 2.629]","[0.0, 0.0, 0.0]","[0.0, 0.0, 0.0]","[-1.862, 0.77, 3.214]","[-2.234, -1.403, 2.911]","[0.0, 0.0, 0.0]","[-2.49, -1.281, 2.898]","[0.0, 0.0, 0.0]","[0.0, 0.0, 0.0]"
354,1,Cloud Points(m),"[0.0, 0.0, 0.0]","[0.0, 0.0, 0.0]","[0.0, 0.0, 0.0]","[-1.858, -0.78, 2.6755]","[0.0, 0.0, 0.0]","[0.0, 0.0, 0.0]","[-2.844, -0.277, 3.021]","[0.0, 0.0, 0.0]","[0.0, 0.0, 0.0]","[0.0, 0.0, 0.0]","[-2.03, 0.698, 2.629]","[0.0, 0.0, 0.0]","[0.0, 0.0, 0.0]","[-1.862, 0.77, 3.214]","[-2.234, -1.403, 2.911]","[0.0, 0.0, 0.0]","[-2.49, -1.281, 2.898]","[0.0, 0.0, 0.0]","[0.0, 0.0, 0.0]"
354,1,Cloud Points(m),"[0.0, 0.0, 0.0]","[0.0, 0.0, 0.0]","[0.0, 0.0, 0.0]","[-1.858, -0.78, 2.6755]","[0.0, 0.0, 0.0]","[0.0, 0.0, 0.0]","[-2.844, -0.277, 3.021]","[0.0, 0.0, 0.0]","[0.0, 0.0, 0.0]","[0.0, 0.0, 0.0]","[-2.03, 0.698, 2.629]","[0.0, 0.0, 0.0]","[0.0, 0.0, 0.0]","[-1.862, 0.77, 3.214]","[-2.234, -1.403, 2.911]","[0.0, 0.0, 0.0]","[-2.49, -1.281, 2.898]","[0.0, 0.0, 0.0]","[0.0, 0.0, 0.0]"
354,1,Cloud Points(m),"[0.0, 0.0, 0.0]","[0.0, 0.0, 0.0]","[0.0, 0.0, 0.0]","[-1.858, -0.78, 2.6755]","[0.0, 0.0, 0.0]","[0.0, 0.0, 0.0]","[-2.844, -0.277, 3.021]","[0.0, 0.0, 0.0]","[0.0, 0.0, 0.0]","[0.0, 0.0, 0.0]","[-2.03, 0.698, 2.629]","[0.0, 0.0, 0.0]","[0.0, 0.0, 0.0]","[-1.862, 0.77, 3.214]","[-2.234, -1.403, 2.911]","[0.0, 0.0, 0.0]","[-2.49, -1.281, 2.898]","[0.0, 0.0, 0.0]","[0.0, 0.0, 0.0]"
354,1,Cloud Points(m),"[0.0, 0.0, 0.0]","[0.0, 0.0, 0.0]","[0.0, 0.0, 0.0]","[-1.858, -0.78, 2.6755]","[0.0, 0.0, 0.0]","[0.0, 0.0, 0.0]","[-2.844, -0.277, 3.021]","[0.0, 0.0, 0.0]","[0.0, 0.0, 0.0]","[0.0, 0.0, 0.0]","[-2.03, 0.698, 2.629]","[0.0, 0.0, 0.0]","[0.0, 0.0, 0.0]","[-1.862, 0.77, 3.214]","[-2.234, -1.403, 2.911]","[0.0, 0.0, 0.0]","[-2.49, -1.281, 2.898]","[0.0, 0.0, 0.0]","[0.0, 0.0, 0.0]"
354,1,Cloud Points(m),"[0.0, 0.0, 0.0]","[0.0, 0.0, 0.0]","[0.0, 0.0, 0.0]","[-1.858, -0.78, 2.6755]","[0.0, 0.0, 0.0]","[0.0, 0.0, 0.0]","[-2.844, -0.277, 3.021]","[0.0, 0.0, 0.0]","[0.0, 0.0, 0.0]","[0.0, 0.0, 0.0]","[-2.03, 0.698, 2.629]","[0.0, 0.0, 0.0]","[0.0, 0.0, 0.0]","[-1.862, 0.77, 3.214]","[-2.234, -1.403, 2.911]","[0.0, 0.0, 0.0]","[-2.49, -1.281, 2.898]","[0.0, 0.0, 0.0]","[0.0, 0.0, 0.0]"
354,1,Cloud Points(m),"[0.0, 0.0, 0.0]","[0.0, 0.0, 0.0]","[0.0, 0.0, 0.0]","[-1.858, -0.78, 2.6755]","[0.0, 0.0, 0.0]","[0.0, 0.0, 0.0]","[-2.844, -0.277, 3.021]","[0.0, 0.0, 0.0]","[0.0, 0.0, 0.0]","[0.0, 0.0, 0.0]","[-2.03, 0.698, 2.629]","[0.0, 0.0, 0.0]","[0.0, 0.0, 0.0]","[-1.862, 0.77, 3.214]","[-2.234, -1.403, 2.911]","[0.0, 0.0, 0.0]","[-2.49, -1.281, 2.898]","[0.0, 0.0, 0.0]","[0.0, 0.0, 0.0]"
354,1,Cloud Points(m),"[0.0, 0.0, 0.0]","[0.0, 0.0, 0.0]","[0.0, 0.0, 0.0]","[-1.858, -0.78, 2.6755]","[0.0, 0.0, 0.0]","[0.0, 0.0, 0.0]","[-2.844, -0.277, 3.021]","[0.0, 0.0, 0.0]","[0.0, 0.0, 0.0]","[0.0, 0.0, 0.0]","[-2.03, 0.698, 2.629]","[0.0, 0.0, 0.0]","[0.0, 0.0, 0.0]","[-1.862, 0.77, 3.214]","[-2.234, -1.403, 2.911]","[0.0, 0.0, 0.0]","[-2.49, -1.281, 2.898]","[0.0, 0.0, 0.0]","[0.0, 0.0, 0.0]"
354,1,Cloud Points(m),"[0.0, 0.0, 0.0]","[0.0, 0.0, 0.0]","[0.0, 0.0, 0.0]","[-1.858, -0.78, 2.6755]","[0.0, 0.0, 0.0]","[0.0, 0.0, 0.0]","[-2.844, -0.277, 3.021]","[0.0, 0.0, 0.0]","[0.0, 0.0, 0.0]","[0.0, 0.0, 0.0]","[-2.03, 0.698, 2.629]","[0.0, 0.0, 0.0]","[0.0, 0.0, 0.0]","[-1.862, 0.77, 3.214]","[-2.234, -1.403, 2.911]","[0.0, 0.0, 0.0]","[-2.49, -1.281, 2.898]","[0.0, 0.0, 0.0]","[0.0, 0.0, 0.0]"
354,1,Cloud Points(m),"[0.0, 0.0, 0.0]","[0.0, 0.0, 0.0]","[0.0, 0.0, 0.0]","[-1.858, -0.78, 2.6755]","[0.0, 0.0, 0.0]","[0.0, 0.0, 0.0]","[-2.844, -0.277, 3.021]","[0.0, 0.0, 0.0]","[0.0, 0.0, 0.0]","[0.0, 0.0, 0.0]","[-2.03, 0.698, 2.629]","[0.0, 0.0, 0.0]","[0.0, 0.0, 0.0]","[-1.862, 0.77, 3.214]","[-2.234, -1.403, 2.911]","[0.0, 0.0, 0.0]","[-2.49, -1.281, 2.898]","[0.0, 0.0, 0.0]","[0.0, 0.0, 0.0]"
354,1,Cloud Points(m),"[0.0, 0.0, 0.0]","[0.0, 0.0, 0.0]","[0.0, 0.0, 0.0]","[-1.858, -0.78, 2.6755]","[0.0, 0.0, 0.0]","[0.0, 0.0, 0.0]","[-2.844, -0.277, 3.021]","[0.0, 0.0, 0.0]","[0.0, 0.0, 0.0]","[0.0, 0.0, 0.0]","[-2.03, 0.698, 2.629]","[0.0, 0.0, 0.0]","[0.0, 0.0, 0.0]","[-1.862, 0.77, 3.214]","[-2.234, -1.403, 2.911]","[0.0, 0.0, 0.0]","[-2.49, -1.281, 2.898]","[0.0, 0.0, 0.0]","[0.0, 0.0, 0.0]"
354,1,Cloud Points(m),"[0.0, 0.0, 0.0]","[0.0, 0.0, 0.0]","[0.0, 0.0, 0.0]","[-1.858, -0.78, 2.6755]","[0.0, 0.0, 0.0]","[0.0, 0.0, 0.0]","[-2.844, -0.277, 3.021]","[0.0, 0.0, 0.0]","[0.0, 0.0, 0.0]","[0.0, 0.0, 0.0]","[-2.03, 0.698, 2.629]","[0.0, 0.0, 0.0]","[0.0, 0.0, 0.0]","[-1.862, 0.77, 3.214]","[-2.234, -1.403, 2.911]","[0.0, 0.0, 0.0]","[-2.49, -1.281, 2.898]","[0.0, 0.0, 0.0]","[0.0, 0.0, 0.0]"
355,0,Keypoints(m),"[0.0, 0.0, 0.0]","[-1.473, -1.044, 2.388]","[-1.31, -1.133, 2.397]","[-1.128, -0.789, 2.431]","[-0.743, -0.491, 2.22]","[-1.919, -1.109, 2.791]","[-1.904, -0.701, 2.838]","[0.0, 0.0, 0.0]","[-1.391, -0.451, 2.4615]","[-1.255, -0.49, 2.422]","[-1.126, 0.117, 2.503]","[-1.083, 0.624, 2.484]","[-1.555, -0.438, 2.55]","[-0.631, 0.032, 1.2515]","[-2.611, 1.119, 5.179]","[0.0, 0.0, 0.0]","[0.0, 0.0, 0.0]","[0.0, 0.0, 0.0]","[0.0, 0.0, 0.0]","[-1.473, -1.105, 2.397]","[0.0, 0.0, 0.0]"
355,0,Keypoints(image),"[179000.0, 3000.0, 507.69399999999996]","[163000.0, 50000.0, 840.05]","[193000.0, 35000.0, 900.4569999999999]","[228000.0, 98000.0, 854.1370000000001]","[283000.0, 142000.0, 817.285]","[133000.0, 67000.0, 775.58]","[140000.0, 131000.0, 800.3639999999999]","[0.0, 0.0, 0.0]","[185000.0, 158000.0, 823.549]","[205000.0, 150000.0, 801.868]","[234000.0, 256000.0, 842.144]","[240000.0, 343000.0, 804.722]","[166000.0, 163000.0, 788.053]","[211000.0, 247000.0, 837.8330000000001]","[211000.0, 328000.0, 849.0889999999999]","[185000.0, 3000.0, 79.9275]","[0.0, 0.0, 0.0]","[181000.0, 3000.0, 665.132]","[144000.0, 20000.0, 271.727]","[164000.0, 40000.0, 728.035]","[0.0, 0.0, 0.0]"
