yoavgoldstein1/3D-Social-Research/CSVs/Sampled/0_598_Final.csv
FrameID,BodyID,Type,Joint 1,Joint 2,Joint 3,Joint 4,Joint 5,Joint 6,Joint 7,Joint 8,Joint 9,Joint 10,Joint 11,Joint 12,Joint 13,Joint 14,Joint 15,Joint 16,Joint 17,Joint 18,Joint 19,Joint 20,Joint 21,Distances
0
1
2
3
4
5
6
7
8
9
10
11
12
13
14
15
16
17
18
19
20
21
22
23
24
25
26
27
28
29
30
31
32
33
34
35
36
37
38
39
40
41
42
43
44
45
46
47
48
49
50
51
52
53
54
55
56
57
58
59
60
61
62
63
64
65
66
67
68
69
70
71
72
73
74
75
76
77
78
79
80
81
82
83
84
85
86
87
88
89
90
91
92
93
94
95
96
97
98
99
FrameID,BodyID,Type,Joint 1,Joint 2,Joint 3,Joint 4,Joint 5,Joint 6,Joint 7,Joint 8,Joint 9,Joint 10,Joint 11,Joint 12,Joint 13,Joint 14,Joint 15,Joint 16,Joint 17,Joint 18,Joint 19,Joint 20,Joint 21,Distances
100
101
102
103
104
105
106
107
108
109
110
111
112
113
114
115
116
117
118
119
120
121
122
123
124
125
126
127
128
129
130
131
132
133
134
135
136
137
138
139
140
141
142
143
144
145
146
147
148
149
150
151
152
153
154
155
156
157
158
159
160
161
162
163
164
165
166
167
168
169
170
171
172
173
174
175
176
177
178,0,Keypoints(m),"[0.0, 0.0, 0.0]","[0.0, 0.0, 0.0]","[0.0, 0.0, 0.0]","[0.0, 0.0, 0.0]","[0.0, 0.0, 0.0]","[0.0, 0.0, 0.0]","[0.0, 0.0, 0.0]","[0.0, 0.0, 0.0]","[0.0, 0.0, 0.0]","[0.0, 0.0, 0.0]","[0.0, 0.0, 0.0]","[0.0, 0.0, 0.0]","[0.0, 0.0, 0.0]","[0.378, -0.004, 1.7595]","[0.703, 0.423, 1.64]","[0.0, 0.0, 0.0]","[0.0, 0.0, 0.0]","[0.0, 0.0, 0.0]","[0.0, 0.0, 0.0]","[0.0, 0.0, 0.0]","[0.0, 0.0, 0.0]"
178,0,Keypoints(image),"[0.0, 0.0, 0.0]","[0.0, 0.0, 0.0]","[0.0, 0.0, 0.0]","[0.0, 0.0, 0.0]","[0.0, 0.0, 0.0]","[0.0, 0.0, 0.0]","[0.0, 0.0, 0.0]","[0.0, 0.0, 0.0]","[585000.0, 121000.0, 228.946]","[599000.0, 119000.0, 241.391]","[621000.0, 258000.0, 245.831]","[0.0, 0.0, 0.0]","[573000.0, 123000.0, 128.632]","[517000.0, 235000.0, 778.034]","[608000.0, 346000.0, 566.1]","[0.0, 0.0, 0.0]","[0.0, 0.0, 0.0]","[0.0, 0.0, 0.0]","[0.0, 0.0, 0.0]","[0.0, 0.0, 0.0]","[0.0, 0.0, 0.0]"
178,,Distance(m),0.0,0.0,0.0,0.0,0.0,0.0,0.0,0.0,0.0,0.0,0.0,0.0,0.0,0.0,0.0,0.0,0.0,0.0,0.0,0.0,0.0
178,0,Cloud Points(m),"[0.603, -0.435, 1.609]","[0.631, -0.426, 1.548]","[0.77, 0.086, 1.675]","[0.565, -0.433, 1.63]","[0.378, -0.004, 1.7595]","[0.703, 0.423, 1.64]"
179,0,Keypoints(m),"[0.0, 0.0, 0.0]","[0.0, 0.0, 0.0]","[0.0, 0.0, 0.0]","[0.0, 0.0, 0.0]","[0.0, 0.0, 0.0]","[0.0, 0.0, 0.0]","[0.0, 0.0, 0.0]","[0.0, 0.0, 0.0]","[0.549, -0.375, 1.628]","[0.597, -0.362, 1.572]","[0.813, 0.118, 1.691]","[0.0, 0.0, 0.0]","[0.486, -0.371, 1.662]","[0.344, 0.0, 1.775]","[0.609, 0.498, 1.7105]","[0.0, 0.0, 0.0]","[0.0, 0.0, 0.0]","[0.0, 0.0, 0.0]","[0.0, 0.0, 0.0]","[0.0, 0.0, 0.0]","[0.0, 0.0, 0.0]"
179,0,Keypoints(image),"[0.0, 0.0, 0.0]","[0.0, 0.0, 0.0]","[0.0, 0.0, 0.0]","[0.0, 0.0, 0.0]","[0.0, 0.0, 0.0]","[0.0, 0.0, 0.0]","[0.0, 0.0, 0.0]","[0.0, 0.0, 0.0]","[569000.0, 138000.0, 348.49999999999994]","[587000.0, 138000.0, 276.06]","[630000.0, 266000.0, 318.271]","[0.0, 0.0, 0.0]","[550000.0, 141000.0, 289.57899999999995]","[508000.0, 236000.0, 789.808]","[577000.0, 360000.0, 782.063]","[0.0, 0.0, 0.0]","[0.0, 0.0, 0.0]","[0.0, 0.0, 0.0]","[0.0, 0.0, 0.0]","[0.0, 0.0, 0.0]","[0.0, 0.0, 0.0]"
179,,Distance(m),0.0,0.0,0.0,0.0,0.0,0.0,0.0,0.0,0.0,0.0,0.0,0.0,0.0,0.0,0.0,0.0,0.0,0.0,0.0,0.0,0.0
179,0,Cloud Points(m),"[0.549, -0.375, 1.628]","[0.597, -0.362, 1.572]","[0.813, 0.118, 1.691]","[0.486, -0.371, 1.662]","[0.344, 0.0, 1.775]","[0.609, 0.498, 1.7105]"
179,0,Cloud Points(m),"[0.549, -0.375, 1.628]","[0.597, -0.362, 1.572]","[0.813, 0.118, 1.691]","[0.486, -0.371, 1.662]","[0.344, 0.0, 1.775]","[0.609, 0.498, 1.7105]"
180,0,Keypoints(m),"[0.0, 0.0, 0.0]","[0.0, 0.0, 0.0]","[0.0, 0.0, 0.0]","[0.0, 0.0, 0.0]","[0.0, 0.0, 0.0]","[0.0, 0.0, 0.0]","[0.0, 0.0, 0.0]","[0.0, 0.0, 0.0]","[0.524, -0.367, 1.646]","[0.579, -0.368, 1.596]","[0.792, 0.119, 1.698]","[0.0, 0.0, 0.0]","[0.466, -0.378, 1.675]","[0.332, 0.033, 1.799]","[0.487, 0.538, 1.748]","[0.0, 0.0, 0.0]","[0.0, 0.0, 0.0]","[0.0, 0.0, 0.0]","[0.0, 0.0, 0.0]","[0.0, 0.0, 0.0]","[0.0, 0.0, 0.0]"
180,0,Keypoints(image),"[0.0, 0.0, 0.0]","[0.0, 0.0, 0.0]","[0.0, 0.0, 0.0]","[0.0, 0.0, 0.0]","[0.0, 0.0, 0.0]","[0.0, 0.0, 0.0]","[0.0, 0.0, 0.0]","[0.0, 0.0, 0.0]","[561000.0, 141000.0, 446.33]","[580000.0, 138000.0, 355.186]","[624000.0, 266000.0, 382.90999999999997]","[643000.0, 394000.0, 246.487]","[544000.0, 140000.0, 408.325]","[504000.0, 244000.0, 817.0070000000001]","[544000.0, 367000.0, 712.5]","[0.0, 0.0, 0.0]","[0.0, 0.0, 0.0]","[0.0, 0.0, 0.0]","[0.0, 0.0, 0.0]","[0.0, 0.0, 0.0]","[0.0, 0.0, 0.0]"
180,,Distance(m),0.0,0.0,0.0,0.0,0.0,0.0,0.0,0.0,0.0,0.0,0.0,0.0,0.0,0.0,0.0,0.0,0.0,0.0,0.0,0.0,0.0
180,0,Cloud Points(m),"[0.0, 0.0, 0.0]","[0.579, -0.368, 1.596]","[0.792, 0.119, 1.698]","[0.0, 0.0, 0.0]","[0.466, -0.378, 1.675]","[0.332, 0.033, 1.799]","[0.487, 0.538, 1.748]"
180,0,Cloud Points(m),"[0.0, 0.0, 0.0]","[0.579, -0.368, 1.596]","[0.792, 0.119, 1.698]","[0.0, 0.0, 0.0]","[0.466, -0.378, 1.675]","[0.332, 0.033, 1.799]","[0.487, 0.538, 1.748]"
180,0,Cloud Points(m),"[0.0, 0.0, 0.0]","[0.579, -0.368, 1.596]","[0.792, 0.119, 1.698]","[0.0, 0.0, 0.0]","[0.466, -0.378, 1.675]","[0.332, 0.033, 1.799]","[0.487, 0.538, 1.748]"
181,0,Keypoints(m),"[0.0, 0.0, 0.0]","[0.0, 0.0, 0.0]","[0.0, 0.0, 0.0]","[0.618, -0.688, 1.6]","[0.0, 0.0, 0.0]","[0.0, 0.0, 0.0]","[0.0, 0.0, 0.0]","[0.0, 0.0, 0.0]","[0.523, -0.371, 1.644]","[0.556, -0.343, 1.521]","[0.773, 0.126, 1.683]","[0.0, 0.0, 0.0]","[0.469, -0.38, 1.683]","[0.337, 0.034, 1.828]","[0.838, 0.941, 3.0345]","[0.0, 0.0, 0.0]","[0.0, 0.0, 0.0]","[0.0, 0.0, 0.0]","[0.0, 0.0, 0.0]","[0.0, 0.0, 0.0]","[0.0, 0.0, 0.0]"
181,0,Keypoints(image),"[0.0, 0.0, 0.0]","[0.0, 0.0, 0.0]","[569000.0, 3000.0, 61.9912]","[590000.0, 53000.0, 599.207]","[612000.0, 101000.0, 146.244]","[0.0, 0.0, 0.0]","[0.0, 0.0, 0.0]","[0.0, 0.0, 0.0]","[561000.0, 140000.0, 659.309]","[581000.0, 140000.0, 575.971]","[621000.0, 268000.0, 542.8530000000001]","[643000.0, 392000.0, 369.564]","[544000.0, 140000.0, 594.754]","[504000.0, 244000.0, 852.506]","[543000.0, 368000.0, 752.796]","[0.0, 0.0, 0.0]","[0.0, 0.0, 0.0]","[0.0, 0.0, 0.0]","[0.0, 0.0, 0.0]","[0.0, 0.0, 0.0]","[0.0, 0.0, 0.0]"
181,,Distance(m),0.0,0.0,0.0,0.0,0.0,0.0,0.0,0.0,0.0,0.0,0.0,0.0,0.0,0.0,0.0,0.0,0.0,0.0,0.0,0.0,0.0
181,0,Cloud Points(m),"[0.0, 0.0, 0.0]","[0.0, 0.0, 0.0]","[0.725, -0.525, 1.654]","[0.0, 0.0, 0.0]","[0.0, 0.0, 0.0]","[0.0, 0.0, 0.0]","[0.0, 0.0, 0.0]","[0.0, 0.0, 0.0]","[0.337, 0.034, 1.828]","[0.838, 0.941, 3.0345]"
181,0,Cloud Points(m),"[0.0, 0.0, 0.0]","[0.0, 0.0, 0.0]","[0.725, -0.525, 1.654]","[0.0, 0.0, 0.0]","[0.0, 0.0, 0.0]","[0.0, 0.0, 0.0]","[0.0, 0.0, 0.0]","[0.0, 0.0, 0.0]","[0.337, 0.034, 1.828]","[0.838, 0.941, 3.0345]"
181,0,Cloud Points(m),"[0.0, 0.0, 0.0]","[0.0, 0.0, 0.0]","[0.725, -0.525, 1.654]","[0.0, 0.0, 0.0]","[0.0, 0.0, 0.0]","[0.0, 0.0, 0.0]","[0.0, 0.0, 0.0]","[0.0, 0.0, 0.0]","[0.337, 0.034, 1.828]","[0.838, 0.941, 3.0345]"
181,0,Cloud Points(m),"[0.0, 0.0, 0.0]","[0.0, 0.0, 0.0]","[0.725, -0.525, 1.654]","[0.0, 0.0, 0.0]","[0.0, 0.0, 0.0]","[0.0, 0.0, 0.0]","[0.0, 0.0, 0.0]","[0.0, 0.0, 0.0]","[0.337, 0.034, 1.828]","[0.838, 0.941, 3.0345]"
182,0,Keypoints(m),"[0.0, 0.0, 0.0]","[0.0, 0.0, 0.0]","[0.0, 0.0, 0.0]","[0.0, 0.0, 0.0]","[0.0, 0.0, 0.0]","[0.0, 0.0, 0.0]","[0.0, 0.0, 0.0]","[0.0, 0.0, 0.0]","[0.47, -0.369, 1.634]","[0.518, -0.36, 1.5465]","[0.757, 0.11, 1.683]","[0.791, 0.448, 1.646]","[0.406, -0.38, 1.704]","[0.292, 0.087, 1.871]","[0.264, 0.654, 1.921]","[0.0, 0.0, 0.0]","[0.0, 0.0, 0.0]","[0.0, 0.0, 0.0]","[0.0, 0.0, 0.0]","[0.0, 0.0, 0.0]","[0.0, 0.0, 0.0]"
182,0,Keypoints(image),"[0.0, 0.0, 0.0]","[0.0, 0.0, 0.0]","[0.0, 0.0, 0.0]","[0.0, 0.0, 0.0]","[0.0, 0.0, 0.0]","[0.0, 0.0, 0.0]","[0.0, 0.0, 0.0]","[0.0, 0.0, 0.0]","[548000.0, 140000.0, 723.105]","[568000.0, 137000.0, 691.924]","[617000.0, 264000.0, 392.88899999999995]","[630000.0, 352000.0, 569.664]","[527000.0, 141000.0, 607.998]","[492000.0, 256000.0, 769.306]","[484000.0, 381000.0, 808.2810000000001]","[0.0, 0.0, 0.0]","[0.0, 0.0, 0.0]","[0.0, 0.0, 0.0]","[0.0, 0.0, 0.0]","[0.0, 0.0, 0.0]","[0.0, 0.0, 0.0]"
182,,Distance(m),0.0,0.0,0.0,0.0,0.0,0.0,0.0,0.0,0.0,0.0,0.0,0.0,0.0,0.0,0.0,0.0,0.0,0.0,0.0,0.0,0.0
182,0,Cloud Points(m),"[0.0, 0.0, 0.0]","[0.518, -0.36, 1.5465]","[0.757, 0.11, 1.683]","[0.791, 0.448, 1.646]","[0.406, -0.38, 1.704]","[0.292, 0.087, 1.871]","[0.264, 0.654, 1.921]"
182,0,Cloud Points(m),"[0.0, 0.0, 0.0]","[0.518, -0.36, 1.5465]","[0.757, 0.11, 1.683]","[0.791, 0.448, 1.646]","[0.406, -0.38, 1.704]","[0.292, 0.087, 1.871]","[0.264, 0.654, 1.921]"
182,0,Cloud Points(m),"[0.0, 0.0, 0.0]","[0.518, -0.36, 1.5465]","[0.757, 0.11, 1.683]","[0.791, 0.448, 1.646]","[0.406, -0.38, 1.704]","[0.292, 0.087, 1.871]","[0.264, 0.654, 1.921]"
182,0,Cloud Points(m),"[0.0, 0.0, 0.0]","[0.518, -0.36, 1.5465]","[0.757, 0.11, 1.683]","[0.791, 0.448, 1.646]","[0.406, -0.38, 1.704]","[0.292, 0.087, 1.871]","[0.264, 0.654, 1.921]"
182,0,Cloud Points(m),"[0.0, 0.0, 0.0]","[0.518, -0.36, 1.5465]","[0.757, 0.11, 1.683]","[0.791, 0.448, 1.646]","[0.406, -0.38, 1.704]","[0.292, 0.087, 1.871]","[0.264, 0.654, 1.921]"
183,0,Keypoints(m),"[0.0, 0.0, 0.0]","[0.0, 0.0, 0.0]","[0.0, 0.0, 0.0]","[0.0, 0.0, 0.0]","[0.0, 0.0, 0.0]","[0.0, 0.0, 0.0]","[0.0, 0.0, 0.0]","[0.0, 0.0, 0.0]","[0.443, -0.349, 1.708]","[0.488, -0.349, 1.581]","[0.744, 0.179, 1.662]","[0.787, 0.592, 1.638]","[0.375, -0.352, 1.762]","[0.267, 0.186, 1.943]","[0.172, 0.63, 1.9575]","[0.0, 0.0, 0.0]","[0.0, 0.0, 0.0]","[0.0, 0.0, 0.0]","[0.0, 0.0, 0.0]","[0.0, 0.0, 0.0]","[0.0, 0.0, 0.0]"
183,0,Keypoints(image),"[0.0, 0.0, 0.0]","[0.0, 0.0, 0.0]","[0.0, 0.0, 0.0]","[0.0, 0.0, 0.0]","[0.0, 0.0, 0.0]","[0.0, 0.0, 0.0]","[0.0, 0.0, 0.0]","[0.0, 0.0, 0.0]","[536000.0, 149000.0, 666.8530000000001]","[557000.0, 142000.0, 728.074]","[616000.0, 282000.0, 496.272]","[630000.0, 390000.0, 580.615]","[516000.0, 151000.0, 610.847]","[484000.0, 277000.0, 815.714]","[463000.0, 373000.0, 831.1539999999999]","[0.0, 0.0, 0.0]","[0.0, 0.0, 0.0]","[0.0, 0.0, 0.0]","[0.0, 0.0, 0.0]","[0.0, 0.0, 0.0]","[0.0, 0.0, 0.0]"
183,,Distance(m),0.0,0.0,0.0,0.0,0.0,0.0,0.0,0.0,0.0,0.0,0.0,0.0,0.0,0.0,0.0,0.0,0.0,0.0,0.0,0.0,0.0
183,0,Cloud Points(m),"[0.0, 0.0, 0.0]","[0.488, -0.349, 1.581]","[0.744, 0.179, 1.662]","[0.787, 0.592, 1.638]","[0.375, -0.352, 1.762]","[0.267, 0.186, 1.943]","[0.172, 0.63, 1.9575]"
183,0,Cloud Points(m),"[0.0, 0.0, 0.0]","[0.488, -0.349, 1.581]","[0.744, 0.179, 1.662]","[0.787, 0.592, 1.638]","[0.375, -0.352, 1.762]","[0.267, 0.186, 1.943]","[0.172, 0.63, 1.9575]"
183,0,Cloud Points(m),"[0.0, 0.0, 0.0]","[0.488, -0.349, 1.581]","[0.744, 0.179, 1.662]","[0.787, 0.592, 1.638]","[0.375, -0.352, 1.762]","[0.267, 0.186, 1.943]","[0.172, 0.63, 1.9575]"
183,0,Cloud Points(m),"[0.0, 0.0, 0.0]","[0.488, -0.349, 1.581]","[0.744, 0.179, 1.662]","[0.787, 0.592, 1.638]","[0.375, -0.352, 1.762]","[0.267, 0.186, 1.943]","[0.172, 0.63, 1.9575]"
183,0,Cloud Points(m),"[0.0, 0.0, 0.0]","[0.488, -0.349, 1.581]","[0.744, 0.179, 1.662]","[0.787, 0.592, 1.638]","[0.375, -0.352, 1.762]","[0.267, 0.186, 1.943]","[0.172, 0.63, 1.9575]"
183,0,Cloud Points(m),"[0.0, 0.0, 0.0]","[0.488, -0.349, 1.581]","[0.744, 0.179, 1.662]","[0.787, 0.592, 1.638]","[0.375, -0.352, 1.762]","[0.267, 0.186, 1.943]","[0.172, 0.63, 1.9575]"
184,0,Keypoints(m),"[0.0, 0.0, 0.0]","[0.0, 0.0, 0.0]","[0.0, 0.0, 0.0]","[0.0, 0.0, 0.0]","[0.0, 0.0, 0.0]","[0.0, 0.0, 0.0]","[0.0, 0.0, 0.0]","[0.0, 0.0, 0.0]","[0.414, -0.32, 1.64]","[0.468, -0.323, 1.6]","[0.67, 0.153, 1.521]","[0.784, 0.586, 1.632]","[0.369, -0.334, 1.735]","[0.266, 0.183, 1.905]","[0.177, 0.663, 2.016]","[0.0, 0.0, 0.0]","[0.0, 0.0, 0.0]","[0.0, 0.0, 0.0]","[0.0, 0.0, 0.0]","[0.0, 0.0, 0.0]","[0.0, 0.0, 0.0]"
184,0,Keypoints(image),"[0.0, 0.0, 0.0]","[0.0, 0.0, 0.0]","[0.0, 0.0, 0.0]","[0.0, 0.0, 0.0]","[0.0, 0.0, 0.0]","[0.0, 0.0, 0.0]","[0.0, 0.0, 0.0]","[0.0, 0.0, 0.0]","[533000.0, 153000.0, 783.64]","[550000.0, 150000.0, 807.574]","[613000.0, 279000.0, 505.9479999999999]","[630000.0, 389000.0, 617.4399999999999]","[516000.0, 154000.0, 725.299]","[485000.0, 277000.0, 833.5]","[463000.0, 376000.0, 848.9839999999999]","[0.0, 0.0, 0.0]","[0.0, 0.0, 0.0]","[0.0, 0.0, 0.0]","[0.0, 0.0, 0.0]","[0.0, 0.0, 0.0]","[0.0, 0.0, 0.0]"
184,,Distance(m),0.0,0.0,0.0,0.0,0.0,0.0,0.0,0.0,0.0,0.0,0.0,0.0,0.0,0.0,0.0,0.0,0.0,0.0,0.0,0.0,0.0
184,0,Cloud Points(m),"[0.0, 0.0, 0.0]","[0.468, -0.323, 1.6]","[0.67, 0.153, 1.521]","[0.784, 0.586, 1.632]","[0.369, -0.334, 1.735]","[0.266, 0.183, 1.905]","[0.177, 0.663, 2.016]"
184,0,Cloud Points(m),"[0.0, 0.0, 0.0]","[0.468, -0.323, 1.6]","[0.67, 0.153, 1.521]","[0.784, 0.586, 1.632]","[0.369, -0.334, 1.735]","[0.266, 0.183, 1.905]","[0.177, 0.663, 2.016]"
184,0,Cloud Points(m),"[0.0, 0.0, 0.0]","[0.468, -0.323, 1.6]","[0.67, 0.153, 1.521]","[0.784, 0.586, 1.632]","[0.369, -0.334, 1.735]","[0.266, 0.183, 1.905]","[0.177, 0.663, 2.016]"
184,0,Cloud Points(m),"[0.0, 0.0, 0.0]","[0.468, -0.323, 1.6]","[0.67, 0.153, 1.521]","[0.784, 0.586, 1.632]","[0.369, -0.334, 1.735]","[0.266, 0.183, 1.905]","[0.177, 0.663, 2.016]"
184,0,Cloud Points(m),"[0.0, 0.0, 0.0]","[0.468, -0.323, 1.6]","[0.67, 0.153, 1.521]","[0.784, 0.586, 1.632]","[0.369, -0.334, 1.735]","[0.266, 0.183, 1.905]","[0.177, 0.663, 2.016]"
184,0,Cloud Points(m),"[0.0, 0.0, 0.0]","[0.468, -0.323, 1.6]","[0.67, 0.153, 1.521]","[0.784, 0.586, 1.632]","[0.369, -0.334, 1.735]","[0.266, 0.183, 1.905]","[0.177, 0.663, 2.016]"
184,0,Cloud Points(m),"[0.0, 0.0, 0.0]","[0.468, -0.323, 1.6]","[0.67, 0.153, 1.521]","[0.784, 0.586, 1.632]","[0.369, -0.334, 1.735]","[0.266, 0.183, 1.905]","[0.177, 0.663, 2.016]"
185,0,Keypoints(m),"[0.0, 0.0, 0.0]","[0.0, 0.0, 0.0]","[0.0, 0.0, 0.0]","[0.388, -0.657, 1.626]","[0.493, -0.418, 1.646]","[0.0, 0.0, 0.0]","[0.0, 0.0, 0.0]","[0.0, 0.0, 0.0]","[0.373, -0.33, 1.735]","[0.421, -0.324, 1.6225]","[0.661, 0.156, 1.7105]","[0.783, 0.589, 1.63]","[0.315, -0.326, 1.7775]","[0.221, 0.191, 1.938]","[0.088, 0.641, 2.022]","[0.0, 0.0, 0.0]","[0.0, 0.0, 0.0]","[0.0, 0.0, 0.0]","[0.0, 0.0, 0.0]","[0.0, 0.0, 0.0]","[0.0, 0.0, 0.0]"
185,0,Keypoints(image),"[0.0, 0.0, 0.0]","[0.0, 0.0, 0.0]","[519000.0, 3000.0, 61.6603]","[527000.0, 64000.0, 664.436]","[553000.0, 128000.0, 774.331]","[0.0, 0.0, 0.0]","[0.0, 0.0, 0.0]","[0.0, 0.0, 0.0]","[517000.0, 155000.0, 604.039]","[536000.0, 151000.0, 687.764]","[590000.0, 275000.0, 554.331]","[630000.0, 390000.0, 667.1139999999999]","[501000.0, 158000.0, 543.6809999999999]","[474000.0, 278000.0, 761.534]","[444000.0, 371000.0, 821.416]","[0.0, 0.0, 0.0]","[0.0, 0.0, 0.0]","[0.0, 0.0, 0.0]","[0.0, 0.0, 0.0]","[0.0, 0.0, 0.0]","[0.0, 0.0, 0.0]"
185,,Distance(m),0.0,0.0,0.0,0.0,0.0,0.0,0.0,0.0,0.0,0.0,0.0,0.0,0.0,0.0,0.0,0.0,0.0,0.0,0.0,0.0,0.0
185,0,Cloud Points(m),"[0.0, 0.0, 0.0]","[0.0, 0.0, 0.0]","[0.0, 0.0, 0.0]","[0.0, 0.0, 0.0]","[0.0, 0.0, 0.0]","[0.0, 0.0, 0.0]","[0.783, 0.589, 1.63]","[0.0, 0.0, 0.0]","[0.0, 0.0, 0.0]","[0.088, 0.641, 2.022]"
185,0,Cloud Points(m),"[0.0, 0.0, 0.0]","[0.0, 0.0, 0.0]","[0.0, 0.0, 0.0]","[0.0, 0.0, 0.0]","[0.0, 0.0, 0.0]","[0.0, 0.0, 0.0]","[0.783, 0.589, 1.63]","[0.0, 0.0, 0.0]","[0.0, 0.0, 0.0]","[0.088, 0.641, 2.022]"
185,0,Cloud Points(m),"[0.0, 0.0, 0.0]","[0.0, 0.0, 0.0]","[0.0, 0.0, 0.0]","[0.0, 0.0, 0.0]","[0.0, 0.0, 0.0]","[0.0, 0.0, 0.0]","[0.783, 0.589, 1.63]","[0.0, 0.0, 0.0]","[0.0, 0.0, 0.0]","[0.088, 0.641, 2.022]"
185,0,Cloud Points(m),"[0.0, 0.0, 0.0]","[0.0, 0.0, 0.0]","[0.0, 0.0, 0.0]","[0.0, 0.0, 0.0]","[0.0, 0.0, 0.0]","[0.0, 0.0, 0.0]","[0.783, 0.589, 1.63]","[0.0, 0.0, 0.0]","[0.0, 0.0, 0.0]","[0.088, 0.641, 2.022]"
185,0,Cloud Points(m),"[0.0, 0.0, 0.0]","[0.0, 0.0, 0.0]","[0.0, 0.0, 0.0]","[0.0, 0.0, 0.0]","[0.0, 0.0, 0.0]","[0.0, 0.0, 0.0]","[0.783, 0.589, 1.63]","[0.0, 0.0, 0.0]","[0.0, 0.0, 0.0]","[0.088, 0.641, 2.022]"
185,0,Cloud Points(m),"[0.0, 0.0, 0.0]","[0.0, 0.0, 0.0]","[0.0, 0.0, 0.0]","[0.0, 0.0, 0.0]","[0.0, 0.0, 0.0]","[0.0, 0.0, 0.0]","[0.783, 0.589, 1.63]","[0.0, 0.0, 0.0]","[0.0, 0.0, 0.0]","[0.088, 0.641, 2.022]"
185,0,Cloud Points(m),"[0.0, 0.0, 0.0]","[0.0, 0.0, 0.0]","[0.0, 0.0, 0.0]","[0.0, 0.0, 0.0]","[0.0, 0.0, 0.0]","[0.0, 0.0, 0.0]","[0.783, 0.589, 1.63]","[0.0, 0.0, 0.0]","[0.0, 0.0, 0.0]","[0.088, 0.641, 2.022]"
185,0,Cloud Points(m),"[0.0, 0.0, 0.0]","[0.0, 0.0, 0.0]","[0.0, 0.0, 0.0]","[0.0, 0.0, 0.0]","[0.0, 0.0, 0.0]","[0.0, 0.0, 0.0]","[0.783, 0.589, 1.63]","[0.0, 0.0, 0.0]","[0.0, 0.0, 0.0]","[0.088, 0.641, 2.022]"
186,0,Keypoints(m),"[0.0, 0.0, 0.0]","[0.0, 0.0, 0.0]","[0.0, 0.0, 0.0]","[0.351, -0.694, 1.6685]","[0.454, -0.424, 1.717]","[0.0, 0.0, 0.0]","[0.0, 0.0, 0.0]","[0.0, 0.0, 0.0]","[0.325, -0.319, 1.717]","[0.384, -0.335, 1.675]","[0.586, 0.187, 1.3745]","[0.79, 0.587, 1.644]","[0.263, -0.321, 1.823]","[0.182, 0.189, 1.969]","[0.09, 0.677, 2.074]","[0.0, 0.0, 0.0]","[0.0, 0.0, 0.0]","[0.0, 0.0, 0.0]","[0.0, 0.0, 0.0]","[0.0, 0.0, 0.0]","[0.0, 0.0, 0.0]"
186,0,Keypoints(image),"[0.0, 0.0, 0.0]","[0.0, 0.0, 0.0]","[506000.0, 3000.0, 86.35900000000001]","[515000.0, 59000.0, 706.1859999999999]","[538000.0, 131000.0, 803.336]","[0.0, 0.0, 0.0]","[0.0, 0.0, 0.0]","[0.0, 0.0, 0.0]","[506000.0, 157000.0, 485.671]","[523000.0, 151000.0, 648.803]","[607000.0, 294000.0, 258.079]","[630000.0, 388000.0, 661.749]","[487000.0, 161000.0, 462.494]","[465000.0, 277000.0, 826.296]","[444000.0, 375000.0, 790.617]","[0.0, 0.0, 0.0]","[0.0, 0.0, 0.0]","[0.0, 0.0, 0.0]","[0.0, 0.0, 0.0]","[0.0, 0.0, 0.0]","[0.0, 0.0, 0.0]"
186,,Distance(m),0.0,0.0,0.0,0.0,0.0,0.0,0.0,0.0,0.0,0.0,0.0,0.0,0.0,0.0,0.0,0.0,0.0,0.0,0.0,0.0,0.0
186,0,Cloud Points(m),"[0.0, 0.0, 0.0]","[0.0, 0.0, 0.0]","[0.0, 0.0, 0.0]","[0.0, 0.0, 0.0]","[0.0, 0.0, 0.0]","[0.586, 0.187, 1.3745]","[0.79, 0.587, 1.644]","[0.0, 0.0, 0.0]","[0.0, 0.0, 0.0]","[0.09, 0.677, 2.074]"
186,0,Cloud Points(m),"[0.0, 0.0, 0.0]","[0.0, 0.0, 0.0]","[0.0, 0.0, 0.0]","[0.0, 0.0, 0.0]","[0.0, 0.0, 0.0]","[0.586, 0.187, 1.3745]","[0.79, 0.587, 1.644]","[0.0, 0.0, 0.0]","[0.0, 0.0, 0.0]","[0.09, 0.677, 2.074]"
186,0,Cloud Points(m),"[0.0, 0.0, 0.0]","[0.0, 0.0, 0.0]","[0.0, 0.0, 0.0]","[0.0, 0.0, 0.0]","[0.0, 0.0, 0.0]","[0.586, 0.187, 1.3745]","[0.79, 0.587, 1.644]","[0.0, 0.0, 0.0]","[0.0, 0.0, 0.0]","[0.09, 0.677, 2.074]"
186,0,Cloud Points(m),"[0.0, 0.0, 0.0]","[0.0, 0.0, 0.0]","[0.0, 0.0, 0.0]","[0.0, 0.0, 0.0]","[0.0, 0.0, 0.0]","[0.586, 0.187, 1.3745]","[0.79, 0.587, 1.644]","[0.0, 0.0, 0.0]","[0.0, 0.0, 0.0]","[0.09, 0.677, 2.074]"
186,0,Cloud Points(m),"[0.0, 0.0, 0.0]","[0.0, 0.0, 0.0]","[0.0, 0.0, 0.0]","[0.0, 0.0, 0.0]","[0.0, 0.0, 0.0]","[0.586, 0.187, 1.3745]","[0.79, 0.587, 1.644]","[0.0, 0.0, 0.0]","[0.0, 0.0, 0.0]","[0.09, 0.677, 2.074]"
186,0,Cloud Points(m),"[0.0, 0.0, 0.0]","[0.0, 0.0, 0.0]","[0.0, 0.0, 0.0]","[0.0, 0.0, 0.0]","[0.0, 0.0, 0.0]","[0.586, 0.187, 1.3745]","[0.79, 0.587, 1.644]","[0.0, 0.0, 0.0]","[0.0, 0.0, 0.0]","[0.09, 0.677, 2.074]"
186,0,Cloud Points(m),"[0.0, 0.0, 0.0]","[0.0, 0.0, 0.0]","[0.0, 0.0, 0.0]","[0.0, 0.0, 0.0]","[0.0, 0.0, 0.0]","[0.586, 0.187, 1.3745]","[0.79, 0.587, 1.644]","[0.0, 0.0, 0.0]","[0.0, 0.0, 0.0]","[0.09, 0.677, 2.074]"
186,0,Cloud Points(m),"[0.0, 0.0, 0.0]","[0.0, 0.0, 0.0]","[0.0, 0.0, 0.0]","[0.0, 0.0, 0.0]","[0.0, 0.0, 0.0]","[0.586, 0.187, 1.3745]","[0.79, 0.587, 1.644]","[0.0, 0.0, 0.0]","[0.0, 0.0, 0.0]","[0.09, 0.677, 2.074]"
186,0,Cloud Points(m),"[0.0, 0.0, 0.0]","[0.0, 0.0, 0.0]","[0.0, 0.0, 0.0]","[0.0, 0.0, 0.0]","[0.0, 0.0, 0.0]","[0.586, 0.187, 1.3745]","[0.79, 0.587, 1.644]","[0.0, 0.0, 0.0]","[0.0, 0.0, 0.0]","[0.09, 0.677, 2.074]"
187,0,Keypoints(m),"[0.0, 0.0, 0.0]","[0.0, 0.0, 0.0]","[0.0, 0.0, 0.0]","[0.303, -0.691, 1.708]","[0.419, -0.421, 1.757]","[0.0, 0.0, 0.0]","[0.0, 0.0, 0.0]","[0.0, 0.0, 0.0]","[0.277, -0.297, 1.804]","[0.331, -0.309, 1.7105]","[0.517, 0.118, 1.443]","[0.768, 0.573, 1.638]","[0.211, -0.283, 1.853]","[0.169, 0.18, 1.972]","[0.089, 0.677, 2.0585]","[0.0, 0.0, 0.0]","[0.0, 0.0, 0.0]","[0.0, 0.0, 0.0]","[0.0, 0.0, 0.0]","[0.0, 0.0, 0.0]","[0.0, 0.0, 0.0]"
187,0,Keypoints(image),"[0.0, 0.0, 0.0]","[0.0, 0.0, 0.0]","[495000.0, 3000.0, 74.22489999999999]","[501000.0, 64000.0, 701.881]","[527000.0, 134000.0, 883.3009999999999]","[0.0, 0.0, 0.0]","[0.0, 0.0, 0.0]","[0.0, 0.0, 0.0]","[491000.0, 166000.0, 399.502]","[508000.0, 159000.0, 528.04]","[578000.0, 271000.0, 532.2339999999999]","[625000.0, 385000.0, 591.526]","[474000.0, 171000.0, 421.81]","[462000.0, 275000.0, 793.4639999999999]","[444000.0, 376000.0, 796.467]","[0.0, 0.0, 0.0]","[0.0, 0.0, 0.0]","[0.0, 0.0, 0.0]","[0.0, 0.0, 0.0]","[0.0, 0.0, 0.0]","[0.0, 0.0, 0.0]"
187,,Distance(m),0.0,0.0,0.0,0.0,0.0,0.0,0.0,0.0,0.0,0.0,0.0,0.0,0.0,0.0,0.0,0.0,0.0,0.0,0.0,0.0,0.0
187,0,Cloud Points(m),"[0.0, 0.0, 0.0]","[0.0, 0.0, 0.0]","[0.0, 0.0, 0.0]","[0.0, 0.0, 0.0]","[0.0, 0.0, 0.0]","[0.0, 0.0, 0.0]","[0.768, 0.573, 1.638]","[0.0, 0.0, 0.0]","[0.0, 0.0, 0.0]","[0.089, 0.677, 2.0585]"
187,0,Cloud Points(m),"[0.0, 0.0, 0.0]","[0.0, 0.0, 0.0]","[0.0, 0.0, 0.0]","[0.0, 0.0, 0.0]","[0.0, 0.0, 0.0]","[0.0, 0.0, 0.0]","[0.768, 0.573, 1.638]","[0.0, 0.0, 0.0]","[0.0, 0.0, 0.0]","[0.089, 0.677, 2.0585]"
187,0,Cloud Points(m),"[0.0, 0.0, 0.0]","[0.0, 0.0, 0.0]","[0.0, 0.0, 0.0]","[0.0, 0.0, 0.0]","[0.0, 0.0, 0.0]","[0.0, 0.0, 0.0]","[0.768, 0.573, 1.638]","[0.0, 0.0, 0.0]","[0.0, 0.0, 0.0]","[0.089, 0.677, 2.0585]"
187,0,Cloud Points(m),"[0.0, 0.0, 0.0]","[0.0, 0.0, 0.0]","[0.0, 0.0, 0.0]","[0.0, 0.0, 0.0]","[0.0, 0.0, 0.0]","[0.0, 0.0, 0.0]","[0.768, 0.573, 1.638]","[0.0, 0.0, 0.0]","[0.0, 0.0, 0.0]","[0.089, 0.677, 2.0585]"
187,0,Cloud Points(m),"[0.0, 0.0, 0.0]","[0.0, 0.0, 0.0]","[0.0, 0.0, 0.0]","[0.0, 0.0, 0.0]","[0.0, 0.0, 0.0]","[0.0, 0.0, 0.0]","[0.768, 0.573, 1.638]","[0.0, 0.0, 0.0]","[0.0, 0.0, 0.0]","[0.089, 0.677, 2.0585]"
187,0,Cloud Points(m),"[0.0, 0.0, 0.0]","[0.0, 0.0, 0.0]","[0.0, 0.0, 0.0]","[0.0, 0.0, 0.0]","[0.0, 0.0, 0.0]","[0.0, 0.0, 0.0]","[0.768, 0.573, 1.638]","[0.0, 0.0, 0.0]","[0.0, 0.0, 0.0]","[0.089, 0.677, 2.0585]"
187,0,Cloud Points(m),"[0.0, 0.0, 0.0]","[0.0, 0.0, 0.0]","[0.0, 0.0, 0.0]","[0.0, 0.0, 0.0]","[0.0, 0.0, 0.0]","[0.0, 0.0, 0.0]","[0.768, 0.573, 1.638]","[0.0, 0.0, 0.0]","[0.0, 0.0, 0.0]","[0.089, 0.677, 2.0585]"
187,0,Cloud Points(m),"[0.0, 0.0, 0.0]","[0.0, 0.0, 0.0]","[0.0, 0.0, 0.0]","[0.0, 0.0, 0.0]","[0.0, 0.0, 0.0]","[0.0, 0.0, 0.0]","[0.768, 0.573, 1.638]","[0.0, 0.0, 0.0]","[0.0, 0.0, 0.0]","[0.089, 0.677, 2.0585]"
187,0,Cloud Points(m),"[0.0, 0.0, 0.0]","[0.0, 0.0, 0.0]","[0.0, 0.0, 0.0]","[0.0, 0.0, 0.0]","[0.0, 0.0, 0.0]","[0.0, 0.0, 0.0]","[0.768, 0.573, 1.638]","[0.0, 0.0, 0.0]","[0.0, 0.0, 0.0]","[0.089, 0.677, 2.0585]"
187,0,Cloud Points(m),"[0.0, 0.0, 0.0]","[0.0, 0.0, 0.0]","[0.0, 0.0, 0.0]","[0.0, 0.0, 0.0]","[0.0, 0.0, 0.0]","[0.0, 0.0, 0.0]","[0.768, 0.573, 1.638]","[0.0, 0.0, 0.0]","[0.0, 0.0, 0.0]","[0.089, 0.677, 2.0585]"
188,0,Keypoints(m),"[0.0, 0.0, 0.0]","[0.0, 0.0, 0.0]","[0.0, 0.0, 0.0]","[0.243, -0.671, 1.7105]","[0.37, -0.401, 1.739]","[0.0, 0.0, 0.0]","[0.0, 0.0, 0.0]","[0.0, 0.0, 0.0]","[0.247, -0.319, 1.833]","[0.301, -0.32, 1.7435]","[0.0, 0.0, 0.0]","[0.766, 0.56, 1.6665]","[0.166, -0.288, 1.884]","[0.133, 0.182, 1.989]","[0.075, 0.696, 2.074]","[0.0, 0.0, 0.0]","[0.0, 0.0, 0.0]","[0.0, 0.0, 0.0]","[0.0, 0.0, 0.0]","[0.0, 0.0, 0.0]","[0.0, 0.0, 0.0]"
188,0,Keypoints(image),"[0.0, 0.0, 0.0]","[501000.0, 3000.0, 56.7219]","[485000.0, 3000.0, 69.4249]","[486000.0, 69000.0, 749.976]","[516000.0, 138000.0, 875.383]","[0.0, 0.0, 0.0]","[0.0, 0.0, 0.0]","[0.0, 0.0, 0.0]","[483000.0, 162000.0, 518.621]","[499000.0, 158000.0, 639.378]","[576000.0, 275000.0, 241.644]","[621000.0, 379000.0, 544.6899999999999]","[463000.0, 171000.0, 484.965]","[454000.0, 275000.0, 844.288]","[441000.0, 379000.0, 781.987]","[0.0, 0.0, 0.0]","[0.0, 0.0, 0.0]","[0.0, 0.0, 0.0]","[0.0, 0.0, 0.0]","[0.0, 0.0, 0.0]","[0.0, 0.0, 0.0]"
188,1,Keypoints(m),"[0.0, 0.0, 0.0]","[0.0, 0.0, 0.0]","[0.0, 0.0, 0.0]","[0.0, 0.0, 0.0]","[0.0, 0.0, 0.0]","[0.912, -1.005, 2.126]","[0.834, -0.508, 2.1195]","[0.0, 0.0, 0.0]","[0.0, 0.0, 0.0]","[0.0, 0.0, 0.0]","[0.0, 0.0, 0.0]","[0.0, 0.0, 0.0]","[0.639, -0.255, 1.376]","[0.0, 0.0, 0.0]","[0.0, 0.0, 0.0]","[0.0, 0.0, 0.0]","[0.0, 0.0, 0.0]","[0.0, 0.0, 0.0]","[0.0, 0.0, 0.0]","[0.0, 0.0, 0.0]","[0.0, 0.0, 0.0]"
188,1,Keypoints(image),"[0.0, 0.0, 0.0]","[644000.0, 38000.0, 51.57189999999999]","[0.0, 0.0, 0.0]","[0.0, 0.0, 0.0]","[0.0, 0.0, 0.0]","[608000.0, 35000.0, 779.124]","[593000.0, 134000.0, 631.1179999999999]","[581000.0, 155000.0, 231.184]","[0.0, 0.0, 0.0]","[0.0, 0.0, 0.0]","[0.0, 0.0, 0.0]","[0.0, 0.0, 0.0]","[623000.0, 157000.0, 391.185]","[0.0, 0.0, 0.0]","[0.0, 0.0, 0.0]","[0.0, 0.0, 0.0]","[585000.0, 3000.0, 296.383]","[0.0, 0.0, 0.0]","[599000.0, 3000.0, 145.042]","[0.0, 0.0, 0.0]","[0.0, 0.0, 0.0]"
188,,Distance(m),0.0,0.0,0.0,0.0,0.0,0.0,0.0,0.0,0.0,0.0,0.0,0.0,0.6948971146867715,0.0,0.0,0.0,0.0,0.0,0.0,0.0,0.0
188,1,Cloud Points(m),"[0.0, 0.0, 0.0]","[0.0, 0.0, 0.0]","[0.0, 0.0, 0.0]","[0.536, -0.279, 1.4665]","[0.639, -0.255, 1.376]","[0.0, 0.0, 0.0]","[0.0, 0.0, 0.0]"
188,1,Cloud Points(m),"[0.0, 0.0, 0.0]","[0.0, 0.0, 0.0]","[0.0, 0.0, 0.0]","[0.536, -0.279, 1.4665]","[0.639, -0.255, 1.376]","[0.0, 0.0, 0.0]","[0.0, 0.0, 0.0]"
188,1,Cloud Points(m),"[0.0, 0.0, 0.0]","[0.0, 0.0, 0.0]","[0.0, 0.0, 0.0]","[0.536, -0.279, 1.4665]","[0.639, -0.255, 1.376]","[0.0, 0.0, 0.0]","[0.0, 0.0, 0.0]"
188,1,Cloud Points(m),"[0.0, 0.0, 0.0]","[0.0, 0.0, 0.0]","[0.0, 0.0, 0.0]","[0.536, -0.279, 1.4665]","[0.639, -0.255, 1.376]","[0.0, 0.0, 0.0]","[0.0, 0.0, 0.0]"
188,1,Cloud Points(m),"[0.0, 0.0, 0.0]","[0.0, 0.0, 0.0]","[0.0, 0.0, 0.0]","[0.536, -0.279, 1.4665]","[0.639, -0.255, 1.376]","[0.0, 0.0, 0.0]","[0.0, 0.0, 0.0]"
188,1,Cloud Points(m),"[0.0, 0.0, 0.0]","[0.0, 0.0, 0.0]","[0.0, 0.0, 0.0]","[0.536, -0.279, 1.4665]","[0.639, -0.255, 1.376]","[0.0, 0.0, 0.0]","[0.0, 0.0, 0.0]"
188,1,Cloud Points(m),"[0.0, 0.0, 0.0]","[0.0, 0.0, 0.0]","[0.0, 0.0, 0.0]","[0.536, -0.279, 1.4665]","[0.639, -0.255, 1.376]","[0.0, 0.0, 0.0]","[0.0, 0.0, 0.0]"
188,1,Cloud Points(m),"[0.0, 0.0, 0.0]","[0.0, 0.0, 0.0]","[0.0, 0.0, 0.0]","[0.536, -0.279, 1.4665]","[0.639, -0.255, 1.376]","[0.0, 0.0, 0.0]","[0.0, 0.0, 0.0]"
188,1,Cloud Points(m),"[0.0, 0.0, 0.0]","[0.0, 0.0, 0.0]","[0.0, 0.0, 0.0]","[0.536, -0.279, 1.4665]","[0.639, -0.255, 1.376]","[0.0, 0.0, 0.0]","[0.0, 0.0, 0.0]"
188,1,Cloud Points(m),"[0.0, 0.0, 0.0]","[0.0, 0.0, 0.0]","[0.0, 0.0, 0.0]","[0.536, -0.279, 1.4665]","[0.639, -0.255, 1.376]","[0.0, 0.0, 0.0]","[0.0, 0.0, 0.0]"
188,1,Cloud Points(m),"[0.0, 0.0, 0.0]","[0.0, 0.0, 0.0]","[0.0, 0.0, 0.0]","[0.536, -0.279, 1.4665]","[0.639, -0.255, 1.376]","[0.0, 0.0, 0.0]","[0.0, 0.0, 0.0]"
189,0,Keypoints(m),"[0.0, 0.0, 0.0]","[0.0, 0.0, 0.0]","[0.0, 0.0, 0.0]","[0.254, -0.709, 1.785]","[0.389, -0.412, 1.828]","[0.0, 0.0, 0.0]","[0.0, 0.0, 0.0]","[0.0, 0.0, 0.0]","[0.249, -0.321, 1.7505]","[0.317, -0.34, 1.766]","[0.431, 0.038, 1.499]","[0.62, 0.433, 1.3565]","[0.19, -0.324, 1.863]","[0.136, 0.186, 2.034]","[0.076, 0.712, 2.106]","[0.0, 0.0, 0.0]","[0.0, 0.0, 0.0]","[0.0, 0.0, 0.0]","[0.0, 0.0, 0.0]","[0.0, 0.0, 0.0]","[0.0, 0.0, 0.0]"
189,0,Keypoints(image),"[0.0, 0.0, 0.0]","[497000.0, 3000.0, 51.9629]","[484000.0, 3000.0, 55.9269]","[486000.0, 67000.0, 810.104]","[516000.0, 140000.0, 912.5609999999999]","[0.0, 0.0, 0.0]","[0.0, 0.0, 0.0]","[0.0, 0.0, 0.0]","[486000.0, 158000.0, 596.403]","[502000.0, 154000.0, 649.854]","[548000.0, 247000.0, 518.7270000000001]","[620000.0, 372000.0, 558.882]","[469000.0, 162000.0, 463.46999999999997]","[454000.0, 275000.0, 841.1469999999999]","[441000.0, 380000.0, 796.833]","[0.0, 0.0, 0.0]","[0.0, 0.0, 0.0]","[0.0, 0.0, 0.0]","[0.0, 0.0, 0.0]","[0.0, 0.0, 0.0]","[0.0, 0.0, 0.0]"
189,1,Keypoints(m),"[0.0, 0.0, 0.0]","[0.0, 0.0, 0.0]","[0.0, 0.0, 0.0]","[0.0, 0.0, 0.0]","[0.0, 0.0, 0.0]","[0.935, -1.031, 2.181]","[0.889, -0.528, 2.246]","[0.0, 0.0, 0.0]","[0.0, 0.0, 0.0]","[0.0, 0.0, 0.0]","[0.0, 0.0, 0.0]","[0.0, 0.0, 0.0]","[0.665, -0.266, 1.434]","[0.0, 0.0, 0.0]","[0.0, 0.0, 0.0]","[0.0, 0.0, 0.0]","[0.0, 0.0, 0.0]","[0.0, 0.0, 0.0]","[0.0, 0.0, 0.0]","[0.0, 0.0, 0.0]","[0.0, 0.0, 0.0]"
189,1,Keypoints(image),"[0.0, 0.0, 0.0]","[0.0, 0.0, 0.0]","[0.0, 0.0, 0.0]","[0.0, 0.0, 0.0]","[0.0, 0.0, 0.0]","[608000.0, 35000.0, 818.087]","[594000.0, 136000.0, 690.7109999999999]","[581000.0, 146000.0, 213.127]","[0.0, 0.0, 0.0]","[0.0, 0.0, 0.0]","[0.0, 0.0, 0.0]","[0.0, 0.0, 0.0]","[623000.0, 157000.0, 402.449]","[0.0, 0.0, 0.0]","[0.0, 0.0, 0.0]","[0.0, 0.0, 0.0]","[583000.0, 3000.0, 347.979]","[0.0, 0.0, 0.0]","[596000.0, 3000.0, 157.84799999999998]","[0.0, 0.0, 0.0]","[0.0, 0.0, 0.0]"
189,,Distance(m),0.0,0.0,0.0,0.0,0.0,0.0,0.0,0.0,0.0,0.0,0.0,0.0,0.6426741009251891,0.0,0.0,0.0,0.0,0.0,0.0,0.0,0.0
189,1,Cloud Points(m),"[0.935, -1.031, 2.181]","[0.0, 0.0, 0.0]","[0.802, -0.464, 2.195]","[0.665, -0.266, 1.434]","[0.0, 0.0, 0.0]","[0.0, 0.0, 0.0]"
189,1,Cloud Points(m),"[0.935, -1.031, 2.181]","[0.0, 0.0, 0.0]","[0.802, -0.464, 2.195]","[0.665, -0.266, 1.434]","[0.0, 0.0, 0.0]","[0.0, 0.0, 0.0]"
189,1,Cloud Points(m),"[0.935, -1.031, 2.181]","[0.0, 0.0, 0.0]","[0.802, -0.464, 2.195]","[0.665, -0.266, 1.434]","[0.0, 0.0, 0.0]","[0.0, 0.0, 0.0]"
189,1,Cloud Points(m),"[0.935, -1.031, 2.181]","[0.0, 0.0, 0.0]","[0.802, -0.464, 2.195]","[0.665, -0.266, 1.434]","[0.0, 0.0, 0.0]","[0.0, 0.0, 0.0]"
189,1,Cloud Points(m),"[0.935, -1.031, 2.181]","[0.0, 0.0, 0.0]","[0.802, -0.464, 2.195]","[0.665, -0.266, 1.434]","[0.0, 0.0, 0.0]","[0.0, 0.0, 0.0]"
189,1,Cloud Points(m),"[0.935, -1.031, 2.181]","[0.0, 0.0, 0.0]","[0.802, -0.464, 2.195]","[0.665, -0.266, 1.434]","[0.0, 0.0, 0.0]","[0.0, 0.0, 0.0]"
189,1,Cloud Points(m),"[0.935, -1.031, 2.181]","[0.0, 0.0, 0.0]","[0.802, -0.464, 2.195]","[0.665, -0.266, 1.434]","[0.0, 0.0, 0.0]","[0.0, 0.0, 0.0]"
189,1,Cloud Points(m),"[0.935, -1.031, 2.181]","[0.0, 0.0, 0.0]","[0.802, -0.464, 2.195]","[0.665, -0.266, 1.434]","[0.0, 0.0, 0.0]","[0.0, 0.0, 0.0]"
189,1,Cloud Points(m),"[0.935, -1.031, 2.181]","[0.0, 0.0, 0.0]","[0.802, -0.464, 2.195]","[0.665, -0.266, 1.434]","[0.0, 0.0, 0.0]","[0.0, 0.0, 0.0]"
189,1,Cloud Points(m),"[0.935, -1.031, 2.181]","[0.0, 0.0, 0.0]","[0.802, -0.464, 2.195]","[0.665, -0.266, 1.434]","[0.0, 0.0, 0.0]","[0.0, 0.0, 0.0]"
189,1,Cloud Points(m),"[0.935, -1.031, 2.181]","[0.0, 0.0, 0.0]","[0.802, -0.464, 2.195]","[0.665, -0.266, 1.434]","[0.0, 0.0, 0.0]","[0.0, 0.0, 0.0]"
189,1,Cloud Points(m),"[0.935, -1.031, 2.181]","[0.0, 0.0, 0.0]","[0.802, -0.464, 2.195]","[0.665, -0.266, 1.434]","[0.0, 0.0, 0.0]","[0.0, 0.0, 0.0]"
190,0,Keypoints(m),"[0.0, 0.0, 0.0]","[0.0, 0.0, 0.0]","[0.0, 0.0, 0.0]","[0.0, 0.0, 0.0]","[0.0, 0.0, 0.0]","[0.0, 0.0, 0.0]","[0.0, 0.0, 0.0]","[0.0, 0.0, 0.0]","[0.206, -0.342, 1.775]","[0.259, -0.336, 1.766]","[0.393, 0.046, 1.828]","[0.0, 0.0, 0.0]","[0.133, -0.337, 1.863]","[0.075, 0.169, 2.062]","[0.067, 0.712, 2.119]","[0.0, 0.0, 0.0]","[0.0, 0.0, 0.0]","[0.0, 0.0, 0.0]","[0.0, 0.0, 0.0]","[0.0, 0.0, 0.0]","[0.0, 0.0, 0.0]"
190,0,Keypoints(image),"[0.0, 0.0, 0.0]","[0.0, 0.0, 0.0]","[0.0, 0.0, 0.0]","[0.0, 0.0, 0.0]","[0.0, 0.0, 0.0]","[0.0, 0.0, 0.0]","[0.0, 0.0, 0.0]","[0.0, 0.0, 0.0]","[475000.0, 154000.0, 542.106]","[488000.0, 155000.0, 462.471]","[517000.0, 247000.0, 605.606]","[559000.0, 308000.0, 171.255]","[456000.0, 159000.0, 426.186]","[441000.0, 271000.0, 728.182]","[439000.0, 379000.0, 780.346]","[0.0, 0.0, 0.0]","[0.0, 0.0, 0.0]","[0.0, 0.0, 0.0]","[0.0, 0.0, 0.0]","[0.0, 0.0, 0.0]","[0.0, 0.0, 0.0]"
190,1,Keypoints(m),"[0.803, -1.178, 2.331]","[0.0, 0.0, 0.0]","[0.0, 0.0, 0.0]","[0.0, 0.0, 0.0]","[0.0, 0.0, 0.0]","[0.825, -1.013, 2.188]","[0.796, -0.531, 2.28]","[0.0, 0.0, 0.0]","[0.0, 0.0, 0.0]","[0.0, 0.0, 0.0]","[0.0, 0.0, 0.0]","[0.0, 0.0, 0.0]","[0.643, -0.261, 1.443]","[0.0, 0.0, 0.0]","[0.0, 0.0, 0.0]","[0.0, 0.0, 0.0]","[0.0, 0.0, 0.0]","[0.0, 0.0, 0.0]","[0.0, 0.0, 0.0]","[0.0, 0.0, 0.0]","[0.0, 0.0, 0.0]"
190,1,Keypoints(image),"[572000.0, 21000.0, 436.97999999999996]","[611000.0, 47000.0, 106.431]","[630000.0, 47000.0, 89.9384]","[0.0, 0.0, 0.0]","[0.0, 0.0, 0.0]","[586000.0, 39000.0, 672.609]","[574000.0, 137000.0, 576.7710000000001]","[566000.0, 146000.0, 206.69299999999998]","[643000.0, 153000.0, 77.4232]","[0.0, 0.0, 0.0]","[0.0, 0.0, 0.0]","[0.0, 0.0, 0.0]","[615000.0, 159000.0, 427.466]","[0.0, 0.0, 0.0]","[0.0, 0.0, 0.0]","[0.0, 0.0, 0.0]","[0.0, 0.0, 0.0]","[0.0, 0.0, 0.0]","[0.0, 0.0, 0.0]","[604000.0, 46000.0, 56.9986]","[0.0, 0.0, 0.0]"
190,,Distance(m),0.0,0.0,0.0,0.0,0.0,0.0,0.0,0.0,1.8193474104744263,0.0,0.0,0.0,0.6650383447591575,0.0,0.0,0.0,0.0,0.0,0.0,0.0,0.0
190,1,Cloud Points(m),"[0.803, -1.178, 2.331]","[0.0, 0.0, 0.0]","[10.192, -9.422, 21.195]","[0.0, 0.0, 0.0]","[0.0, 0.0, 0.0]","[0.754, -0.483, 2.284]","[0.0, 0.0, 0.0]","[0.643, -0.261, 1.443]","[0.0, 0.0, 0.0]"
190,1,Cloud Points(m),"[0.803, -1.178, 2.331]","[0.0, 0.0, 0.0]","[10.192, -9.422, 21.195]","[0.0, 0.0, 0.0]","[0.0, 0.0, 0.0]","[0.754, -0.483, 2.284]","[0.0, 0.0, 0.0]","[0.643, -0.261, 1.443]","[0.0, 0.0, 0.0]"
190,1,Cloud Points(m),"[0.803, -1.178, 2.331]","[0.0, 0.0, 0.0]","[10.192, -9.422, 21.195]","[0.0, 0.0, 0.0]","[0.0, 0.0, 0.0]","[0.754, -0.483, 2.284]","[0.0, 0.0, 0.0]","[0.643, -0.261, 1.443]","[0.0, 0.0, 0.0]"
190,1,Cloud Points(m),"[0.803, -1.178, 2.331]","[0.0, 0.0, 0.0]","[10.192, -9.422, 21.195]","[0.0, 0.0, 0.0]","[0.0, 0.0, 0.0]","[0.754, -0.483, 2.284]","[0.0, 0.0, 0.0]","[0.643, -0.261, 1.443]","[0.0, 0.0, 0.0]"
190,1,Cloud Points(m),"[0.803, -1.178, 2.331]","[0.0, 0.0, 0.0]","[10.192, -9.422, 21.195]","[0.0, 0.0, 0.0]","[0.0, 0.0, 0.0]","[0.754, -0.483, 2.284]","[0.0, 0.0, 0.0]","[0.643, -0.261, 1.443]","[0.0, 0.0, 0.0]"
190,1,Cloud Points(m),"[0.803, -1.178, 2.331]","[0.0, 0.0, 0.0]","[10.192, -9.422, 21.195]","[0.0, 0.0, 0.0]","[0.0, 0.0, 0.0]","[0.754, -0.483, 2.284]","[0.0, 0.0, 0.0]","[0.643, -0.261, 1.443]","[0.0, 0.0, 0.0]"
190,1,Cloud Points(m),"[0.803, -1.178, 2.331]","[0.0, 0.0, 0.0]","[10.192, -9.422, 21.195]","[0.0, 0.0, 0.0]","[0.0, 0.0, 0.0]","[0.754, -0.483, 2.284]","[0.0, 0.0, 0.0]","[0.643, -0.261, 1.443]","[0.0, 0.0, 0.0]"
190,1,Cloud Points(m),"[0.803, -1.178, 2.331]","[0.0, 0.0, 0.0]","[10.192, -9.422, 21.195]","[0.0, 0.0, 0.0]","[0.0, 0.0, 0.0]","[0.754, -0.483, 2.284]","[0.0, 0.0, 0.0]","[0.643, -0.261, 1.443]","[0.0, 0.0, 0.0]"
190,1,Cloud Points(m),"[0.803, -1.178, 2.331]","[0.0, 0.0, 0.0]","[10.192, -9.422, 21.195]","[0.0, 0.0, 0.0]","[0.0, 0.0, 0.0]","[0.754, -0.483, 2.284]","[0.0, 0.0, 0.0]","[0.643, -0.261, 1.443]","[0.0, 0.0, 0.0]"
190,1,Cloud Points(m),"[0.803, -1.178, 2.331]","[0.0, 0.0, 0.0]","[10.192, -9.422, 21.195]","[0.0, 0.0, 0.0]","[0.0, 0.0, 0.0]","[0.754, -0.483, 2.284]","[0.0, 0.0, 0.0]","[0.643, -0.261, 1.443]","[0.0, 0.0, 0.0]"
190,1,Cloud Points(m),"[0.803, -1.178, 2.331]","[0.0, 0.0, 0.0]","[10.192, -9.422, 21.195]","[0.0, 0.0, 0.0]","[0.0, 0.0, 0.0]","[0.754, -0.483, 2.284]","[0.0, 0.0, 0.0]","[0.643, -0.261, 1.443]","[0.0, 0.0, 0.0]"
190,1,Cloud Points(m),"[0.803, -1.178, 2.331]","[0.0, 0.0, 0.0]","[10.192, -9.422, 21.195]","[0.0, 0.0, 0.0]","[0.0, 0.0, 0.0]","[0.754, -0.483, 2.284]","[0.0, 0.0, 0.0]","[0.643, -0.261, 1.443]","[0.0, 0.0, 0.0]"
190,1,Cloud Points(m),"[0.803, -1.178, 2.331]","[0.0, 0.0, 0.0]","[10.192, -9.422, 21.195]","[0.0, 0.0, 0.0]","[0.0, 0.0, 0.0]","[0.754, -0.483, 2.284]","[0.0, 0.0, 0.0]","[0.643, -0.261, 1.443]","[0.0, 0.0, 0.0]"
191,0,Keypoints(m),"[0.734, -1.182, 2.339]","[0.901, -0.993, 2.2235]","[9.062, -9.088, 20.553]","[1.042, -0.697, 2.315]","[0.0, 0.0, 0.0]","[0.789, -0.994, 2.202]","[0.764, -0.574, 2.28]","[0.709, -0.467, 2.311]","[0.0, 0.0, 0.0]","[0.0, 0.0, 0.0]","[0.0, 0.0, 0.0]","[0.0, 0.0, 0.0]","[0.626, -0.264, 1.4605]","[0.0, 0.0, 0.0]","[0.0, 0.0, 0.0]","[0.0, 0.0, 0.0]","[0.724, -1.223, 2.343]","[0.0, 0.0, 0.0]","[0.783, -1.215, 2.307]","[0.858, -1.039, 2.22]","[0.0, 0.0, 0.0]"
191,0,Keypoints(image),"[559000.0, 21000.0, 555.273]","[598000.0, 46000.0, 806.053]","[613000.0, 48000.0, 661.4159999999999]","[617000.0, 108000.0, 292.16999999999996]","[0.0, 0.0, 0.0]","[578000.0, 44000.0, 786.1909999999999]","[568000.0, 129000.0, 555.179]","[556000.0, 150000.0, 331.486]","[620000.0, 150000.0, 226.194]","[629000.0, 144000.0, 221.24599999999998]","[0.0, 0.0, 0.0]","[0.0, 0.0, 0.0]","[608000.0, 159000.0, 367.48199999999997]","[0.0, 0.0, 0.0]","[0.0, 0.0, 0.0]","[0.0, 0.0, 0.0]","[557000.0, 14000.0, 704.415]","[599000.0, 3000.0, 118.47399999999999]","[570000.0, 12000.0, 709.117]","[590000.0, 37000.0, 832.744]","[566000.0, 3000.0, 185.684]"
191,,Distance(m),0.0,0.0,0.0,0.0,0.0,0.0,0.0,0.0,0.0,0.0,0.0,0.0,0.0,0.0,0.0,0.0,0.0,0.0,0.0,0.0,0.0
191,0,Cloud Points(m),"[0.0, 0.0, 0.0]","[0.0, 0.0, 0.0]","[9.062, -9.088, 20.553]","[0.0, 0.0, 0.0]","[0.0, 0.0, 0.0]","[0.0, 0.0, 0.0]","[0.709, -0.467, 2.311]","[0.0, 0.0, 0.0]","[8.014, -3.626, 16.749]","[0.626, -0.264, 1.4605]","[0.724, -1.223, 2.343]","[0.0, 0.0, 0.0]","[0.0, 0.0, 0.0]","[0.0, 0.0, 0.0]","[0.0, 0.0, 0.0]"
191,0,Cloud Points(m),"[0.0, 0.0, 0.0]","[0.0, 0.0, 0.0]","[9.062, -9.088, 20.553]","[0.0, 0.0, 0.0]","[0.0, 0.0, 0.0]","[0.0, 0.0, 0.0]","[0.709, -0.467, 2.311]","[0.0, 0.0, 0.0]","[8.014, -3.626, 16.749]","[0.626, -0.264, 1.4605]","[0.724, -1.223, 2.343]","[0.0, 0.0, 0.0]","[0.0, 0.0, 0.0]","[0.0, 0.0, 0.0]","[0.0, 0.0, 0.0]"
191,0,Cloud Points(m),"[0.0, 0.0, 0.0]","[0.0, 0.0, 0.0]","[9.062, -9.088, 20.553]","[0.0, 0.0, 0.0]","[0.0, 0.0, 0.0]","[0.0, 0.0, 0.0]","[0.709, -0.467, 2.311]","[0.0, 0.0, 0.0]","[8.014, -3.626, 16.749]","[0.626, -0.264, 1.4605]","[0.724, -1.223, 2.343]","[0.0, 0.0, 0.0]","[0.0, 0.0, 0.0]","[0.0, 0.0, 0.0]","[0.0, 0.0, 0.0]"
191,0,Cloud Points(m),"[0.0, 0.0, 0.0]","[0.0, 0.0, 0.0]","[9.062, -9.088, 20.553]","[0.0, 0.0, 0.0]","[0.0, 0.0, 0.0]","[0.0, 0.0, 0.0]","[0.709, -0.467, 2.311]","[0.0, 0.0, 0.0]","[8.014, -3.626, 16.749]","[0.626, -0.264, 1.4605]","[0.724, -1.223, 2.343]","[0.0, 0.0, 0.0]","[0.0, 0.0, 0.0]","[0.0, 0.0, 0.0]","[0.0, 0.0, 0.0]"
191,0,Cloud Points(m),"[0.0, 0.0, 0.0]","[0.0, 0.0, 0.0]","[9.062, -9.088, 20.553]","[0.0, 0.0, 0.0]","[0.0, 0.0, 0.0]","[0.0, 0.0, 0.0]","[0.709, -0.467, 2.311]","[0.0, 0.0, 0.0]","[8.014, -3.626, 16.749]","[0.626, -0.264, 1.4605]","[0.724, -1.223, 2.343]","[0.0, 0.0, 0.0]","[0.0, 0.0, 0.0]","[0.0, 0.0, 0.0]","[0.0, 0.0, 0.0]"
191,0,Cloud Points(m),"[0.0, 0.0, 0.0]","[0.0, 0.0, 0.0]","[9.062, -9.088, 20.553]","[0.0, 0.0, 0.0]","[0.0, 0.0, 0.0]","[0.0, 0.0, 0.0]","[0.709, -0.467, 2.311]","[0.0, 0.0, 0.0]","[8.014, -3.626, 16.749]","[0.626, -0.264, 1.4605]","[0.724, -1.223, 2.343]","[0.0, 0.0, 0.0]","[0.0, 0.0, 0.0]","[0.0, 0.0, 0.0]","[0.0, 0.0, 0.0]"
191,0,Cloud Points(m),"[0.0, 0.0, 0.0]","[0.0, 0.0, 0.0]","[9.062, -9.088, 20.553]","[0.0, 0.0, 0.0]","[0.0, 0.0, 0.0]","[0.0, 0.0, 0.0]","[0.709, -0.467, 2.311]","[0.0, 0.0, 0.0]","[8.014, -3.626, 16.749]","[0.626, -0.264, 1.4605]","[0.724, -1.223, 2.343]","[0.0, 0.0, 0.0]","[0.0, 0.0, 0.0]","[0.0, 0.0, 0.0]","[0.0, 0.0, 0.0]"
191,0,Cloud Points(m),"[0.0, 0.0, 0.0]","[0.0, 0.0, 0.0]","[9.062, -9.088, 20.553]","[0.0, 0.0, 0.0]","[0.0, 0.0, 0.0]","[0.0, 0.0, 0.0]","[0.709, -0.467, 2.311]","[0.0, 0.0, 0.0]","[8.014, -3.626, 16.749]","[0.626, -0.264, 1.4605]","[0.724, -1.223, 2.343]","[0.0, 0.0, 0.0]","[0.0, 0.0, 0.0]","[0.0, 0.0, 0.0]","[0.0, 0.0, 0.0]"
191,0,Cloud Points(m),"[0.0, 0.0, 0.0]","[0.0, 0.0, 0.0]","[9.062, -9.088, 20.553]","[0.0, 0.0, 0.0]","[0.0, 0.0, 0.0]","[0.0, 0.0, 0.0]","[0.709, -0.467, 2.311]","[0.0, 0.0, 0.0]","[8.014, -3.626, 16.749]","[0.626, -0.264, 1.4605]","[0.724, -1.223, 2.343]","[0.0, 0.0, 0.0]","[0.0, 0.0, 0.0]","[0.0, 0.0, 0.0]","[0.0, 0.0, 0.0]"
191,0,Cloud Points(m),"[0.0, 0.0, 0.0]","[0.0, 0.0, 0.0]","[9.062, -9.088, 20.553]","[0.0, 0.0, 0.0]","[0.0, 0.0, 0.0]","[0.0, 0.0, 0.0]","[0.709, -0.467, 2.311]","[0.0, 0.0, 0.0]","[8.014, -3.626, 16.749]","[0.626, -0.264, 1.4605]","[0.724, -1.223, 2.343]","[0.0, 0.0, 0.0]","[0.0, 0.0, 0.0]","[0.0, 0.0, 0.0]","[0.0, 0.0, 0.0]"
191,0,Cloud Points(m),"[0.0, 0.0, 0.0]","[0.0, 0.0, 0.0]","[9.062, -9.088, 20.553]","[0.0, 0.0, 0.0]","[0.0, 0.0, 0.0]","[0.0, 0.0, 0.0]","[0.709, -0.467, 2.311]","[0.0, 0.0, 0.0]","[8.014, -3.626, 16.749]","[0.626, -0.264, 1.4605]","[0.724, -1.223, 2.343]","[0.0, 0.0, 0.0]","[0.0, 0.0, 0.0]","[0.0, 0.0, 0.0]","[0.0, 0.0, 0.0]"
191,0,Cloud Points(m),"[0.0, 0.0, 0.0]","[0.0, 0.0, 0.0]","[9.062, -9.088, 20.553]","[0.0, 0.0, 0.0]","[0.0, 0.0, 0.0]","[0.0, 0.0, 0.0]","[0.709, -0.467, 2.311]","[0.0, 0.0, 0.0]","[8.014, -3.626, 16.749]","[0.626, -0.264, 1.4605]","[0.724, -1.223, 2.343]","[0.0, 0.0, 0.0]","[0.0, 0.0, 0.0]","[0.0, 0.0, 0.0]","[0.0, 0.0, 0.0]"
191,0,Cloud Points(m),"[0.0, 0.0, 0.0]","[0.0, 0.0, 0.0]","[9.062, -9.088, 20.553]","[0.0, 0.0, 0.0]","[0.0, 0.0, 0.0]","[0.0, 0.0, 0.0]","[0.709, -0.467, 2.311]","[0.0, 0.0, 0.0]","[8.014, -3.626, 16.749]","[0.626, -0.264, 1.4605]","[0.724, -1.223, 2.343]","[0.0, 0.0, 0.0]","[0.0, 0.0, 0.0]","[0.0, 0.0, 0.0]","[0.0, 0.0, 0.0]"
191,0,Cloud Points(m),"[0.0, 0.0, 0.0]","[0.0, 0.0, 0.0]","[9.062, -9.088, 20.553]","[0.0, 0.0, 0.0]","[0.0, 0.0, 0.0]","[0.0, 0.0, 0.0]","[0.709, -0.467, 2.311]","[0.0, 0.0, 0.0]","[8.014, -3.626, 16.749]","[0.626, -0.264, 1.4605]","[0.724, -1.223, 2.343]","[0.0, 0.0, 0.0]","[0.0, 0.0, 0.0]","[0.0, 0.0, 0.0]","[0.0, 0.0, 0.0]"
192,0,Keypoints(m),"[0.691, -1.194, 2.363]","[0.87, -1.018, 2.291]","[4.367, -4.6, 10.404]","[0.995, -0.747, 2.3715]","[0.0, 0.0, 0.0]","[0.758, -1.012, 2.2645]","[0.715, -0.631, 2.315]","[0.663, -0.479, 2.343]","[0.637, -0.303, 1.519]","[1.344, -0.605, 2.9555]","[0.0, 0.0, 0.0]","[0.0, 0.0, 0.0]","[0.58, -0.273, 1.491]","[0.0, 0.0, 0.0]","[0.0, 0.0, 0.0]","[0.0, 0.0, 0.0]","[0.684, -1.24, 2.3755]","[0.0, 0.0, 0.0]","[0.757, -1.223, 2.343]","[0.83, -1.063, 2.272]","[0.0, 0.0, 0.0]"
192,0,Keypoints(image),"[550000.0, 21000.0, 496.939]","[587000.0, 47000.0, 801.3249999999999]","[604000.0, 48000.0, 650.081]","[604000.0, 102000.0, 320.798]","[0.0, 0.0, 0.0]","[568000.0, 46000.0, 841.939]","[557000.0, 120000.0, 660.7769999999999]","[546000.0, 149000.0, 449.367]","[604000.0, 151000.0, 381.93899999999996]","[619000.0, 149000.0, 427.111]","[0.0, 0.0, 0.0]","[0.0, 0.0, 0.0]","[591000.0, 158000.0, 359.238]","[0.0, 0.0, 0.0]","[0.0, 0.0, 0.0]","[0.0, 0.0, 0.0]","[548000.0, 14000.0, 743.626]","[589000.0, 3000.0, 157.34699999999998]","[563000.0, 14000.0, 718.8299999999999]","[581000.0, 37000.0, 832.231]","[557000.0, 3000.0, 262.04699999999997]"
192,1,Keypoints(m),"[0.0, 0.0, 0.0]","[0.0, 0.0, 0.0]","[0.0, 0.0, 0.0]","[0.0, 0.0, 0.0]","[0.0, 0.0, 0.0]","[0.0, 0.0, 0.0]","[0.0, 0.0, 0.0]","[0.0, 0.0, 0.0]","[0.229, -0.41, 1.858]","[0.089, -0.409, 1.853]","[0.292, 0.078, 2.09]","[0.445, 0.333, 1.545]","[0.365, -0.441, 1.955]","[0.0, 0.0, 0.0]","[0.0, 0.0, 0.0]","[0.0, 0.0, 0.0]","[0.0, 0.0, 0.0]","[0.0, 0.0, 0.0]","[0.0, 0.0, 0.0]","[0.0, 0.0, 0.0]","[0.0, 0.0, 0.0]"
192,1,Keypoints(image),"[0.0, 0.0, 0.0]","[457000.0, 3000.0, 56.564099999999996]","[0.0, 0.0, 0.0]","[0.0, 0.0, 0.0]","[0.0, 0.0, 0.0]","[0.0, 0.0, 0.0]","[0.0, 0.0, 0.0]","[0.0, 0.0, 0.0]","[478000.0, 142000.0, 380.83299999999997]","[446000.0, 142000.0, 336.206]","[485000.0, 252000.0, 692.4709999999999]","[548000.0, 328000.0, 693.038]","[505000.0, 140000.0, 316.438]","[539000.0, 224000.0, 59.0462]","[0.0, 0.0, 0.0]","[0.0, 0.0, 0.0]","[0.0, 0.0, 0.0]","[0.0, 0.0, 0.0]","[0.0, 0.0, 0.0]","[0.0, 0.0, 0.0]","[0.0, 0.0, 0.0]"
192,,Distance(m),0.0,2.6536587949470825,0.0,0.0,0.0,0.0,0.0,0.0,0.5411413863307815,1.6819474575622153,0.0,0.0,0.5382796670876581,0.0,0.0,0.0,0.0,0.0,0.0,0.0,0.0
192,1,Cloud Points(m),"[0.0, 0.0, 0.0]","[0.0, 0.0, 0.0]","[0.089, -0.409, 1.853]","[0.292, 0.078, 2.09]","[0.445, 0.333, 1.545]","[0.0, 0.0, 0.0]","[0.393, -0.041, 1.4725]"
192,1,Cloud Points(m),"[0.0, 0.0, 0.0]","[0.0, 0.0, 0.0]","[0.089, -0.409, 1.853]","[0.292, 0.078, 2.09]","[0.445, 0.333, 1.545]","[0.0, 0.0, 0.0]","[0.393, -0.041, 1.4725]"
192,1,Cloud Points(m),"[0.0, 0.0, 0.0]","[0.0, 0.0, 0.0]","[0.089, -0.409, 1.853]","[0.292, 0.078, 2.09]","[0.445, 0.333, 1.545]","[0.0, 0.0, 0.0]","[0.393, -0.041, 1.4725]"
192,1,Cloud Points(m),"[0.0, 0.0, 0.0]","[0.0, 0.0, 0.0]","[0.089, -0.409, 1.853]","[0.292, 0.078, 2.09]","[0.445, 0.333, 1.545]","[0.0, 0.0, 0.0]","[0.393, -0.041, 1.4725]"
192,1,Cloud Points(m),"[0.0, 0.0, 0.0]","[0.0, 0.0, 0.0]","[0.089, -0.409, 1.853]","[0.292, 0.078, 2.09]","[0.445, 0.333, 1.545]","[0.0, 0.0, 0.0]","[0.393, -0.041, 1.4725]"
192,1,Cloud Points(m),"[0.0, 0.0, 0.0]","[0.0, 0.0, 0.0]","[0.089, -0.409, 1.853]","[0.292, 0.078, 2.09]","[0.445, 0.333, 1.545]","[0.0, 0.0, 0.0]","[0.393, -0.041, 1.4725]"
192,1,Cloud Points(m),"[0.0, 0.0, 0.0]","[0.0, 0.0, 0.0]","[0.089, -0.409, 1.853]","[0.292, 0.078, 2.09]","[0.445, 0.333, 1.545]","[0.0, 0.0, 0.0]","[0.393, -0.041, 1.4725]"
192,1,Cloud Points(m),"[0.0, 0.0, 0.0]","[0.0, 0.0, 0.0]","[0.089, -0.409, 1.853]","[0.292, 0.078, 2.09]","[0.445, 0.333, 1.545]","[0.0, 0.0, 0.0]","[0.393, -0.041, 1.4725]"
192,1,Cloud Points(m),"[0.0, 0.0, 0.0]","[0.0, 0.0, 0.0]","[0.089, -0.409, 1.853]","[0.292, 0.078, 2.09]","[0.445, 0.333, 1.545]","[0.0, 0.0, 0.0]","[0.393, -0.041, 1.4725]"
192,1,Cloud Points(m),"[0.0, 0.0, 0.0]","[0.0, 0.0, 0.0]","[0.089, -0.409, 1.853]","[0.292, 0.078, 2.09]","[0.445, 0.333, 1.545]","[0.0, 0.0, 0.0]","[0.393, -0.041, 1.4725]"
192,1,Cloud Points(m),"[0.0, 0.0, 0.0]","[0.0, 0.0, 0.0]","[0.089, -0.409, 1.853]","[0.292, 0.078, 2.09]","[0.445, 0.333, 1.545]","[0.0, 0.0, 0.0]","[0.393, -0.041, 1.4725]"
192,1,Cloud Points(m),"[0.0, 0.0, 0.0]","[0.0, 0.0, 0.0]","[0.089, -0.409, 1.853]","[0.292, 0.078, 2.09]","[0.445, 0.333, 1.545]","[0.0, 0.0, 0.0]","[0.393, -0.041, 1.4725]"
192,1,Cloud Points(m),"[0.0, 0.0, 0.0]","[0.0, 0.0, 0.0]","[0.089, -0.409, 1.853]","[0.292, 0.078, 2.09]","[0.445, 0.333, 1.545]","[0.0, 0.0, 0.0]","[0.393, -0.041, 1.4725]"
192,1,Cloud Points(m),"[0.0, 0.0, 0.0]","[0.0, 0.0, 0.0]","[0.089, -0.409, 1.853]","[0.292, 0.078, 2.09]","[0.445, 0.333, 1.545]","[0.0, 0.0, 0.0]","[0.393, -0.041, 1.4725]"
192,1,Cloud Points(m),"[0.0, 0.0, 0.0]","[0.0, 0.0, 0.0]","[0.089, -0.409, 1.853]","[0.292, 0.078, 2.09]","[0.445, 0.333, 1.545]","[0.0, 0.0, 0.0]","[0.393, -0.041, 1.4725]"
193,0,Keypoints(m),"[0.643, -1.252, 2.431]","[0.81, -1.005, 2.261]","[0.927, -1.029, 2.327]","[0.0, 0.0, 0.0]","[0.0, 0.0, 0.0]","[0.716, -1.02, 2.2835]","[0.666, -0.631, 2.315]","[0.394, -0.307, 1.517]","[0.604, -0.266, 1.491]","[0.651, -0.277, 1.494]","[0.0, 0.0, 0.0]","[0.0, 0.0, 0.0]","[0.556, -0.258, 1.484]","[0.0, 0.0, 0.0]","[0.0, 0.0, 0.0]","[0.0, 0.0, 0.0]","[0.648, -1.269, 2.431]","[0.0, 0.0, 0.0]","[0.697, -1.233, 2.363]","[0.772, -1.063, 2.272]","[0.0, 0.0, 0.0]"
193,0,Keypoints(image),"[538000.0, 17000.0, 446.945]","[578000.0, 47000.0, 833.477]","[595000.0, 48000.0, 720.236]","[590000.0, 107000.0, 217.55599999999998]","[0.0, 0.0, 0.0]","[559000.0, 46000.0, 818.222]","[548000.0, 120000.0, 705.287]","[536000.0, 150000.0, 526.773]","[598000.0, 160000.0, 515.71]","[611000.0, 157000.0, 516.852]","[0.0, 0.0, 0.0]","[0.0, 0.0, 0.0]","[585000.0, 162000.0, 456.901]","[0.0, 0.0, 0.0]","[0.0, 0.0, 0.0]","[0.0, 0.0, 0.0]","[539000.0, 14000.0, 791.396]","[577000.0, 3000.0, 170.617]","[551000.0, 14000.0, 732.598]","[570000.0, 37000.0, 818.3280000000001]","[548000.0, 3000.0, 331.623]"
193,1,Keypoints(m),"[0.0, 0.0, 0.0]","[0.0, 0.0, 0.0]","[0.0, 0.0, 0.0]","[0.028, -0.774, 1.8605]","[0.14, -0.41, 1.838]","[0.0, 0.0, 0.0]","[0.0, 0.0, 0.0]","[0.0, 0.0, 0.0]","[0.153, -0.423, 1.8355]","[0.033, -0.436, 1.895]","[0.007, 0.086, 2.049]","[0.0, 0.0, 0.0]","[0.293, -0.439, 1.908]","[0.0, 0.0, 0.0]","[0.0, 0.0, 0.0]","[0.0, 0.0, 0.0]","[0.0, 0.0, 0.0]","[0.0, 0.0, 0.0]","[0.0, 0.0, 0.0]","[0.0, 0.0, 0.0]","[0.0, 0.0, 0.0]"
193,1,Keypoints(image),"[0.0, 0.0, 0.0]","[452000.0, 3000.0, 77.9132]","[423000.0, 3000.0, 51.9728]","[432000.0, 59000.0, 748.99]","[458000.0, 141000.0, 772.366]","[0.0, 0.0, 0.0]","[0.0, 0.0, 0.0]","[0.0, 0.0, 0.0]","[461000.0, 138000.0, 480.447]","[433000.0, 138000.0, 534.883]","[427000.0, 254000.0, 510.594]","[0.0, 0.0, 0.0]","[491000.0, 138000.0, 422.769]","[474000.0, 245000.0, 225.09699999999998]","[0.0, 0.0, 0.0]","[0.0, 0.0, 0.0]","[0.0, 0.0, 0.0]","[0.0, 0.0, 0.0]","[0.0, 0.0, 0.0]","[0.0, 0.0, 0.0]","[0.0, 0.0, 0.0]"
193,,Distance(m),0.0,2.603506481651236,2.707969534540594,2.015271755868176,0.0,0.0,0.0,0.0,0.588838050740609,0.7536617278328521,0.0,0.0,0.5307598326927161,0.0,0.0,0.0,0.0,0.0,0.0,0.0,0.0
193,1,Cloud Points(m),"[0.0, 0.0, 0.0]","[0.0, 0.0, 0.0]","[0.0, 0.0, 0.0]","[0.0, 0.0, 0.0]","[0.0, 0.0, 0.0]","[0.0, 0.0, 0.0]","[0.007, 0.086, 2.049]","[0.293, -0.439, 1.908]","[0.233, 0.042, 2.049]"
193,1,Cloud Points(m),"[0.0, 0.0, 0.0]","[0.0, 0.0, 0.0]","[0.0, 0.0, 0.0]","[0.0, 0.0, 0.0]","[0.0, 0.0, 0.0]","[0.0, 0.0, 0.0]","[0.007, 0.086, 2.049]","[0.293, -0.439, 1.908]","[0.233, 0.042, 2.049]"
193,1,Cloud Points(m),"[0.0, 0.0, 0.0]","[0.0, 0.0, 0.0]","[0.0, 0.0, 0.0]","[0.0, 0.0, 0.0]","[0.0, 0.0, 0.0]","[0.0, 0.0, 0.0]","[0.007, 0.086, 2.049]","[0.293, -0.439, 1.908]","[0.233, 0.042, 2.049]"
193,1,Cloud Points(m),"[0.0, 0.0, 0.0]","[0.0, 0.0, 0.0]","[0.0, 0.0, 0.0]","[0.0, 0.0, 0.0]","[0.0, 0.0, 0.0]","[0.0, 0.0, 0.0]","[0.007, 0.086, 2.049]","[0.293, -0.439, 1.908]","[0.233, 0.042, 2.049]"
193,1,Cloud Points(m),"[0.0, 0.0, 0.0]","[0.0, 0.0, 0.0]","[0.0, 0.0, 0.0]","[0.0, 0.0, 0.0]","[0.0, 0.0, 0.0]","[0.0, 0.0, 0.0]","[0.007, 0.086, 2.049]","[0.293, -0.439, 1.908]","[0.233, 0.042, 2.049]"
193,1,Cloud Points(m),"[0.0, 0.0, 0.0]","[0.0, 0.0, 0.0]","[0.0, 0.0, 0.0]","[0.0, 0.0, 0.0]","[0.0, 0.0, 0.0]","[0.0, 0.0, 0.0]","[0.007, 0.086, 2.049]","[0.293, -0.439, 1.908]","[0.233, 0.042, 2.049]"
193,1,Cloud Points(m),"[0.0, 0.0, 0.0]","[0.0, 0.0, 0.0]","[0.0, 0.0, 0.0]","[0.0, 0.0, 0.0]","[0.0, 0.0, 0.0]","[0.0, 0.0, 0.0]","[0.007, 0.086, 2.049]","[0.293, -0.439, 1.908]","[0.233, 0.042, 2.049]"
193,1,Cloud Points(m),"[0.0, 0.0, 0.0]","[0.0, 0.0, 0.0]","[0.0, 0.0, 0.0]","[0.0, 0.0, 0.0]","[0.0, 0.0, 0.0]","[0.0, 0.0, 0.0]","[0.007, 0.086, 2.049]","[0.293, -0.439, 1.908]","[0.233, 0.042, 2.049]"
193,1,Cloud Points(m),"[0.0, 0.0, 0.0]","[0.0, 0.0, 0.0]","[0.0, 0.0, 0.0]","[0.0, 0.0, 0.0]","[0.0, 0.0, 0.0]","[0.0, 0.0, 0.0]","[0.007, 0.086, 2.049]","[0.293, -0.439, 1.908]","[0.233, 0.042, 2.049]"
193,1,Cloud Points(m),"[0.0, 0.0, 0.0]","[0.0, 0.0, 0.0]","[0.0, 0.0, 0.0]","[0.0, 0.0, 0.0]","[0.0, 0.0, 0.0]","[0.0, 0.0, 0.0]","[0.007, 0.086, 2.049]","[0.293, -0.439, 1.908]","[0.233, 0.042, 2.049]"
193,1,Cloud Points(m),"[0.0, 0.0, 0.0]","[0.0, 0.0, 0.0]","[0.0, 0.0, 0.0]","[0.0, 0.0, 0.0]","[0.0, 0.0, 0.0]","[0.0, 0.0, 0.0]","[0.007, 0.086, 2.049]","[0.293, -0.439, 1.908]","[0.233, 0.042, 2.049]"
193,1,Cloud Points(m),"[0.0, 0.0, 0.0]","[0.0, 0.0, 0.0]","[0.0, 0.0, 0.0]","[0.0, 0.0, 0.0]","[0.0, 0.0, 0.0]","[0.0, 0.0, 0.0]","[0.007, 0.086, 2.049]","[0.293, -0.439, 1.908]","[0.233, 0.042, 2.049]"
193,1,Cloud Points(m),"[0.0, 0.0, 0.0]","[0.0, 0.0, 0.0]","[0.0, 0.0, 0.0]","[0.0, 0.0, 0.0]","[0.0, 0.0, 0.0]","[0.0, 0.0, 0.0]","[0.007, 0.086, 2.049]","[0.293, -0.439, 1.908]","[0.233, 0.042, 2.049]"
193,1,Cloud Points(m),"[0.0, 0.0, 0.0]","[0.0, 0.0, 0.0]","[0.0, 0.0, 0.0]","[0.0, 0.0, 0.0]","[0.0, 0.0, 0.0]","[0.0, 0.0, 0.0]","[0.007, 0.086, 2.049]","[0.293, -0.439, 1.908]","[0.233, 0.042, 2.049]"
193,1,Cloud Points(m),"[0.0, 0.0, 0.0]","[0.0, 0.0, 0.0]","[0.0, 0.0, 0.0]","[0.0, 0.0, 0.0]","[0.0, 0.0, 0.0]","[0.0, 0.0, 0.0]","[0.007, 0.086, 2.049]","[0.293, -0.439, 1.908]","[0.233, 0.042, 2.049]"
193,1,Cloud Points(m),"[0.0, 0.0, 0.0]","[0.0, 0.0, 0.0]","[0.0, 0.0, 0.0]","[0.0, 0.0, 0.0]","[0.0, 0.0, 0.0]","[0.0, 0.0, 0.0]","[0.007, 0.086, 2.049]","[0.293, -0.439, 1.908]","[0.233, 0.042, 2.049]"
194,0,Keypoints(m),"[0.59, -1.244, 2.4265]","[0.789, -1.039, 2.339]","[7.155, -8.242, 18.84]","[0.0, 0.0, 0.0]","[0.0, 0.0, 0.0]","[0.68, -1.025, 2.307]","[0.619, -0.639, 2.343]","[0.538, -0.423, 2.2795]","[0.579, -0.249, 1.536]","[0.951, -0.393, 2.319]","[0.0, 0.0, 0.0]","[0.0, 0.0, 0.0]","[0.511, -0.233, 1.504]","[0.0, 0.0, 0.0]","[0.0, 0.0, 0.0]","[0.0, 0.0, 0.0]","[0.597, -1.246, 2.4095]","[0.0, 0.0, 0.0]","[0.671, -1.238, 2.371]","[0.767, -1.094, 2.339]","[0.0, 0.0, 0.0]"
194,0,Keypoints(image),"[529000.0, 18000.0, 433.902]","[569000.0, 47000.0, 856.64]","[587000.0, 50000.0, 750.929]","[579000.0, 112000.0, 228.542]","[0.0, 0.0, 0.0]","[551000.0, 47000.0, 791.655]","[538000.0, 120000.0, 760.481]","[526000.0, 157000.0, 706.176]","[586000.0, 167000.0, 493.62699999999995]","[600000.0, 164000.0, 487.445]","[0.0, 0.0, 0.0]","[0.0, 0.0, 0.0]","[570000.0, 170000.0, 448.573]","[0.0, 0.0, 0.0]","[0.0, 0.0, 0.0]","[530000.0, 18000.0, 67.2741]","[531000.0, 16000.0, 803.64]","[569000.0, 3000.0, 290.40700000000004]","[546000.0, 14000.0, 785.246]","[565000.0, 37000.0, 817.6560000000001]","[538000.0, 3000.0, 324.95]"
194,1,Keypoints(m),"[0.0, 0.0, 0.0]","[0.0, 0.0, 0.0]","[0.0, 0.0, 0.0]","[-0.015, -0.778, 1.871]","[0.117, -0.426, 1.889]","[0.0, 0.0, 0.0]","[0.0, 0.0, 0.0]","[0.0, 0.0, 0.0]","[0.117, -0.457, 1.8865]","[-0.01, -0.453, 1.889]","[0.007, 0.096, 2.055]","[0.046, 0.566, 2.077]","[0.245, -0.477, 1.989]","[0.201, 0.045, 2.167]","[0.0, 0.0, 0.0]","[0.0, 0.0, 0.0]","[0.0, 0.0, 0.0]","[0.0, 0.0, 0.0]","[0.0, 0.0, 0.0]","[0.0, 0.0, 0.0]","[0.0, 0.0, 0.0]"
194,1,Keypoints(image),"[0.0, 0.0, 0.0]","[442000.0, 3000.0, 79.0193]","[414000.0, 3000.0, 86.5943]","[422000.0, 59000.0, 794.5229999999999]","[452000.0, 140000.0, 775.204]","[0.0, 0.0, 0.0]","[0.0, 0.0, 0.0]","[0.0, 0.0, 0.0]","[452000.0, 133000.0, 591.3580000000001]","[423000.0, 134000.0, 634.143]","[427000.0, 256000.0, 577.758]","[435000.0, 352000.0, 276.685]","[478000.0, 134000.0, 520.78]","[465000.0, 245000.0, 575.6949999999999]","[0.0, 0.0, 0.0]","[0.0, 0.0, 0.0]","[0.0, 0.0, 0.0]","[0.0, 0.0, 0.0]","[0.0, 0.0, 0.0]","[0.0, 0.0, 0.0]","[0.0, 0.0, 0.0]"
194,,Distance(m),0.0,2.678238786964299,21.773152941179646,2.0263637383253776,0.0,0.0,0.0,0.0,0.6160829895395588,1.0545240632626645,0.0,0.0,0.6045800195176814,0.0,0.0,0.0,0.0,0.0,0.0,0.0,0.0
194,1,Cloud Points(m),"[0.0, 0.0, 0.0]","[0.0, 0.0, 0.0]","[0.0, 0.0, 0.0]","[0.0, 0.0, 0.0]","[0.0, 0.0, 0.0]","[0.0, 0.0, 0.0]","[0.007, 0.096, 2.055]","[0.046, 0.566, 2.077]","[0.245, -0.477, 1.989]","[0.201, 0.045, 2.167]"
194,1,Cloud Points(m),"[0.0, 0.0, 0.0]","[0.0, 0.0, 0.0]","[0.0, 0.0, 0.0]","[0.0, 0.0, 0.0]","[0.0, 0.0, 0.0]","[0.0, 0.0, 0.0]","[0.007, 0.096, 2.055]","[0.046, 0.566, 2.077]","[0.245, -0.477, 1.989]","[0.201, 0.045, 2.167]"
194,1,Cloud Points(m),"[0.0, 0.0, 0.0]","[0.0, 0.0, 0.0]","[0.0, 0.0, 0.0]","[0.0, 0.0, 0.0]","[0.0, 0.0, 0.0]","[0.0, 0.0, 0.0]","[0.007, 0.096, 2.055]","[0.046, 0.566, 2.077]","[0.245, -0.477, 1.989]","[0.201, 0.045, 2.167]"
194,1,Cloud Points(m),"[0.0, 0.0, 0.0]","[0.0, 0.0, 0.0]","[0.0, 0.0, 0.0]","[0.0, 0.0, 0.0]","[0.0, 0.0, 0.0]","[0.0, 0.0, 0.0]","[0.007, 0.096, 2.055]","[0.046, 0.566, 2.077]","[0.245, -0.477, 1.989]","[0.201, 0.045, 2.167]"
194,1,Cloud Points(m),"[0.0, 0.0, 0.0]","[0.0, 0.0, 0.0]","[0.0, 0.0, 0.0]","[0.0, 0.0, 0.0]","[0.0, 0.0, 0.0]","[0.0, 0.0, 0.0]","[0.007, 0.096, 2.055]","[0.046, 0.566, 2.077]","[0.245, -0.477, 1.989]","[0.201, 0.045, 2.167]"
194,1,Cloud Points(m),"[0.0, 0.0, 0.0]","[0.0, 0.0, 0.0]","[0.0, 0.0, 0.0]","[0.0, 0.0, 0.0]","[0.0, 0.0, 0.0]","[0.0, 0.0, 0.0]","[0.007, 0.096, 2.055]","[0.046, 0.566, 2.077]","[0.245, -0.477, 1.989]","[0.201, 0.045, 2.167]"
194,1,Cloud Points(m),"[0.0, 0.0, 0.0]","[0.0, 0.0, 0.0]","[0.0, 0.0, 0.0]","[0.0, 0.0, 0.0]","[0.0, 0.0, 0.0]","[0.0, 0.0, 0.0]","[0.007, 0.096, 2.055]","[0.046, 0.566, 2.077]","[0.245, -0.477, 1.989]","[0.201, 0.045, 2.167]"
194,1,Cloud Points(m),"[0.0, 0.0, 0.0]","[0.0, 0.0, 0.0]","[0.0, 0.0, 0.0]","[0.0, 0.0, 0.0]","[0.0, 0.0, 0.0]","[0.0, 0.0, 0.0]","[0.007, 0.096, 2.055]","[0.046, 0.566, 2.077]","[0.245, -0.477, 1.989]","[0.201, 0.045, 2.167]"
194,1,Cloud Points(m),"[0.0, 0.0, 0.0]","[0.0, 0.0, 0.0]","[0.0, 0.0, 0.0]","[0.0, 0.0, 0.0]","[0.0, 0.0, 0.0]","[0.0, 0.0, 0.0]","[0.007, 0.096, 2.055]","[0.046, 0.566, 2.077]","[0.245, -0.477, 1.989]","[0.201, 0.045, 2.167]"
194,1,Cloud Points(m),"[0.0, 0.0, 0.0]","[0.0, 0.0, 0.0]","[0.0, 0.0, 0.0]","[0.0, 0.0, 0.0]","[0.0, 0.0, 0.0]","[0.0, 0.0, 0.0]","[0.007, 0.096, 2.055]","[0.046, 0.566, 2.077]","[0.245, -0.477, 1.989]","[0.201, 0.045, 2.167]"
194,1,Cloud Points(m),"[0.0, 0.0, 0.0]","[0.0, 0.0, 0.0]","[0.0, 0.0, 0.0]","[0.0, 0.0, 0.0]","[0.0, 0.0, 0.0]","[0.0, 0.0, 0.0]","[0.007, 0.096, 2.055]","[0.046, 0.566, 2.077]","[0.245, -0.477, 1.989]","[0.201, 0.045, 2.167]"
194,1,Cloud Points(m),"[0.0, 0.0, 0.0]","[0.0, 0.0, 0.0]","[0.0, 0.0, 0.0]","[0.0, 0.0, 0.0]","[0.0, 0.0, 0.0]","[0.0, 0.0, 0.0]","[0.007, 0.096, 2.055]","[0.046, 0.566, 2.077]","[0.245, -0.477, 1.989]","[0.201, 0.045, 2.167]"
194,1,Cloud Points(m),"[0.0, 0.0, 0.0]","[0.0, 0.0, 0.0]","[0.0, 0.0, 0.0]","[0.0, 0.0, 0.0]","[0.0, 0.0, 0.0]","[0.0, 0.0, 0.0]","[0.007, 0.096, 2.055]","[0.046, 0.566, 2.077]","[0.245, -0.477, 1.989]","[0.201, 0.045, 2.167]"
194,1,Cloud Points(m),"[0.0, 0.0, 0.0]","[0.0, 0.0, 0.0]","[0.0, 0.0, 0.0]","[0.0, 0.0, 0.0]","[0.0, 0.0, 0.0]","[0.0, 0.0, 0.0]","[0.007, 0.096, 2.055]","[0.046, 0.566, 2.077]","[0.245, -0.477, 1.989]","[0.201, 0.045, 2.167]"
194,1,Cloud Points(m),"[0.0, 0.0, 0.0]","[0.0, 0.0, 0.0]","[0.0, 0.0, 0.0]","[0.0, 0.0, 0.0]","[0.0, 0.0, 0.0]","[0.0, 0.0, 0.0]","[0.007, 0.096, 2.055]","[0.046, 0.566, 2.077]","[0.245, -0.477, 1.989]","[0.201, 0.045, 2.167]"
194,1,Cloud Points(m),"[0.0, 0.0, 0.0]","[0.0, 0.0, 0.0]","[0.0, 0.0, 0.0]","[0.0, 0.0, 0.0]","[0.0, 0.0, 0.0]","[0.0, 0.0, 0.0]","[0.007, 0.096, 2.055]","[0.046, 0.566, 2.077]","[0.245, -0.477, 1.989]","[0.201, 0.045, 2.167]"
194,1,Cloud Points(m),"[0.0, 0.0, 0.0]","[0.0, 0.0, 0.0]","[0.0, 0.0, 0.0]","[0.0, 0.0, 0.0]","[0.0, 0.0, 0.0]","[0.0, 0.0, 0.0]","[0.007, 0.096, 2.055]","[0.046, 0.566, 2.077]","[0.245, -0.477, 1.989]","[0.201, 0.045, 2.167]"
195,0,Keypoints(m),"[0.584, -1.231, 2.401]","[0.781, -1.029, 2.315]","[6.157, -7.081, 16.014]","[0.0, 0.0, 0.0]","[0.0, 0.0, 0.0]","[0.677, -1.036, 2.331]","[0.632, -0.647, 2.371]","[0.505, -0.397, 2.14]","[0.902, -0.408, 2.347]","[1.132, -0.481, 2.7295]","[0.0, 0.0, 0.0]","[0.0, 0.0, 0.0]","[0.55, -0.27, 1.5755]","[0.0, 0.0, 0.0]","[0.0, 0.0, 0.0]","[0.0, 0.0, 0.0]","[0.594, -1.24, 2.397]","[0.0, 0.0, 0.0]","[0.68, -1.253, 2.401]","[0.764, -1.091, 2.331]","[0.0, 0.0, 0.0]"
195,0,Keypoints(image),"[529000.0, 18000.0, 497.716]","[569000.0, 47000.0, 914.4830000000001]","[589000.0, 48000.0, 786.983]","[0.0, 0.0, 0.0]","[0.0, 0.0, 0.0]","[549000.0, 47000.0, 833.075]","[539000.0, 120000.0, 764.026]","[526000.0, 157000.0, 726.346]","[589000.0, 162000.0, 588.472]","[602000.0, 161000.0, 542.1049999999999]","[0.0, 0.0, 0.0]","[0.0, 0.0, 0.0]","[574000.0, 163000.0, 524.831]","[0.0, 0.0, 0.0]","[0.0, 0.0, 0.0]","[0.0, 0.0, 0.0]","[531000.0, 16000.0, 799.8459999999999]","[569000.0, 3000.0, 370.958]","[546000.0, 14000.0, 806.026]","[565000.0, 37000.0, 854.055]","[538000.0, 3000.0, 334.609]"
195,1,Keypoints(m),"[0.0, 0.0, 0.0]","[0.0, 0.0, 0.0]","[0.0, 0.0, 0.0]","[-0.015, -0.79, 1.8975]","[0.11, -0.431, 1.911]","[0.0, 0.0, 0.0]","[0.0, 0.0, 0.0]","[0.0, 0.0, 0.0]","[0.106, -0.476, 1.927]","[-0.015, -0.464, 1.9]","[-0.002, 0.101, 2.065]","[0.046, 0.624, 2.093]","[0.241, -0.508, 2.037]","[0.0, 0.0, 0.0]","[0.386, 0.321, 1.4855]","[0.0, 0.0, 0.0]","[0.0, 0.0, 0.0]","[0.0, 0.0, 0.0]","[0.0, 0.0, 0.0]","[0.0, 0.0, 0.0]","[0.0, 0.0, 0.0]"
195,1,Keypoints(image),"[0.0, 0.0, 0.0]","[442000.0, 3000.0, 75.6339]","[412000.0, 3000.0, 90.73559999999999]","[422000.0, 59000.0, 815.913]","[450000.0, 140000.0, 742.204]","[0.0, 0.0, 0.0]","[0.0, 0.0, 0.0]","[0.0, 0.0, 0.0]","[449000.0, 131000.0, 650.335]","[422000.0, 132000.0, 685.442]","[425000.0, 257000.0, 626.2520000000001]","[435000.0, 363000.0, 556.803]","[476000.0, 130000.0, 519.3489999999999]","[474000.0, 253000.0, 594.208]","[536000.0, 328000.0, 397.613]","[0.0, 0.0, 0.0]","[0.0, 0.0, 0.0]","[0.0, 0.0, 0.0]","[0.0, 0.0, 0.0]","[0.0, 0.0, 0.0]","[0.0, 0.0, 0.0]"
195,,Distance(m),0.0,2.6510426250816868,18.56064131435118,0.0,0.0,0.0,0.0,0.0,0.9025740966812642,1.4156158553788525,0.0,0.0,0.6042410528919729,0.0,0.0,0.0,0.0,0.0,0.0,0.0,0.0
195,1,Cloud Points(m),"[0.0, 0.0, 0.0]","[0.0, 0.0, 0.0]","[0.0, 0.0, 0.0]","[0.0, 0.0, 0.0]","[0.0, 0.0, 0.0]","[0.0, 0.0, 0.0]","[-0.002, 0.101, 2.065]","[0.046, 0.624, 2.093]","[0.0, 0.0, 0.0]","[0.0, 0.0, 0.0]","[0.386, 0.321, 1.4855]"
195,1,Cloud Points(m),"[0.0, 0.0, 0.0]","[0.0, 0.0, 0.0]","[0.0, 0.0, 0.0]","[0.0, 0.0, 0.0]","[0.0, 0.0, 0.0]","[0.0, 0.0, 0.0]","[-0.002, 0.101, 2.065]","[0.046, 0.624, 2.093]","[0.0, 0.0, 0.0]","[0.0, 0.0, 0.0]","[0.386, 0.321, 1.4855]"
195,1,Cloud Points(m),"[0.0, 0.0, 0.0]","[0.0, 0.0, 0.0]","[0.0, 0.0, 0.0]","[0.0, 0.0, 0.0]","[0.0, 0.0, 0.0]","[0.0, 0.0, 0.0]","[-0.002, 0.101, 2.065]","[0.046, 0.624, 2.093]","[0.0, 0.0, 0.0]","[0.0, 0.0, 0.0]","[0.386, 0.321, 1.4855]"
195,1,Cloud Points(m),"[0.0, 0.0, 0.0]","[0.0, 0.0, 0.0]","[0.0, 0.0, 0.0]","[0.0, 0.0, 0.0]","[0.0, 0.0, 0.0]","[0.0, 0.0, 0.0]","[-0.002, 0.101, 2.065]","[0.046, 0.624, 2.093]","[0.0, 0.0, 0.0]","[0.0, 0.0, 0.0]","[0.386, 0.321, 1.4855]"
195,1,Cloud Points(m),"[0.0, 0.0, 0.0]","[0.0, 0.0, 0.0]","[0.0, 0.0, 0.0]","[0.0, 0.0, 0.0]","[0.0, 0.0, 0.0]","[0.0, 0.0, 0.0]","[-0.002, 0.101, 2.065]","[0.046, 0.624, 2.093]","[0.0, 0.0, 0.0]","[0.0, 0.0, 0.0]","[0.386, 0.321, 1.4855]"
195,1,Cloud Points(m),"[0.0, 0.0, 0.0]","[0.0, 0.0, 0.0]","[0.0, 0.0, 0.0]","[0.0, 0.0, 0.0]","[0.0, 0.0, 0.0]","[0.0, 0.0, 0.0]","[-0.002, 0.101, 2.065]","[0.046, 0.624, 2.093]","[0.0, 0.0, 0.0]","[0.0, 0.0, 0.0]","[0.386, 0.321, 1.4855]"
195,1,Cloud Points(m),"[0.0, 0.0, 0.0]","[0.0, 0.0, 0.0]","[0.0, 0.0, 0.0]","[0.0, 0.0, 0.0]","[0.0, 0.0, 0.0]","[0.0, 0.0, 0.0]","[-0.002, 0.101, 2.065]","[0.046, 0.624, 2.093]","[0.0, 0.0, 0.0]","[0.0, 0.0, 0.0]","[0.386, 0.321, 1.4855]"
195,1,Cloud Points(m),"[0.0, 0.0, 0.0]","[0.0, 0.0, 0.0]","[0.0, 0.0, 0.0]","[0.0, 0.0, 0.0]","[0.0, 0.0, 0.0]","[0.0, 0.0, 0.0]","[-0.002, 0.101, 2.065]","[0.046, 0.624, 2.093]","[0.0, 0.0, 0.0]","[0.0, 0.0, 0.0]","[0.386, 0.321, 1.4855]"
195,1,Cloud Points(m),"[0.0, 0.0, 0.0]","[0.0, 0.0, 0.0]","[0.0, 0.0, 0.0]","[0.0, 0.0, 0.0]","[0.0, 0.0, 0.0]","[0.0, 0.0, 0.0]","[-0.002, 0.101, 2.065]","[0.046, 0.624, 2.093]","[0.0, 0.0, 0.0]","[0.0, 0.0, 0.0]","[0.386, 0.321, 1.4855]"
195,1,Cloud Points(m),"[0.0, 0.0, 0.0]","[0.0, 0.0, 0.0]","[0.0, 0.0, 0.0]","[0.0, 0.0, 0.0]","[0.0, 0.0, 0.0]","[0.0, 0.0, 0.0]","[-0.002, 0.101, 2.065]","[0.046, 0.624, 2.093]","[0.0, 0.0, 0.0]","[0.0, 0.0, 0.0]","[0.386, 0.321, 1.4855]"
195,1,Cloud Points(m),"[0.0, 0.0, 0.0]","[0.0, 0.0, 0.0]","[0.0, 0.0, 0.0]","[0.0, 0.0, 0.0]","[0.0, 0.0, 0.0]","[0.0, 0.0, 0.0]","[-0.002, 0.101, 2.065]","[0.046, 0.624, 2.093]","[0.0, 0.0, 0.0]","[0.0, 0.0, 0.0]","[0.386, 0.321, 1.4855]"
195,1,Cloud Points(m),"[0.0, 0.0, 0.0]","[0.0, 0.0, 0.0]","[0.0, 0.0, 0.0]","[0.0, 0.0, 0.0]","[0.0, 0.0, 0.0]","[0.0, 0.0, 0.0]","[-0.002, 0.101, 2.065]","[0.046, 0.624, 2.093]","[0.0, 0.0, 0.0]","[0.0, 0.0, 0.0]","[0.386, 0.321, 1.4855]"
195,1,Cloud Points(m),"[0.0, 0.0, 0.0]","[0.0, 0.0, 0.0]","[0.0, 0.0, 0.0]","[0.0, 0.0, 0.0]","[0.0, 0.0, 0.0]","[0.0, 0.0, 0.0]","[-0.002, 0.101, 2.065]","[0.046, 0.624, 2.093]","[0.0, 0.0, 0.0]","[0.0, 0.0, 0.0]","[0.386, 0.321, 1.4855]"
195,1,Cloud Points(m),"[0.0, 0.0, 0.0]","[0.0, 0.0, 0.0]","[0.0, 0.0, 0.0]","[0.0, 0.0, 0.0]","[0.0, 0.0, 0.0]","[0.0, 0.0, 0.0]","[-0.002, 0.101, 2.065]","[0.046, 0.624, 2.093]","[0.0, 0.0, 0.0]","[0.0, 0.0, 0.0]","[0.386, 0.321, 1.4855]"
195,1,Cloud Points(m),"[0.0, 0.0, 0.0]","[0.0, 0.0, 0.0]","[0.0, 0.0, 0.0]","[0.0, 0.0, 0.0]","[0.0, 0.0, 0.0]","[0.0, 0.0, 0.0]","[-0.002, 0.101, 2.065]","[0.046, 0.624, 2.093]","[0.0, 0.0, 0.0]","[0.0, 0.0, 0.0]","[0.386, 0.321, 1.4855]"
195,1,Cloud Points(m),"[0.0, 0.0, 0.0]","[0.0, 0.0, 0.0]","[0.0, 0.0, 0.0]","[0.0, 0.0, 0.0]","[0.0, 0.0, 0.0]","[0.0, 0.0, 0.0]","[-0.002, 0.101, 2.065]","[0.046, 0.624, 2.093]","[0.0, 0.0, 0.0]","[0.0, 0.0, 0.0]","[0.386, 0.321, 1.4855]"
195,1,Cloud Points(m),"[0.0, 0.0, 0.0]","[0.0, 0.0, 0.0]","[0.0, 0.0, 0.0]","[0.0, 0.0, 0.0]","[0.0, 0.0, 0.0]","[0.0, 0.0, 0.0]","[-0.002, 0.101, 2.065]","[0.046, 0.624, 2.093]","[0.0, 0.0, 0.0]","[0.0, 0.0, 0.0]","[0.386, 0.321, 1.4855]"
195,1,Cloud Points(m),"[0.0, 0.0, 0.0]","[0.0, 0.0, 0.0]","[0.0, 0.0, 0.0]","[0.0, 0.0, 0.0]","[0.0, 0.0, 0.0]","[0.0, 0.0, 0.0]","[-0.002, 0.101, 2.065]","[0.046, 0.624, 2.093]","[0.0, 0.0, 0.0]","[0.0, 0.0, 0.0]","[0.386, 0.321, 1.4855]"
196,0,Keypoints(m),"[0.529, -1.238, 2.4615]","[0.72, -1.019, 2.331]","[0.798, -0.987, 2.319]","[0.0, 0.0, 0.0]","[0.0, 0.0, 0.0]","[0.619, -1.041, 2.343]","[0.534, -0.614, 2.331]","[0.0, 0.0, 0.0]","[0.525, -0.241, 1.5575]","[0.572, -0.247, 1.545]","[0.0, 0.0, 0.0]","[0.0, 0.0, 0.0]","[0.471, -0.235, 1.536]","[0.091, 0.063, 2.106]","[0.364, 0.467, 1.952]","[0.0, 0.0, 0.0]","[0.525, -1.262, 2.44]","[0.0, 0.0, 0.0]","[0.583, -1.24, 2.397]","[0.682, -1.089, 2.351]","[0.0, 0.0, 0.0]"
196,0,Keypoints(image),"[517000.0, 22000.0, 455.263]","[557000.0, 50000.0, 800.44]","[572000.0, 55000.0, 697.333]","[0.0, 0.0, 0.0]","[0.0, 0.0, 0.0]","[538000.0, 47000.0, 833.604]","[523000.0, 124000.0, 683.156]","[506000.0, 166000.0, 197.702]","[569000.0, 170000.0, 591.364]","[583000.0, 168000.0, 467.603]","[0.0, 0.0, 0.0]","[0.0, 0.0, 0.0]","[556000.0, 171000.0, 527.395]","[444000.0, 249000.0, 357.08299999999997]","[505000.0, 338000.0, 661.0740000000001]","[0.0, 0.0, 0.0]","[517000.0, 16000.0, 862.8409999999999]","[0.0, 0.0, 0.0]","[529000.0, 16000.0, 821.513]","[549000.0, 39000.0, 820.999]","[525000.0, 3000.0, 380.50699999999995]"
196,1,Keypoints(m),"[0.0, 0.0, 0.0]","[0.0, 0.0, 0.0]","[0.0, 0.0, 0.0]","[0.0, 0.0, 0.0]","[0.0, 0.0, 0.0]","[0.0, 0.0, 0.0]","[0.0, 0.0, 0.0]","[0.0, 0.0, 0.0]","[0.069, -0.438, 1.9]","[-0.047, -0.442, 1.921]","[-0.011, 0.096, 2.062]","[0.037, 0.609, 2.093]","[0.19, -0.47, 1.998]","[0.0, 0.0, 0.0]","[0.0, 0.0, 0.0]","[0.0, 0.0, 0.0]","[0.0, 0.0, 0.0]","[0.0, 0.0, 0.0]","[0.0, 0.0, 0.0]","[0.0, 0.0, 0.0]","[0.0, 0.0, 0.0]"
196,1,Keypoints(image),"[0.0, 0.0, 0.0]","[431000.0, 3000.0, 68.2465]","[0.0, 0.0, 0.0]","[0.0, 0.0, 0.0]","[0.0, 0.0, 0.0]","[0.0, 0.0, 0.0]","[0.0, 0.0, 0.0]","[0.0, 0.0, 0.0]","[441000.0, 138000.0, 656.592]","[415000.0, 138000.0, 623.8820000000001]","[423000.0, 256000.0, 627.127]","[433000.0, 360000.0, 567.351]","[466000.0, 136000.0, 569.886]","[487000.0, 235000.0, 194.706]","[572000.0, 392000.0, 66.5802]","[0.0, 0.0, 0.0]","[0.0, 0.0, 0.0]","[0.0, 0.0, 0.0]","[0.0, 0.0, 0.0]","[0.0, 0.0, 0.0]","[0.0, 0.0, 0.0]"
196,,Distance(m),0.0,2.643921708371865,0.0,0.0,0.0,0.0,0.0,0.0,0.603366596688945,0.7500413321944331,0.0,0.0,0.5896015603778538,2.108906351642955,2.0398257278502987,0.0,0.0,0.0,0.0,0.0,0.0
196,1,Cloud Points(m),"[0.0, 0.0, 0.0]","[0.0, 0.0, 0.0]","[-0.047, -0.442, 1.921]","[-0.011, 0.096, 2.062]","[0.037, 0.609, 2.093]","[0.0, 0.0, 0.0]","[0.0, 0.0, 0.0]","[0.5, 0.532, 1.452]"
196,1,Cloud Points(m),"[0.0, 0.0, 0.0]","[0.0, 0.0, 0.0]","[-0.047, -0.442, 1.921]","[-0.011, 0.096, 2.062]","[0.037, 0.609, 2.093]","[0.0, 0.0, 0.0]","[0.0, 0.0, 0.0]","[0.5, 0.532, 1.452]"
196,1,Cloud Points(m),"[0.0, 0.0, 0.0]","[0.0, 0.0, 0.0]","[-0.047, -0.442, 1.921]","[-0.011, 0.096, 2.062]","[0.037, 0.609, 2.093]","[0.0, 0.0, 0.0]","[0.0, 0.0, 0.0]","[0.5, 0.532, 1.452]"
196,1,Cloud Points(m),"[0.0, 0.0, 0.0]","[0.0, 0.0, 0.0]","[-0.047, -0.442, 1.921]","[-0.011, 0.096, 2.062]","[0.037, 0.609, 2.093]","[0.0, 0.0, 0.0]","[0.0, 0.0, 0.0]","[0.5, 0.532, 1.452]"
196,1,Cloud Points(m),"[0.0, 0.0, 0.0]","[0.0, 0.0, 0.0]","[-0.047, -0.442, 1.921]","[-0.011, 0.096, 2.062]","[0.037, 0.609, 2.093]","[0.0, 0.0, 0.0]","[0.0, 0.0, 0.0]","[0.5, 0.532, 1.452]"
196,1,Cloud Points(m),"[0.0, 0.0, 0.0]","[0.0, 0.0, 0.0]","[-0.047, -0.442, 1.921]","[-0.011, 0.096, 2.062]","[0.037, 0.609, 2.093]","[0.0, 0.0, 0.0]","[0.0, 0.0, 0.0]","[0.5, 0.532, 1.452]"
196,1,Cloud Points(m),"[0.0, 0.0, 0.0]","[0.0, 0.0, 0.0]","[-0.047, -0.442, 1.921]","[-0.011, 0.096, 2.062]","[0.037, 0.609, 2.093]","[0.0, 0.0, 0.0]","[0.0, 0.0, 0.0]","[0.5, 0.532, 1.452]"
196,1,Cloud Points(m),"[0.0, 0.0, 0.0]","[0.0, 0.0, 0.0]","[-0.047, -0.442, 1.921]","[-0.011, 0.096, 2.062]","[0.037, 0.609, 2.093]","[0.0, 0.0, 0.0]","[0.0, 0.0, 0.0]","[0.5, 0.532, 1.452]"
196,1,Cloud Points(m),"[0.0, 0.0, 0.0]","[0.0, 0.0, 0.0]","[-0.047, -0.442, 1.921]","[-0.011, 0.096, 2.062]","[0.037, 0.609, 2.093]","[0.0, 0.0, 0.0]","[0.0, 0.0, 0.0]","[0.5, 0.532, 1.452]"
196,1,Cloud Points(m),"[0.0, 0.0, 0.0]","[0.0, 0.0, 0.0]","[-0.047, -0.442, 1.921]","[-0.011, 0.096, 2.062]","[0.037, 0.609, 2.093]","[0.0, 0.0, 0.0]","[0.0, 0.0, 0.0]","[0.5, 0.532, 1.452]"
196,1,Cloud Points(m),"[0.0, 0.0, 0.0]","[0.0, 0.0, 0.0]","[-0.047, -0.442, 1.921]","[-0.011, 0.096, 2.062]","[0.037, 0.609, 2.093]","[0.0, 0.0, 0.0]","[0.0, 0.0, 0.0]","[0.5, 0.532, 1.452]"
196,1,Cloud Points(m),"[0.0, 0.0, 0.0]","[0.0, 0.0, 0.0]","[-0.047, -0.442, 1.921]","[-0.011, 0.096, 2.062]","[0.037, 0.609, 2.093]","[0.0, 0.0, 0.0]","[0.0, 0.0, 0.0]","[0.5, 0.532, 1.452]"
196,1,Cloud Points(m),"[0.0, 0.0, 0.0]","[0.0, 0.0, 0.0]","[-0.047, -0.442, 1.921]","[-0.011, 0.096, 2.062]","[0.037, 0.609, 2.093]","[0.0, 0.0, 0.0]","[0.0, 0.0, 0.0]","[0.5, 0.532, 1.452]"
196,1,Cloud Points(m),"[0.0, 0.0, 0.0]","[0.0, 0.0, 0.0]","[-0.047, -0.442, 1.921]","[-0.011, 0.096, 2.062]","[0.037, 0.609, 2.093]","[0.0, 0.0, 0.0]","[0.0, 0.0, 0.0]","[0.5, 0.532, 1.452]"
196,1,Cloud Points(m),"[0.0, 0.0, 0.0]","[0.0, 0.0, 0.0]","[-0.047, -0.442, 1.921]","[-0.011, 0.096, 2.062]","[0.037, 0.609, 2.093]","[0.0, 0.0, 0.0]","[0.0, 0.0, 0.0]","[0.5, 0.532, 1.452]"
196,1,Cloud Points(m),"[0.0, 0.0, 0.0]","[0.0, 0.0, 0.0]","[-0.047, -0.442, 1.921]","[-0.011, 0.096, 2.062]","[0.037, 0.609, 2.093]","[0.0, 0.0, 0.0]","[0.0, 0.0, 0.0]","[0.5, 0.532, 1.452]"
196,1,Cloud Points(m),"[0.0, 0.0, 0.0]","[0.0, 0.0, 0.0]","[-0.047, -0.442, 1.921]","[-0.011, 0.096, 2.062]","[0.037, 0.609, 2.093]","[0.0, 0.0, 0.0]","[0.0, 0.0, 0.0]","[0.5, 0.532, 1.452]"
196,1,Cloud Points(m),"[0.0, 0.0, 0.0]","[0.0, 0.0, 0.0]","[-0.047, -0.442, 1.921]","[-0.011, 0.096, 2.062]","[0.037, 0.609, 2.093]","[0.0, 0.0, 0.0]","[0.0, 0.0, 0.0]","[0.5, 0.532, 1.452]"
196,1,Cloud Points(m),"[0.0, 0.0, 0.0]","[0.0, 0.0, 0.0]","[-0.047, -0.442, 1.921]","[-0.011, 0.096, 2.062]","[0.037, 0.609, 2.093]","[0.0, 0.0, 0.0]","[0.0, 0.0, 0.0]","[0.5, 0.532, 1.452]"
197,0,Keypoints(m),"[0.485, -1.237, 2.4705]","[0.68, -1.028, 2.363]","[7.228, -9.263, 21.879]","[0.0, 0.0, 0.0]","[0.0, 0.0, 0.0]","[0.585, -1.048, 2.359]","[0.509, -0.607, 2.367]","[0.28, -0.248, 1.6]","[0.685, -0.31, 2.031]","[0.899, -0.374, 2.4445]","[0.0, 0.0, 0.0]","[0.0, 0.0, 0.0]","[0.502, -0.252, 1.6245]","[0.183, -0.041, 1.607]","[0.0, 0.0, 0.0]","[0.0, 0.0, 0.0]","[0.498, -1.267, 2.449]","[0.0, 0.0, 0.0]","[0.568, -1.269, 2.431]","[0.658, -1.094, 2.363]","[0.0, 0.0, 0.0]"
197,0,Keypoints(image),"[509000.0, 23000.0, 420.469]","[548000.0, 51000.0, 822.254]","[566000.0, 56000.0, 761.109]","[565000.0, 111000.0, 82.2546]","[0.0, 0.0, 0.0]","[531000.0, 47000.0, 777.14]","[517000.0, 127000.0, 776.9540000000001]","[500000.0, 170000.0, 340.378]","[569000.0, 171000.0, 728.152]","[582000.0, 171000.0, 636.615]","[0.0, 0.0, 0.0]","[0.0, 0.0, 0.0]","[557000.0, 170000.0, 650.245]","[474000.0, 225000.0, 693.289]","[0.0, 0.0, 0.0]","[506000.0, 25000.0, 66.6202]","[512000.0, 16000.0, 826.994]","[0.0, 0.0, 0.0]","[525000.0, 14000.0, 801.424]","[544000.0, 39000.0, 810.246]","[517000.0, 3000.0, 322.06800000000004]"
197,1,Keypoints(m),"[0.0, 0.0, 0.0]","[0.0, 0.0, 0.0]","[0.0, 0.0, 0.0]","[0.0, 0.0, 0.0]","[0.0, 0.0, 0.0]","[0.0, 0.0, 0.0]","[0.0, 0.0, 0.0]","[0.0, 0.0, 0.0]","[0.034, -0.451, 1.96]","[-0.083, -0.436, 1.932]","[-0.026, 0.053, 2.0965]","[0.036, 0.613, 2.071]","[0.178, -0.504, 2.0835]","[0.0, 0.0, 0.0]","[0.0, 0.0, 0.0]","[0.0, 0.0, 0.0]","[0.0, 0.0, 0.0]","[0.0, 0.0, 0.0]","[0.0, 0.0, 0.0]","[0.0, 0.0, 0.0]","[0.0, 0.0, 0.0]"
197,1,Keypoints(image),"[0.0, 0.0, 0.0]","[422000.0, 3000.0, 73.21669999999999]","[0.0, 0.0, 0.0]","[0.0, 0.0, 0.0]","[0.0, 0.0, 0.0]","[0.0, 0.0, 0.0]","[0.0, 0.0, 0.0]","[0.0, 0.0, 0.0]","[433000.0, 138000.0, 647.655]","[407000.0, 140000.0, 616.048]","[420000.0, 247000.0, 648.7199999999999]","[433000.0, 362000.0, 653.246]","[462000.0, 133000.0, 576.661]","[0.0, 0.0, 0.0]","[0.0, 0.0, 0.0]","[0.0, 0.0, 0.0]","[0.0, 0.0, 0.0]","[0.0, 0.0, 0.0]","[0.0, 0.0, 0.0]","[0.0, 0.0, 0.0]","[0.0, 0.0, 0.0]"
197,,Distance(m),0.0,2.6651365818659274,0.0,0.0,0.0,0.0,0.0,0.0,0.6698678974245593,1.1094251890055498,0.0,0.0,0.6157605053915036,0.0,0.0,0.0,0.0,0.0,0.0,0.0,0.0
197,1,Cloud Points(m),"[0.0, 0.0, 0.0]","[0.0, 0.0, 0.0]","[-0.083, -0.436, 1.932]","[0.0, 0.0, 0.0]","[0.036, 0.613, 2.071]","[0.178, -0.504, 2.0835]"
197,1,Cloud Points(m),"[0.0, 0.0, 0.0]","[0.0, 0.0, 0.0]","[-0.083, -0.436, 1.932]","[0.0, 0.0, 0.0]","[0.036, 0.613, 2.071]","[0.178, -0.504, 2.0835]"
197,1,Cloud Points(m),"[0.0, 0.0, 0.0]","[0.0, 0.0, 0.0]","[-0.083, -0.436, 1.932]","[0.0, 0.0, 0.0]","[0.036, 0.613, 2.071]","[0.178, -0.504, 2.0835]"
197,1,Cloud Points(m),"[0.0, 0.0, 0.0]","[0.0, 0.0, 0.0]","[-0.083, -0.436, 1.932]","[0.0, 0.0, 0.0]","[0.036, 0.613, 2.071]","[0.178, -0.504, 2.0835]"
197,1,Cloud Points(m),"[0.0, 0.0, 0.0]","[0.0, 0.0, 0.0]","[-0.083, -0.436, 1.932]","[0.0, 0.0, 0.0]","[0.036, 0.613, 2.071]","[0.178, -0.504, 2.0835]"
197,1,Cloud Points(m),"[0.0, 0.0, 0.0]","[0.0, 0.0, 0.0]","[-0.083, -0.436, 1.932]","[0.0, 0.0, 0.0]","[0.036, 0.613, 2.071]","[0.178, -0.504, 2.0835]"
197,1,Cloud Points(m),"[0.0, 0.0, 0.0]","[0.0, 0.0, 0.0]","[-0.083, -0.436, 1.932]","[0.0, 0.0, 0.0]","[0.036, 0.613, 2.071]","[0.178, -0.504, 2.0835]"
197,1,Cloud Points(m),"[0.0, 0.0, 0.0]","[0.0, 0.0, 0.0]","[-0.083, -0.436, 1.932]","[0.0, 0.0, 0.0]","[0.036, 0.613, 2.071]","[0.178, -0.504, 2.0835]"
197,1,Cloud Points(m),"[0.0, 0.0, 0.0]","[0.0, 0.0, 0.0]","[-0.083, -0.436, 1.932]","[0.0, 0.0, 0.0]","[0.036, 0.613, 2.071]","[0.178, -0.504, 2.0835]"
197,1,Cloud Points(m),"[0.0, 0.0, 0.0]","[0.0, 0.0, 0.0]","[-0.083, -0.436, 1.932]","[0.0, 0.0, 0.0]","[0.036, 0.613, 2.071]","[0.178, -0.504, 2.0835]"
197,1,Cloud Points(m),"[0.0, 0.0, 0.0]","[0.0, 0.0, 0.0]","[-0.083, -0.436, 1.932]","[0.0, 0.0, 0.0]","[0.036, 0.613, 2.071]","[0.178, -0.504, 2.0835]"
197,1,Cloud Points(m),"[0.0, 0.0, 0.0]","[0.0, 0.0, 0.0]","[-0.083, -0.436, 1.932]","[0.0, 0.0, 0.0]","[0.036, 0.613, 2.071]","[0.178, -0.504, 2.0835]"
197,1,Cloud Points(m),"[0.0, 0.0, 0.0]","[0.0, 0.0, 0.0]","[-0.083, -0.436, 1.932]","[0.0, 0.0, 0.0]","[0.036, 0.613, 2.071]","[0.178, -0.504, 2.0835]"
197,1,Cloud Points(m),"[0.0, 0.0, 0.0]","[0.0, 0.0, 0.0]","[-0.083, -0.436, 1.932]","[0.0, 0.0, 0.0]","[0.036, 0.613, 2.071]","[0.178, -0.504, 2.0835]"
197,1,Cloud Points(m),"[0.0, 0.0, 0.0]","[0.0, 0.0, 0.0]","[-0.083, -0.436, 1.932]","[0.0, 0.0, 0.0]","[0.036, 0.613, 2.071]","[0.178, -0.504, 2.0835]"
197,1,Cloud Points(m),"[0.0, 0.0, 0.0]","[0.0, 0.0, 0.0]","[-0.083, -0.436, 1.932]","[0.0, 0.0, 0.0]","[0.036, 0.613, 2.071]","[0.178, -0.504, 2.0835]"
197,1,Cloud Points(m),"[0.0, 0.0, 0.0]","[0.0, 0.0, 0.0]","[-0.083, -0.436, 1.932]","[0.0, 0.0, 0.0]","[0.036, 0.613, 2.071]","[0.178, -0.504, 2.0835]"
197,1,Cloud Points(m),"[0.0, 0.0, 0.0]","[0.0, 0.0, 0.0]","[-0.083, -0.436, 1.932]","[0.0, 0.0, 0.0]","[0.036, 0.613, 2.071]","[0.178, -0.504, 2.0835]"
197,1,Cloud Points(m),"[0.0, 0.0, 0.0]","[0.0, 0.0, 0.0]","[-0.083, -0.436, 1.932]","[0.0, 0.0, 0.0]","[0.036, 0.613, 2.071]","[0.178, -0.504, 2.0835]"
197,1,Cloud Points(m),"[0.0, 0.0, 0.0]","[0.0, 0.0, 0.0]","[-0.083, -0.436, 1.932]","[0.0, 0.0, 0.0]","[0.036, 0.613, 2.071]","[0.178, -0.504, 2.0835]"
198,0,Keypoints(m),"[0.482, -1.246, 2.489]","[0.692, -1.052, 2.405]","[8.557, -11.106, 26.086]","[0.0, 0.0, 0.0]","[0.0, 0.0, 0.0]","[0.599, -1.054, 2.371]","[0.517, -0.611, 2.405]","[0.283, -0.262, 1.64]","[0.817, -0.367, 2.405]","[0.974, -0.407, 2.665]","[0.0, 0.0, 0.0]","[0.0, 0.0, 0.0]","[0.693, -0.343, 2.209]","[0.159, -0.046, 1.634]","[0.0, 0.0, 0.0]","[0.0, 0.0, 0.0]","[0.509, -1.295, 2.503]","[0.0, 0.0, 0.0]","[0.574, -1.28, 2.453]","[0.668, -1.12, 2.418]","[0.0, 0.0, 0.0]"
198,0,Keypoints(image),"[508000.0, 23000.0, 449.64]","[548000.0, 50000.0, 845.2969999999999]","[565000.0, 55000.0, 764.726]","[0.0, 0.0, 0.0]","[0.0, 0.0, 0.0]","[533000.0, 47000.0, 796.189]","[517000.0, 128000.0, 827.667]","[499000.0, 168000.0, 369.07]","[570000.0, 171000.0, 742.187]","[581000.0, 171000.0, 685.0619999999999]","[0.0, 0.0, 0.0]","[0.0, 0.0, 0.0]","[559000.0, 170000.0, 705.1859999999999]","[467000.0, 224000.0, 768.93]","[0.0, 0.0, 0.0]","[0.0, 0.0, 0.0]","[512000.0, 16000.0, 809.525]","[0.0, 0.0, 0.0]","[525000.0, 14000.0, 813.3489999999999]","[543000.0, 39000.0, 816.1460000000001]","[517000.0, 3000.0, 352.351]"
198,1,Keypoints(m),"[0.0, 0.0, 0.0]","[0.0, 0.0, 0.0]","[0.0, 0.0, 0.0]","[0.0, 0.0, 0.0]","[0.0, 0.0, 0.0]","[0.0, 0.0, 0.0]","[0.0, 0.0, 0.0]","[0.0, 0.0, 0.0]","[0.036, -0.489, 2.04]","[-0.088, -0.437, 1.938]","[-0.032, 0.039, 2.1095]","[0.036, 0.606, 2.08]","[0.174, -0.522, 2.093]","[0.0, 0.0, 0.0]","[0.0, 0.0, 0.0]","[0.0, 0.0, 0.0]","[0.0, 0.0, 0.0]","[0.0, 0.0, 0.0]","[0.0, 0.0, 0.0]","[0.0, 0.0, 0.0]","[0.0, 0.0, 0.0]"
198,1,Keypoints(image),"[0.0, 0.0, 0.0]","[420000.0, 3000.0, 56.167899999999996]","[0.0, 0.0, 0.0]","[0.0, 0.0, 0.0]","[0.0, 0.0, 0.0]","[0.0, 0.0, 0.0]","[0.0, 0.0, 0.0]","[0.0, 0.0, 0.0]","[433000.0, 134000.0, 658.976]","[406000.0, 140000.0, 639.196]","[419000.0, 244000.0, 658.307]","[433000.0, 360000.0, 691.958]","[461000.0, 130000.0, 621.174]","[0.0, 0.0, 0.0]","[0.0, 0.0, 0.0]","[0.0, 0.0, 0.0]","[0.0, 0.0, 0.0]","[0.0, 0.0, 0.0]","[0.0, 0.0, 0.0]","[0.0, 0.0, 0.0]","[0.0, 0.0, 0.0]"
198,,Distance(m),0.0,2.71469943087628,0.0,0.0,0.0,0.0,0.0,0.0,0.8706721541429931,1.2873511564448918,0.0,0.0,0.5611220901016106,0.0,0.0,0.0,0.0,0.0,0.0,0.0,0.0
198,1,Cloud Points(m),"[0.0, 0.0, 0.0]","[0.0, 0.0, 0.0]","[-0.088, -0.437, 1.938]","[0.0, 0.0, 0.0]","[0.036, 0.606, 2.08]","[0.174, -0.522, 2.093]"
198,1,Cloud Points(m),"[0.0, 0.0, 0.0]","[0.0, 0.0, 0.0]","[-0.088, -0.437, 1.938]","[0.0, 0.0, 0.0]","[0.036, 0.606, 2.08]","[0.174, -0.522, 2.093]"
198,1,Cloud Points(m),"[0.0, 0.0, 0.0]","[0.0, 0.0, 0.0]","[-0.088, -0.437, 1.938]","[0.0, 0.0, 0.0]","[0.036, 0.606, 2.08]","[0.174, -0.522, 2.093]"
198,1,Cloud Points(m),"[0.0, 0.0, 0.0]","[0.0, 0.0, 0.0]","[-0.088, -0.437, 1.938]","[0.0, 0.0, 0.0]","[0.036, 0.606, 2.08]","[0.174, -0.522, 2.093]"
198,1,Cloud Points(m),"[0.0, 0.0, 0.0]","[0.0, 0.0, 0.0]","[-0.088, -0.437, 1.938]","[0.0, 0.0, 0.0]","[0.036, 0.606, 2.08]","[0.174, -0.522, 2.093]"
198,1,Cloud Points(m),"[0.0, 0.0, 0.0]","[0.0, 0.0, 0.0]","[-0.088, -0.437, 1.938]","[0.0, 0.0, 0.0]","[0.036, 0.606, 2.08]","[0.174, -0.522, 2.093]"
198,1,Cloud Points(m),"[0.0, 0.0, 0.0]","[0.0, 0.0, 0.0]","[-0.088, -0.437, 1.938]","[0.0, 0.0, 0.0]","[0.036, 0.606, 2.08]","[0.174, -0.522, 2.093]"
198,1,Cloud Points(m),"[0.0, 0.0, 0.0]","[0.0, 0.0, 0.0]","[-0.088, -0.437, 1.938]","[0.0, 0.0, 0.0]","[0.036, 0.606, 2.08]","[0.174, -0.522, 2.093]"
198,1,Cloud Points(m),"[0.0, 0.0, 0.0]","[0.0, 0.0, 0.0]","[-0.088, -0.437, 1.938]","[0.0, 0.0, 0.0]","[0.036, 0.606, 2.08]","[0.174, -0.522, 2.093]"
198,1,Cloud Points(m),"[0.0, 0.0, 0.0]","[0.0, 0.0, 0.0]","[-0.088, -0.437, 1.938]","[0.0, 0.0, 0.0]","[0.036, 0.606, 2.08]","[0.174, -0.522, 2.093]"
198,1,Cloud Points(m),"[0.0, 0.0, 0.0]","[0.0, 0.0, 0.0]","[-0.088, -0.437, 1.938]","[0.0, 0.0, 0.0]","[0.036, 0.606, 2.08]","[0.174, -0.522, 2.093]"
198,1,Cloud Points(m),"[0.0, 0.0, 0.0]","[0.0, 0.0, 0.0]","[-0.088, -0.437, 1.938]","[0.0, 0.0, 0.0]","[0.036, 0.606, 2.08]","[0.174, -0.522, 2.093]"
198,1,Cloud Points(m),"[0.0, 0.0, 0.0]","[0.0, 0.0, 0.0]","[-0.088, -0.437, 1.938]","[0.0, 0.0, 0.0]","[0.036, 0.606, 2.08]","[0.174, -0.522, 2.093]"
198,1,Cloud Points(m),"[0.0, 0.0, 0.0]","[0.0, 0.0, 0.0]","[-0.088, -0.437, 1.938]","[0.0, 0.0, 0.0]","[0.036, 0.606, 2.08]","[0.174, -0.522, 2.093]"
198,1,Cloud Points(m),"[0.0, 0.0, 0.0]","[0.0, 0.0, 0.0]","[-0.088, -0.437, 1.938]","[0.0, 0.0, 0.0]","[0.036, 0.606, 2.08]","[0.174, -0.522, 2.093]"
198,1,Cloud Points(m),"[0.0, 0.0, 0.0]","[0.0, 0.0, 0.0]","[-0.088, -0.437, 1.938]","[0.0, 0.0, 0.0]","[0.036, 0.606, 2.08]","[0.174, -0.522, 2.093]"
198,1,Cloud Points(m),"[0.0, 0.0, 0.0]","[0.0, 0.0, 0.0]","[-0.088, -0.437, 1.938]","[0.0, 0.0, 0.0]","[0.036, 0.606, 2.08]","[0.174, -0.522, 2.093]"
198,1,Cloud Points(m),"[0.0, 0.0, 0.0]","[0.0, 0.0, 0.0]","[-0.088, -0.437, 1.938]","[0.0, 0.0, 0.0]","[0.036, 0.606, 2.08]","[0.174, -0.522, 2.093]"
198,1,Cloud Points(m),"[0.0, 0.0, 0.0]","[0.0, 0.0, 0.0]","[-0.088, -0.437, 1.938]","[0.0, 0.0, 0.0]","[0.036, 0.606, 2.08]","[0.174, -0.522, 2.093]"
198,1,Cloud Points(m),"[0.0, 0.0, 0.0]","[0.0, 0.0, 0.0]","[-0.088, -0.437, 1.938]","[0.0, 0.0, 0.0]","[0.036, 0.606, 2.08]","[0.174, -0.522, 2.093]"
198,1,Cloud Points(m),"[0.0, 0.0, 0.0]","[0.0, 0.0, 0.0]","[-0.088, -0.437, 1.938]","[0.0, 0.0, 0.0]","[0.036, 0.606, 2.08]","[0.174, -0.522, 2.093]"
199,0,Keypoints(m),"[0.42, -1.242, 2.503]","[0.617, -1.011, 2.3755]","[6.725, -9.519, 22.608]","[0.0, 0.0, 0.0]","[0.0, 0.0, 0.0]","[0.527, -1.059, 2.397]","[0.452, -0.609, 2.422]","[0.265, -0.291, 1.675]","[0.738, -0.373, 2.405]","[0.807, -0.405, 2.4615]","[0.0, 0.0, 0.0]","[0.0, 0.0, 0.0]","[0.588, -0.325, 2.1295]","[0.081, -0.044, 1.6935]","[0.0, 0.0, 0.0]","[0.0, 0.0, 0.0]","[0.452, -1.313, 2.55]","[0.0, 0.0, 0.0]","[0.531, -1.307, 2.526]","[0.593, -1.086, 2.3925]","[0.0, 0.0, 0.0]"
199,0,Keypoints(image),"[497000.0, 25000.0, 524.124]","[536000.0, 55000.0, 817.179]","[552000.0, 57000.0, 774.5419999999999]","[547000.0, 119000.0, 152.327]","[0.0, 0.0, 0.0]","[519000.0, 48000.0, 756.443]","[505000.0, 129000.0, 779.555]","[493000.0, 162000.0, 487.448]","[556000.0, 170000.0, 731.0269999999999]","[565000.0, 166000.0, 678.728]","[0.0, 0.0, 0.0]","[0.0, 0.0, 0.0]","[543000.0, 171000.0, 732.336]","[446000.0, 225000.0, 702.25]","[516000.0, 324000.0, 56.4773]","[0.0, 0.0, 0.0]","[501000.0, 17000.0, 846.703]","[539000.0, 14000.0, 51.1374]","[515000.0, 16000.0, 789.42]","[531000.0, 43000.0, 806.596]","[506000.0, 3000.0, 511.625]"
199,1,Keypoints(m),"[0.0, 0.0, 0.0]","[0.0, 0.0, 0.0]","[0.0, 0.0, 0.0]","[-0.181, -0.769, 1.96]","[-0.071, -0.414, 1.977]","[0.0, 0.0, 0.0]","[0.0, 0.0, 0.0]","[0.0, 0.0, 0.0]","[0.002, -0.497, 2.031]","[-0.108, -0.444, 1.969]","[-0.071, 0.083, 2.093]","[0.071, 0.617, 2.087]","[0.13, -0.523, 2.1]","[0.0, 0.0, 0.0]","[0.0, 0.0, 0.0]","[0.0, 0.0, 0.0]","[0.0, 0.0, 0.0]","[0.0, 0.0, 0.0]","[0.0, 0.0, 0.0]","[0.0, 0.0, 0.0]","[0.0, 0.0, 0.0]"
199,1,Keypoints(image),"[0.0, 0.0, 0.0]","[410000.0, 3000.0, 82.98089999999999]","[380000.0, 3000.0, 82.7358]","[386000.0, 69000.0, 753.683]","[410000.0, 147000.0, 646.985]","[433000.0, 3000.0, 74.365]","[444000.0, 54000.0, 94.386]","[0.0, 0.0, 0.0]","[426000.0, 132000.0, 579.415]","[402000.0, 140000.0, 569.17]","[411000.0, 253000.0, 748.409]","[440000.0, 362000.0, 707.861]","[452000.0, 130000.0, 534.066]","[0.0, 0.0, 0.0]","[0.0, 0.0, 0.0]","[0.0, 0.0, 0.0]","[0.0, 0.0, 0.0]","[0.0, 0.0, 0.0]","[0.0, 0.0, 0.0]","[0.0, 0.0, 0.0]","[0.0, 0.0, 0.0]"
199,,Distance(m),0.0,2.654394516645934,25.43538185284428,2.1132254967229596,0.0,2.672979423789117,2.5379655238005108,0.0,0.8348341152588339,1.0398568411084286,0.0,0.0,0.4998382238284704,0.0,0.0,0.0,0.0,0.0,0.0,0.0,0.0
199,1,Cloud Points(m),"[0.0, 0.0, 0.0]","[0.0, 0.0, 0.0]","[-0.181, -0.769, 1.96]","[0.0, 0.0, 0.0]","[0.0, 0.0, 0.0]","[0.093, -0.923, 2.1565]","[0.0, 0.0, 0.0]","[0.0, 0.0, 0.0]","[-0.071, 0.083, 2.093]","[0.071, 0.617, 2.087]","[0.13, -0.523, 2.1]"
199,1,Cloud Points(m),"[0.0, 0.0, 0.0]","[0.0, 0.0, 0.0]","[-0.181, -0.769, 1.96]","[0.0, 0.0, 0.0]","[0.0, 0.0, 0.0]","[0.093, -0.923, 2.1565]","[0.0, 0.0, 0.0]","[0.0, 0.0, 0.0]","[-0.071, 0.083, 2.093]","[0.071, 0.617, 2.087]","[0.13, -0.523, 2.1]"
199,1,Cloud Points(m),"[0.0, 0.0, 0.0]","[0.0, 0.0, 0.0]","[-0.181, -0.769, 1.96]","[0.0, 0.0, 0.0]","[0.0, 0.0, 0.0]","[0.093, -0.923, 2.1565]","[0.0, 0.0, 0.0]","[0.0, 0.0, 0.0]","[-0.071, 0.083, 2.093]","[0.071, 0.617, 2.087]","[0.13, -0.523, 2.1]"
199,1,Cloud Points(m),"[0.0, 0.0, 0.0]","[0.0, 0.0, 0.0]","[-0.181, -0.769, 1.96]","[0.0, 0.0, 0.0]","[0.0, 0.0, 0.0]","[0.093, -0.923, 2.1565]","[0.0, 0.0, 0.0]","[0.0, 0.0, 0.0]","[-0.071, 0.083, 2.093]","[0.071, 0.617, 2.087]","[0.13, -0.523, 2.1]"
199,1,Cloud Points(m),"[0.0, 0.0, 0.0]","[0.0, 0.0, 0.0]","[-0.181, -0.769, 1.96]","[0.0, 0.0, 0.0]","[0.0, 0.0, 0.0]","[0.093, -0.923, 2.1565]","[0.0, 0.0, 0.0]","[0.0, 0.0, 0.0]","[-0.071, 0.083, 2.093]","[0.071, 0.617, 2.087]","[0.13, -0.523, 2.1]"
199,1,Cloud Points(m),"[0.0, 0.0, 0.0]","[0.0, 0.0, 0.0]","[-0.181, -0.769, 1.96]","[0.0, 0.0, 0.0]","[0.0, 0.0, 0.0]","[0.093, -0.923, 2.1565]","[0.0, 0.0, 0.0]","[0.0, 0.0, 0.0]","[-0.071, 0.083, 2.093]","[0.071, 0.617, 2.087]","[0.13, -0.523, 2.1]"
199,1,Cloud Points(m),"[0.0, 0.0, 0.0]","[0.0, 0.0, 0.0]","[-0.181, -0.769, 1.96]","[0.0, 0.0, 0.0]","[0.0, 0.0, 0.0]","[0.093, -0.923, 2.1565]","[0.0, 0.0, 0.0]","[0.0, 0.0, 0.0]","[-0.071, 0.083, 2.093]","[0.071, 0.617, 2.087]","[0.13, -0.523, 2.1]"
199,1,Cloud Points(m),"[0.0, 0.0, 0.0]","[0.0, 0.0, 0.0]","[-0.181, -0.769, 1.96]","[0.0, 0.0, 0.0]","[0.0, 0.0, 0.0]","[0.093, -0.923, 2.1565]","[0.0, 0.0, 0.0]","[0.0, 0.0, 0.0]","[-0.071, 0.083, 2.093]","[0.071, 0.617, 2.087]","[0.13, -0.523, 2.1]"
199,1,Cloud Points(m),"[0.0, 0.0, 0.0]","[0.0, 0.0, 0.0]","[-0.181, -0.769, 1.96]","[0.0, 0.0, 0.0]","[0.0, 0.0, 0.0]","[0.093, -0.923, 2.1565]","[0.0, 0.0, 0.0]","[0.0, 0.0, 0.0]","[-0.071, 0.083, 2.093]","[0.071, 0.617, 2.087]","[0.13, -0.523, 2.1]"
199,1,Cloud Points(m),"[0.0, 0.0, 0.0]","[0.0, 0.0, 0.0]","[-0.181, -0.769, 1.96]","[0.0, 0.0, 0.0]","[0.0, 0.0, 0.0]","[0.093, -0.923, 2.1565]","[0.0, 0.0, 0.0]","[0.0, 0.0, 0.0]","[-0.071, 0.083, 2.093]","[0.071, 0.617, 2.087]","[0.13, -0.523, 2.1]"
199,1,Cloud Points(m),"[0.0, 0.0, 0.0]","[0.0, 0.0, 0.0]","[-0.181, -0.769, 1.96]","[0.0, 0.0, 0.0]","[0.0, 0.0, 0.0]","[0.093, -0.923, 2.1565]","[0.0, 0.0, 0.0]","[0.0, 0.0, 0.0]","[-0.071, 0.083, 2.093]","[0.071, 0.617, 2.087]","[0.13, -0.523, 2.1]"
199,1,Cloud Points(m),"[0.0, 0.0, 0.0]","[0.0, 0.0, 0.0]","[-0.181, -0.769, 1.96]","[0.0, 0.0, 0.0]","[0.0, 0.0, 0.0]","[0.093, -0.923, 2.1565]","[0.0, 0.0, 0.0]","[0.0, 0.0, 0.0]","[-0.071, 0.083, 2.093]","[0.071, 0.617, 2.087]","[0.13, -0.523, 2.1]"
199,1,Cloud Points(m),"[0.0, 0.0, 0.0]","[0.0, 0.0, 0.0]","[-0.181, -0.769, 1.96]","[0.0, 0.0, 0.0]","[0.0, 0.0, 0.0]","[0.093, -0.923, 2.1565]","[0.0, 0.0, 0.0]","[0.0, 0.0, 0.0]","[-0.071, 0.083, 2.093]","[0.071, 0.617, 2.087]","[0.13, -0.523, 2.1]"
199,1,Cloud Points(m),"[0.0, 0.0, 0.0]","[0.0, 0.0, 0.0]","[-0.181, -0.769, 1.96]","[0.0, 0.0, 0.0]","[0.0, 0.0, 0.0]","[0.093, -0.923, 2.1565]","[0.0, 0.0, 0.0]","[0.0, 0.0, 0.0]","[-0.071, 0.083, 2.093]","[0.071, 0.617, 2.087]","[0.13, -0.523, 2.1]"
199,1,Cloud Points(m),"[0.0, 0.0, 0.0]","[0.0, 0.0, 0.0]","[-0.181, -0.769, 1.96]","[0.0, 0.0, 0.0]","[0.0, 0.0, 0.0]","[0.093, -0.923, 2.1565]","[0.0, 0.0, 0.0]","[0.0, 0.0, 0.0]","[-0.071, 0.083, 2.093]","[0.071, 0.617, 2.087]","[0.13, -0.523, 2.1]"
199,1,Cloud Points(m),"[0.0, 0.0, 0.0]","[0.0, 0.0, 0.0]","[-0.181, -0.769, 1.96]","[0.0, 0.0, 0.0]","[0.0, 0.0, 0.0]","[0.093, -0.923, 2.1565]","[0.0, 0.0, 0.0]","[0.0, 0.0, 0.0]","[-0.071, 0.083, 2.093]","[0.071, 0.617, 2.087]","[0.13, -0.523, 2.1]"
199,1,Cloud Points(m),"[0.0, 0.0, 0.0]","[0.0, 0.0, 0.0]","[-0.181, -0.769, 1.96]","[0.0, 0.0, 0.0]","[0.0, 0.0, 0.0]","[0.093, -0.923, 2.1565]","[0.0, 0.0, 0.0]","[0.0, 0.0, 0.0]","[-0.071, 0.083, 2.093]","[0.071, 0.617, 2.087]","[0.13, -0.523, 2.1]"
199,1,Cloud Points(m),"[0.0, 0.0, 0.0]","[0.0, 0.0, 0.0]","[-0.181, -0.769, 1.96]","[0.0, 0.0, 0.0]","[0.0, 0.0, 0.0]","[0.093, -0.923, 2.1565]","[0.0, 0.0, 0.0]","[0.0, 0.0, 0.0]","[-0.071, 0.083, 2.093]","[0.071, 0.617, 2.087]","[0.13, -0.523, 2.1]"
199,1,Cloud Points(m),"[0.0, 0.0, 0.0]","[0.0, 0.0, 0.0]","[-0.181, -0.769, 1.96]","[0.0, 0.0, 0.0]","[0.0, 0.0, 0.0]","[0.093, -0.923, 2.1565]","[0.0, 0.0, 0.0]","[0.0, 0.0, 0.0]","[-0.071, 0.083, 2.093]","[0.071, 0.617, 2.087]","[0.13, -0.523, 2.1]"
199,1,Cloud Points(m),"[0.0, 0.0, 0.0]","[0.0, 0.0, 0.0]","[-0.181, -0.769, 1.96]","[0.0, 0.0, 0.0]","[0.0, 0.0, 0.0]","[0.093, -0.923, 2.1565]","[0.0, 0.0, 0.0]","[0.0, 0.0, 0.0]","[-0.071, 0.083, 2.093]","[0.071, 0.617, 2.087]","[0.13, -0.523, 2.1]"
199,1,Cloud Points(m),"[0.0, 0.0, 0.0]","[0.0, 0.0, 0.0]","[-0.181, -0.769, 1.96]","[0.0, 0.0, 0.0]","[0.0, 0.0, 0.0]","[0.093, -0.923, 2.1565]","[0.0, 0.0, 0.0]","[0.0, 0.0, 0.0]","[-0.071, 0.083, 2.093]","[0.071, 0.617, 2.087]","[0.13, -0.523, 2.1]"
199,1,Cloud Points(m),"[0.0, 0.0, 0.0]","[0.0, 0.0, 0.0]","[-0.181, -0.769, 1.96]","[0.0, 0.0, 0.0]","[0.0, 0.0, 0.0]","[0.093, -0.923, 2.1565]","[0.0, 0.0, 0.0]","[0.0, 0.0, 0.0]","[-0.071, 0.083, 2.093]","[0.071, 0.617, 2.087]","[0.13, -0.523, 2.1]"
FrameID,BodyID,Type,Joint 1,Joint 2,Joint 3,Joint 4,Joint 5,Joint 6,Joint 7,Joint 8,Joint 9,Joint 10,Joint 11,Joint 12,Joint 13,Joint 14,Joint 15,Joint 16,Joint 17,Joint 18,Joint 19,Joint 20,Joint 21,Distances
200,0,Keypoints(m),"[0.404, -1.265, 2.55]","[0.608, -1.038, 2.453]","[8.074, -11.898, 28.26]","[0.0, 0.0, 0.0]","[0.0, 0.0, 0.0]","[0.508, -1.056, 2.414]","[0.407, -0.607, 2.457]","[0.0, 0.0, 0.0]","[0.74, -0.371, 2.431]","[0.867, -0.404, 2.6445]","[0.0, 0.0, 0.0]","[0.0, 0.0, 0.0]","[0.681, -0.374, 2.4445]","[0.057, -0.048, 1.6915]","[0.523, 0.528, 1.509]","[0.0, 0.0, 0.0]","[0.413, -1.297, 2.531]","[0.0, 0.0, 0.0]","[0.47, -1.273, 2.484]","[0.58, -1.098, 2.457]","[0.0, 0.0, 0.0]"
200,0,Keypoints(image),"[493000.0, 25000.0, 570.539]","[531000.0, 56000.0, 796.2979999999999]","[547000.0, 57000.0, 796.461]","[0.0, 0.0, 0.0]","[0.0, 0.0, 0.0]","[515000.0, 50000.0, 727.328]","[496000.0, 131000.0, 803.439]","[483000.0, 168000.0, 198.313]","[555000.0, 171000.0, 776.963]","[565000.0, 171000.0, 722.0029999999999]","[0.0, 0.0, 0.0]","[0.0, 0.0, 0.0]","[544000.0, 171000.0, 781.5339999999999]","[440000.0, 224000.0, 695.748]","[573000.0, 385000.0, 323.218]","[0.0, 0.0, 0.0]","[495000.0, 18000.0, 855.855]","[0.0, 0.0, 0.0]","[506000.0, 18000.0, 703.4019999999999]","[526000.0, 46000.0, 851.833]","[499000.0, 3000.0, 574.198]"
200,1,Keypoints(m),"[0.0, 0.0, 0.0]","[0.0, 0.0, 0.0]","[0.0, 0.0, 0.0]","[-0.211, -0.767, 1.977]","[-0.109, -0.407, 1.989]","[0.0, 0.0, 0.0]","[0.0, 0.0, 0.0]","[0.0, 0.0, 0.0]","[-0.016, -0.456, 2.019]","[-0.142, -0.431, 1.992]","[-0.111, 0.079, 2.113]","[0.031, 0.607, 2.0835]","[0.092, -0.497, 2.1125]","[0.0, 0.0, 0.0]","[0.0, 0.0, 0.0]","[0.0, 0.0, 0.0]","[0.0, 0.0, 0.0]","[0.0, 0.0, 0.0]","[0.0, 0.0, 0.0]","[0.0, 0.0, 0.0]","[0.0, 0.0, 0.0]"
200,1,Keypoints(image),"[0.0, 0.0, 0.0]","[402000.0, 3000.0, 149.31]","[372000.0, 3000.0, 85.28620000000001]","[380000.0, 71000.0, 749.216]","[402000.0, 149000.0, 741.342]","[431000.0, 3000.0, 70.6044]","[0.0, 0.0, 0.0]","[0.0, 0.0, 0.0]","[422000.0, 140000.0, 725.533]","[395000.0, 144000.0, 617.028]","[403000.0, 252000.0, 725.069]","[432000.0, 360000.0, 712.92]","[444000.0, 136000.0, 571.048]","[0.0, 0.0, 0.0]","[0.0, 0.0, 0.0]","[0.0, 0.0, 0.0]","[0.0, 0.0, 0.0]","[0.0, 0.0, 0.0]","[0.0, 0.0, 0.0]","[0.0, 0.0, 0.0]","[0.0, 0.0, 0.0]"
200,,Distance(m),0.0,2.732090225450104,31.70771956479999,0.0,0.0,2.6833926287444405,0.0,0.0,0.8651618345720066,1.2019010982605849,0.0,0.0,0.6872219437707151,0.0,0.0,0.0,0.0,0.0,0.0,0.0,0.0
200,1,Cloud Points(m),"[0.0, 0.0, 0.0]","[0.0, 0.0, 0.0]","[-0.211, -0.767, 1.977]","[0.0, 0.0, 0.0]","[0.0, 0.0, 0.0]","[0.0, 0.0, 0.0]","[0.0, 0.0, 0.0]","[-0.111, 0.079, 2.113]","[0.031, 0.607, 2.0835]","[0.092, -0.497, 2.1125]"
201,0,Keypoints(m),"[0.408, -1.277, 2.574]","[0.621, -1.059, 2.503]","[7.453, -10.983, 26.086]","[0.0, 0.0, 0.0]","[0.0, 0.0, 0.0]","[0.523, -1.076, 2.4615]","[0.415, -0.618, 2.503]","[0.0, 0.0, 0.0]","[0.765, -0.378, 2.512]","[0.99, -0.468, 3.062]","[0.0, 0.0, 0.0]","[0.0, 0.0, 0.0]","[0.704, -0.371, 2.466]","[0.058, -0.052, 1.715]","[0.0, 0.0, 0.0]","[0.0, 0.0, 0.0]","[0.416, -1.307, 2.55]","[0.0, 0.0, 0.0]","[0.477, -1.298, 2.521]","[0.594, -1.124, 2.5165]","[0.0, 0.0, 0.0]"
201,0,Keypoints(image),"[493000.0, 25000.0, 581.059]","[531000.0, 56000.0, 830.5759999999999]","[547000.0, 57000.0, 836.193]","[0.0, 0.0, 0.0]","[0.0, 0.0, 0.0]","[516000.0, 50000.0, 745.712]","[496000.0, 131000.0, 821.858]","[479000.0, 172000.0, 234.22899999999998]","[555000.0, 172000.0, 802.65]","[563000.0, 171000.0, 727.835]","[0.0, 0.0, 0.0]","[0.0, 0.0, 0.0]","[547000.0, 172000.0, 820.0110000000001]","[440000.0, 223000.0, 734.128]","[0.0, 0.0, 0.0]","[0.0, 0.0, 0.0]","[495000.0, 18000.0, 846.029]","[0.0, 0.0, 0.0]","[506000.0, 17000.0, 741.614]","[526000.0, 46000.0, 876.9369999999999]","[499000.0, 3000.0, 636.211]"
201,1,Keypoints(m),"[0.0, 0.0, 0.0]","[0.0, 0.0, 0.0]","[0.0, 0.0, 0.0]","[-0.219, -0.806, 2.052]","[-0.117, -0.414, 2.049]","[0.0, 0.0, 0.0]","[0.0, 0.0, 0.0]","[0.0, 0.0, 0.0]","[-0.017, -0.475, 2.106]","[-0.155, -0.426, 2.037]","[-0.108, 0.062, 2.0555]","[0.032, 0.612, 2.103]","[0.094, -0.52, 2.1705]","[0.0, 0.0, 0.0]","[0.0, 0.0, 0.0]","[0.0, 0.0, 0.0]","[0.0, 0.0, 0.0]","[0.0, 0.0, 0.0]","[0.0, 0.0, 0.0]","[0.0, 0.0, 0.0]","[0.0, 0.0, 0.0]"
201,1,Keypoints(image),"[0.0, 0.0, 0.0]","[402000.0, 3000.0, 134.653]","[371000.0, 3000.0, 95.9953]","[380000.0, 69000.0, 753.7620000000001]","[401000.0, 150000.0, 757.097]","[431000.0, 3000.0, 59.384100000000004]","[0.0, 0.0, 0.0]","[0.0, 0.0, 0.0]","[422000.0, 140000.0, 796.674]","[393000.0, 147000.0, 677.682]","[403000.0, 249000.0, 718.1610000000001]","[432000.0, 360000.0, 713.7769999999999]","[444000.0, 134000.0, 644.648]","[0.0, 0.0, 0.0]","[0.0, 0.0, 0.0]","[0.0, 0.0, 0.0]","[0.0, 0.0, 0.0]","[0.0, 0.0, 0.0]","[0.0, 0.0, 0.0]","[0.0, 0.0, 0.0]","[0.0, 0.0, 0.0]"
201,,Distance(m),0.0,2.787854192743946,29.268633278648323,0.0,0.0,2.7368389156104893,0.0,0.0,0.8864361229101622,1.5373399103646532,0.0,0.0,0.6939893731174851,0.0,0.0,0.0,0.0,0.0,0.0,0.0,0.0
201,1,Cloud Points(m),"[0.0, 0.0, 0.0]","[0.0, 0.0, 0.0]","[0.0, 0.0, 0.0]","[0.0, 0.0, 0.0]","[0.0, 0.0, 0.0]","[0.0, 0.0, 0.0]","[0.0, 0.0, 0.0]","[-0.108, 0.062, 2.0555]","[0.032, 0.612, 2.103]","[0.094, -0.52, 2.1705]"
201,1,Cloud Points(m),"[0.0, 0.0, 0.0]","[0.0, 0.0, 0.0]","[0.0, 0.0, 0.0]","[0.0, 0.0, 0.0]","[0.0, 0.0, 0.0]","[0.0, 0.0, 0.0]","[0.0, 0.0, 0.0]","[-0.108, 0.062, 2.0555]","[0.032, 0.612, 2.103]","[0.094, -0.52, 2.1705]"
202,0,Keypoints(m),"[0.352, -1.286, 2.604]","[0.53, -1.026, 2.466]","[6.527, -10.163, 25.12]","[0.0, 0.0, 0.0]","[0.0, 0.0, 0.0]","[0.435, -1.038, 2.453]","[0.358, -0.634, 2.521]","[0.205, -0.286, 1.764]","[0.665, -0.358, 2.494]","[0.723, -0.36, 2.512]","[0.0, 0.0, 0.0]","[0.0, 0.0, 0.0]","[0.617, -0.366, 2.512]","[-0.022, -0.053, 1.739]","[0.563, 0.56, 1.7415]","[0.0, 0.0, 0.0]","[0.358, -1.304, 2.604]","[0.0, 0.0, 0.0]","[0.429, -1.297, 2.589]","[0.522, -1.116, 2.512]","[0.0, 0.0, 0.0]"
202,0,Keypoints(image),"[483000.0, 26000.0, 658.2909999999999]","[517000.0, 59000.0, 824.662]","[536000.0, 64000.0, 787.7610000000001]","[0.0, 0.0, 0.0]","[0.0, 0.0, 0.0]","[501000.0, 56000.0, 783.424]","[486000.0, 129000.0, 823.365]","[475000.0, 167000.0, 660.66]","[539000.0, 175000.0, 695.265]","[548000.0, 175000.0, 676.8389999999999]","[0.0, 0.0, 0.0]","[0.0, 0.0, 0.0]","[530000.0, 174000.0, 706.035]","[420000.0, 223000.0, 646.6899999999999]","[563000.0, 373000.0, 579.339]","[0.0, 0.0, 0.0]","[484000.0, 23000.0, 908.462]","[519000.0, 16000.0, 107.327]","[496000.0, 23000.0, 829.981]","[514000.0, 47000.0, 848.703]","[489000.0, 3000.0, 776.137]"
202,1,Keypoints(m),"[0.0, 0.0, 0.0]","[0.0, 0.0, 0.0]","[0.0, 0.0, 0.0]","[-0.273, -0.747, 2.062]","[-0.172, -0.4, 2.074]","[0.0, 0.0, 0.0]","[0.0, 0.0, 0.0]","[0.0, 0.0, 0.0]","[-0.052, -0.478, 2.14]","[-0.172, -0.424, 2.074]","[-0.111, 0.08, 2.016]","[0.037, 0.629, 2.1095]","[0.069, -0.49, 2.1705]","[0.0, 0.0, 0.0]","[0.0, 0.0, 0.0]","[0.0, 0.0, 0.0]","[0.0, 0.0, 0.0]","[0.0, 0.0, 0.0]","[0.0, 0.0, 0.0]","[0.0, 0.0, 0.0]","[0.0, 0.0, 0.0]"
202,1,Keypoints(image),"[0.0, 0.0, 0.0]","[390000.0, 3000.0, 362.263]","[359000.0, 3000.0, 436.385]","[369000.0, 82000.0, 749.582]","[390000.0, 154000.0, 763.3839999999999]","[416000.0, 3000.0, 255.67299999999997]","[431000.0, 65000.0, 179.096]","[0.0, 0.0, 0.0]","[415000.0, 141000.0, 679.016]","[390000.0, 149000.0, 591.0699999999999]","[402000.0, 253000.0, 684.691]","[433000.0, 363000.0, 666.1129999999999]","[439000.0, 140000.0, 651.749]","[0.0, 0.0, 0.0]","[0.0, 0.0, 0.0]","[0.0, 0.0, 0.0]","[0.0, 0.0, 0.0]","[0.0, 0.0, 0.0]","[0.0, 0.0, 0.0]","[0.0, 0.0, 0.0]","[0.0, 0.0, 0.0]"
202,,Distance(m),0.0,2.7230005508629627,27.87297432998495,0.0,0.0,2.6988660581807316,2.624035251287604,0.0,0.8085820923072684,0.9984813468462994,0.0,0.0,0.6574969581678687,0.0,0.0,0.0,0.0,0.0,0.0,0.0,0.0
202,1,Cloud Points(m),"[0.0, 0.0, 0.0]","[0.0, 0.0, 0.0]","[-0.273, -0.747, 2.062]","[0.0, 0.0, 0.0]","[0.0, 0.0, 0.0]","[0.029, -0.903, 2.246]","[0.0, 0.0, 0.0]","[0.0, 0.0, 0.0]","[-0.111, 0.08, 2.016]","[0.037, 0.629, 2.1095]","[0.069, -0.49, 2.1705]"
202,1,Cloud Points(m),"[0.0, 0.0, 0.0]","[0.0, 0.0, 0.0]","[-0.273, -0.747, 2.062]","[0.0, 0.0, 0.0]","[0.0, 0.0, 0.0]","[0.029, -0.903, 2.246]","[0.0, 0.0, 0.0]","[0.0, 0.0, 0.0]","[-0.111, 0.08, 2.016]","[0.037, 0.629, 2.1095]","[0.069, -0.49, 2.1705]"
202,1,Cloud Points(m),"[0.0, 0.0, 0.0]","[0.0, 0.0, 0.0]","[-0.273, -0.747, 2.062]","[0.0, 0.0, 0.0]","[0.0, 0.0, 0.0]","[0.029, -0.903, 2.246]","[0.0, 0.0, 0.0]","[0.0, 0.0, 0.0]","[-0.111, 0.08, 2.016]","[0.037, 0.629, 2.1095]","[0.069, -0.49, 2.1705]"
203,0,Keypoints(m),"[0.314, -1.264, 2.649]","[0.519, -1.027, 2.526]","[0.641, -1.067, 2.686]","[0.0, 0.0, 0.0]","[0.0, 0.0, 0.0]","[0.406, -1.034, 2.484]","[0.34, -0.628, 2.521]","[0.206, -0.302, 1.892]","[0.65, -0.353, 2.503]","[0.79, -0.4, 2.791]","[0.0, 0.0, 0.0]","[0.0, 0.0, 0.0]","[0.593, -0.366, 2.512]","[-0.069, -0.047, 1.806]","[-0.32, 0.707, 2.55]","[0.0, 0.0, 0.0]","[0.327, -1.308, 2.649]","[0.0, 0.0, 0.0]","[0.417, -1.298, 2.629]","[0.477, -1.097, 2.5215]","[0.0, 0.0, 0.0]"
203,0,Keypoints(image),"[476000.0, 33000.0, 535.5269999999999]","[513000.0, 63000.0, 800.8380000000001]","[527000.0, 67000.0, 844.3829999999999]","[0.0, 0.0, 0.0]","[0.0, 0.0, 0.0]","[495000.0, 59000.0, 830.831]","[483000.0, 130000.0, 864.3539999999999]","[472000.0, 168000.0, 719.92]","[536000.0, 176000.0, 803.6759999999999]","[546000.0, 175000.0, 779.5509999999999]","[526000.0, 247000.0, 222.652]","[0.0, 0.0, 0.0]","[526000.0, 174000.0, 851.488]","[409000.0, 225000.0, 582.3159999999999]","[372000.0, 354000.0, 447.308]","[0.0, 0.0, 0.0]","[478000.0, 26000.0, 831.125]","[516000.0, 24000.0, 239.11399999999998]","[493000.0, 26000.0, 880.4359999999999]","[506000.0, 51000.0, 864.107]","[486000.0, 3000.0, 892.441]"
203,1,Keypoints(m),"[0.0, 0.0, 0.0]","[0.0, 0.0, 0.0]","[0.0, 0.0, 0.0]","[-0.308, -0.739, 2.068]","[-0.218, -0.389, 2.093]","[0.0, 0.0, 0.0]","[0.0, 0.0, 0.0]","[0.0, 0.0, 0.0]","[-0.072, -0.471, 2.133]","[-0.194, -0.423, 2.093]","[-0.121, 0.082, 1.9545]","[0.036, 0.608, 2.087]","[0.033, -0.494, 2.188]","[0.0, 0.0, 0.0]","[0.0, 0.0, 0.0]","[0.0, 0.0, 0.0]","[0.0, 0.0, 0.0]","[0.0, 0.0, 0.0]","[0.0, 0.0, 0.0]","[0.0, 0.0, 0.0]","[0.0, 0.0, 0.0]"
203,1,Keypoints(image),"[0.0, 0.0, 0.0]","[388000.0, 3000.0, 453.108]","[355000.0, 3000.0, 533.956]","[362000.0, 84000.0, 710.499]","[381000.0, 157000.0, 832.716]","[414000.0, 3000.0, 372.61199999999997]","[422000.0, 69000.0, 138.495]","[0.0, 0.0, 0.0]","[411000.0, 142000.0, 686.516]","[386000.0, 150000.0, 557.406]","[399000.0, 254000.0, 681.727]","[433000.0, 360000.0, 584.842]","[432000.0, 140000.0, 689.762]","[0.0, 0.0, 0.0]","[0.0, 0.0, 0.0]","[0.0, 0.0, 0.0]","[0.0, 0.0, 0.0]","[0.0, 0.0, 0.0]","[0.0, 0.0, 0.0]","[390000.0, 3000.0, 64.96889999999999]","[0.0, 0.0, 0.0]"
